(back_plate_ramp)
(T2 D=3.175 CR=0 - ZMIN=-6 - flat end mill)
G90 G94
G17
G21
G28 G91 Z0
G90

(Ramp1)
T2
S5000 M3
G54
G0 X82.079 Y62.79
Z15
G0 Z1.865
G1 Z0.368 F400
G18 G2 X82.395 Z0.05 I0.317 K0 F70.3
G1 X89.923 Z0.009
X90.065 Y62.788 Z0.008
X90.207 Y62.776 Z0.007
X90.35 Y62.751
X90.492 Y62.712 Z0.006
X90.525 Y62.7
X90.635 Y62.657 Z0.005
X90.777 Y62.587 Z0.004
X90.826 Y62.558
X90.919 Y62.496 Z0.003
X91.023 Y62.416 Z0.002
X91.062 Y62.382
X91.117 Y62.331
X91.172 Y62.273 Z0.001
X91.204 Y62.237
X91.287 Y62.131 Z0
X91.317 Y62.089
X91.287 Y62.131
X91.204 Y62.237 Z-0.001
X91.172 Y62.273
X91.117 Y62.331 Z-0.002
X91.062 Y62.382
X91.023 Y62.416
X90.919 Y62.496 Z-0.003
X90.826 Y62.558 Z-0.004
X90.777 Y62.587
X90.635 Y62.657 Z-0.005
X90.525 Y62.7 Z-0.006
X90.492 Y62.712
X90.35 Y62.751 Z-0.007
X90.207 Y62.776
X90.065 Y62.788 Z-0.008
X89.923 Y62.79 Z-0.009
X-89.923 Z-0.991
X-90.065 Y62.788 Z-0.992
X-90.207 Y62.776 Z-0.993
X-90.35 Y62.751
X-90.492 Y62.712 Z-0.994
X-90.525 Y62.7
X-90.635 Y62.657 Z-0.995
X-90.777 Y62.587 Z-0.996
X-90.826 Y62.558
X-90.919 Y62.496 Z-0.997
X-91.023 Y62.416 Z-0.998
X-91.062 Y62.382
X-91.117 Y62.331
X-91.172 Y62.273 Z-0.999
X-91.204 Y62.237
X-91.287 Y62.131 Z-1
X-91.316 Y62.09
X-91.317 Y62.089
X-91.287 Y62.131 F400
X-91.204 Y62.237
X-91.172 Y62.273
X-91.117 Y62.331
X-91.062 Y62.382
X-91.023 Y62.416
X-90.919 Y62.496
X-90.826 Y62.558
X-90.777 Y62.587
X-90.635 Y62.657
X-90.525 Y62.7
X-90.492 Y62.712
X-90.35 Y62.751
X-90.207 Y62.776
X-90.065 Y62.788
X-89.923 Y62.79
X89.923
X90.065 Y62.788
X90.207 Y62.776
X90.35 Y62.751
X90.492 Y62.712
X90.525 Y62.7
X90.635 Y62.657
X90.777 Y62.587
X90.826 Y62.558
X90.919 Y62.496
X91.023 Y62.416
X91.062 Y62.382
X91.117 Y62.331
X91.172 Y62.273
X91.204 Y62.237
X91.287 Y62.131
X91.317 Y62.089
G0 Z5
X-94.523 Y64.058
Z0.313
G1 Z-1.683 F400
X-94.516 Y64.054 Z-1.753
X-94.495 Y64.043 Z-1.82
X-94.462 Y64.025 Z-1.88
X-94.418 Y64.001 Z-1.931
X-94.365 Y63.972 Z-1.969
X-94.306 Y63.94 Z-1.992
X-94.244 Y63.907 Z-2
X-91.827 Y62.593
G17 G3 X-91.397 Y62.72 I0.152 J0.279
G1 X-91.393 Y62.727
X-91.378 Y62.753
X-91.347 Y62.806
X-91.323 Y62.843
X-91.273 Y62.914
X-91.217 Y62.985
X-91.204 Y63
X-91.146 Y63.064
X-91.082 Y63.127
X-91.062 Y63.146
X-90.991 Y63.206
X-90.919 Y63.26
X-90.905 Y63.27
X-90.777 Y63.35
X-90.654 Y63.412
X-90.635 Y63.421
X-90.492 Y63.475
X-90.35 Y63.514
X-90.207 Y63.539
X-90.065 Y63.552
X-89.923 Y63.553
X89.923
X90.065 Y63.552
X90.207 Y63.539
X90.35 Y63.514
X90.492 Y63.475
X90.635 Y63.421
X90.654 Y63.412
X90.777 Y63.35
X90.905 Y63.27
X90.919 Y63.26
X90.991 Y63.206
X91.062 Y63.146
X91.082 Y63.127
X91.146 Y63.064
X91.204 Y63
X91.217 Y62.985
X91.273 Y62.914
X91.323 Y62.843
X91.347 Y62.806
X91.378 Y62.753
X91.393 Y62.727
X91.397 Y62.72
G3 X91.861 Y62.614 I0.279 J0.152
G1 X93.614 Y63.873
X93.671 Y63.915 Z-1.992
X93.726 Y63.954 Z-1.969
X93.775 Y63.989 Z-1.931
X93.816 Y64.018 Z-1.88
X93.846 Y64.04 Z-1.82
X93.865 Y64.054 Z-1.753
X93.872 Y64.059 Z-1.683
G0 Z5
X-93.316 Y64.088
Z-2.647
G1 Z-2.682 F400
X-93.309 Y64.084 Z-2.753
X-93.288 Y64.074 Z-2.82
X-93.255 Y64.057 Z-2.88
X-93.21 Y64.034 Z-2.931
X-93.156 Y64.007 Z-2.969
X-93.096 Y63.977 Z-2.992
X-93.033 Y63.945 Z-3
X-91.845 Y63.345
G3 X-91.419 Y63.486 I0.143 J0.283
G1 X-91.415 Y63.492
X-91.411 Y63.501
X-91.402 Y63.519
X-91.382 Y63.555
X-91.347 Y63.614
X-91.291 Y63.697
X-91.25 Y63.752
X-91.204 Y63.808
X-91.177 Y63.839
X-91.119 Y63.899
X-91.062 Y63.954
X-91.03 Y63.982
X-90.919 Y64.068
X-90.835 Y64.124
X-90.777 Y64.158
X-90.635 Y64.229
X-90.54 Y64.266
X-90.492 Y64.283
X-90.35 Y64.322
X-90.207 Y64.347
X-90.065 Y64.36
X-89.923 Y64.361
X89.923
X90.065 Y64.36
X90.207 Y64.347
X90.35 Y64.322
X90.492 Y64.283
X90.54 Y64.266
X90.635 Y64.229
X90.777 Y64.158
X90.835 Y64.124
X90.919 Y64.068
X91.03 Y63.982
X91.062 Y63.954
X91.119 Y63.899
X91.177 Y63.839
X91.204 Y63.808
X91.25 Y63.752
X91.291 Y63.697
X91.347 Y63.614
X91.382 Y63.555
X91.402 Y63.519
X91.411 Y63.501
X91.415 Y63.492
X91.419 Y63.486
G3 X91.926 Y63.404 I0.283 J0.143
G1 X92.389 Y63.865
X92.439 Y63.915 Z-2.992
X92.486 Y63.962 Z-2.969
X92.529 Y64.005 Z-2.931
X92.564 Y64.04 Z-2.88
X92.591 Y64.067 Z-2.82
X92.608 Y64.083 Z-2.753
X92.614 Y64.089 Z-2.682
G0 Z5
X-92.645 Y64.532
Z-1.688
G1 Z-3.682 F400
X-92.638 Y64.529 Z-3.753
X-92.617 Y64.518 Z-3.82
X-92.583 Y64.502 Z-3.88
X-92.538 Y64.48 Z-3.931
X-92.483 Y64.454 Z-3.969
X-92.423 Y64.425 Z-3.992
X-92.359 Y64.394 Z-4
X-91.862 Y64.154
G3 X-91.438 Y64.302 I0.138 J0.286
G1 X-91.421 Y64.337
X-91.383 Y64.409
X-91.347 Y64.47
X-91.293 Y64.551
X-91.25 Y64.607
X-91.204 Y64.664
X-91.178 Y64.693
X-91.12 Y64.754
X-91.062 Y64.81
X-91.032 Y64.836
X-90.919 Y64.924
X-90.838 Y64.978
X-90.777 Y65.014
X-90.635 Y65.085
X-90.545 Y65.12
X-90.492 Y65.139
X-90.35 Y65.178
X-90.207 Y65.203
X-90.065 Y65.216
X-89.923 Y65.217
X89.923
X90.065 Y65.216
X90.207 Y65.203
X90.35 Y65.178
X90.492 Y65.139
X90.545 Y65.12
X90.635 Y65.085
X90.777 Y65.014
X90.838 Y64.978
X90.919 Y64.924
X91.032 Y64.836
X91.062 Y64.81
X91.12 Y64.754
X91.178 Y64.693
X91.204 Y64.664
X91.25 Y64.607
X91.293 Y64.551
X91.347 Y64.47
X91.383 Y64.409
X91.421 Y64.337
X91.438 Y64.302
G3 X91.949 Y64.216 I0.286 J0.138
G1 X92.245 Y64.512
X92.295 Y64.562 Z-3.992
X92.342 Y64.61 Z-3.969
X92.385 Y64.652 Z-3.931
X92.42 Y64.688 Z-3.88
X92.447 Y64.715 Z-3.82
X92.463 Y64.731 Z-3.753
X92.469 Y64.737 Z-3.682
G0 Z5
X-92.657 Y65.35
Z-2.683
G1 Z-4.682 F400
X-92.649 Y65.347 Z-4.753
X-92.628 Y65.337 Z-4.82
X-92.593 Y65.322 Z-4.88
X-92.547 Y65.302 Z-4.931
X-92.492 Y65.278 Z-4.969
X-92.431 Y65.251 Z-4.992
X-92.366 Y65.223 Z-5
X-91.873 Y65.008
G3 X-91.455 Y65.171 I0.127 J0.291
G1 X-91.454 Y65.174
X-91.446 Y65.191
X-91.412 Y65.263
X-91.381 Y65.32
X-91.347 Y65.378
X-91.329 Y65.405
X-91.28 Y65.476
X-91.224 Y65.547
X-91.204 Y65.571
X-91.151 Y65.63
X-91.091 Y65.69
X-91.062 Y65.717
X-90.991 Y65.777
X-90.919 Y65.831
X-90.918 Y65.832
X-90.848 Y65.879
X-90.777 Y65.921
X-90.674 Y65.974
X-90.635 Y65.992
X-90.492 Y66.046
X-90.35 Y66.085
X-90.207 Y66.111
X-90.157 Y66.117
X-90.065 Y66.123
X-89.923 Y66.124
X89.923
X90.065 Y66.123
X90.157 Y66.117
X90.207 Y66.111
X90.35 Y66.085
X90.492 Y66.046
X90.635 Y65.992
X90.674 Y65.974
X90.777 Y65.921
X90.848 Y65.879
X90.918 Y65.832
X90.919 Y65.831
X90.991 Y65.777
X91.062 Y65.717
X91.091 Y65.69
X91.151 Y65.63
X91.204 Y65.571
X91.224 Y65.547
X91.28 Y65.476
X91.329 Y65.405
X91.347 Y65.378
X91.381 Y65.32
X91.412 Y65.263
X91.446 Y65.191
X91.454 Y65.174
X91.455 Y65.171
G3 X91.963 Y65.067 I0.291 J0.127
G1 X92.254 Y65.339
X92.305 Y65.388 Z-4.992
X92.354 Y65.434 Z-4.969
X92.398 Y65.475 Z-4.931
X92.435 Y65.509 Z-4.88
X92.463 Y65.535 Z-4.82
X92.48 Y65.551 Z-4.753
X92.486 Y65.557 Z-4.682
G0 Z5
X-92.659 Y66.238
Z-3.686
G1 Z-5.682 F400
X-92.652 Y66.235 Z-5.753
X-92.63 Y66.226 Z-5.82
X-92.595 Y66.212 Z-5.88
X-92.548 Y66.193 Z-5.931
X-92.493 Y66.17 Z-5.969
X-92.431 Y66.145 Z-5.992
X-92.365 Y66.118 Z-6
X-91.884 Y65.921
G3 X-91.47 Y66.094 I0.12 J0.294
G1 X-91.468 Y66.099
X-91.461 Y66.117
X-91.428 Y66.188
X-91.392 Y66.259
X-91.347 Y66.336
X-91.303 Y66.401
X-91.256 Y66.465
X-91.204 Y66.53
X-91.192 Y66.544
X-91.131 Y66.609
X-91.062 Y66.675
X-91.05 Y66.686
X-90.985 Y66.74
X-90.919 Y66.789
X-90.862 Y66.828
X-90.777 Y66.88
X-90.635 Y66.95
X-90.586 Y66.971
X-90.492 Y67.004
X-90.35 Y67.044
X-90.207 Y67.069
X-90.065 Y67.081
X-89.923 Y67.083
X89.923
X90.065 Y67.081
X90.207 Y67.069
X90.35 Y67.044
X90.492 Y67.004
X90.586 Y66.971
X90.635 Y66.95
X90.777 Y66.88
X90.862 Y66.828
X90.919 Y66.789
X90.985 Y66.74
X91.05 Y66.686
X91.062 Y66.675
X91.131 Y66.609
X91.192 Y66.544
X91.204 Y66.53
X91.256 Y66.465
X91.303 Y66.401
X91.347 Y66.336
X91.392 Y66.259
X91.428 Y66.188
X91.461 Y66.117
X91.468 Y66.099
X91.47 Y66.094
G3 X91.977 Y65.979 I0.294 J0.12
G1 X92.255 Y66.231
X92.307 Y66.278 Z-5.992
X92.357 Y66.323 Z-5.969
X92.402 Y66.364 Z-5.931
X92.439 Y66.397 Z-5.88
X92.467 Y66.423 Z-5.82
X92.484 Y66.438 Z-5.753
X92.49 Y66.444 Z-5.682
G0 Z15
G28 G91 Z0
G90
G28 G91 X0 Y0
G90
M5
M30
