(back_plate_holes)
(T2 D=3.175 CR=0 - ZMIN=-6.5 - flat end mill)
G90 G94
G17
G21
G28 G91 Z0
G90

(Drill1)
T2
S5000 M3
G54
G0 X51.969 Y-32.542
Z15
G0 Z5
G1 Z-6.5 F50.3
G0 Z5
Y46.258
G1 Z-6.5 F50.3
G0 Z5
X-54.631
G1 Z-6.5 F50.3
G0 Z5
Y-32.542
G1 Z-6.5 F50.3
G0 Z5
Z15
G28 G91 Z0
G90
G28 G91 X0 Y0
G90
M5
M30
