(back_plate)
(T2 D=3.175 CR=0 - ZMIN=-6.5 - flat end mill)
G90 G94
G17
G21
G28 G91 Z0
G90

(2D Contour2)
T2
S5000 M3
G54
G0 X-96.317 Y-56.96
Z15
G0 Z5
G1 Z1.2 F70
Z0.117
G19 G2 Y-57.278 Z-0.2 J-0.318 K0 F400
G1 Y-57.595
G17 G3 X-96 Y-57.912 I0.317 J0
G1 X-91.588
Y-56.088
X-96
G2 X-97.588 Y-54.5 I0 J1.588
G1 Y-49.5
G2 X-96 Y-47.912 I1.588 J0
G1 X-91.588
Y-46.088
X-96
G2 X-97.588 Y-44.5 I0 J1.588
G1 Y-39.5
G2 X-96 Y-37.912 I1.588 J0
G1 X-91.588
Y-36.088
X-96
G2 X-97.588 Y-34.5 I0 J1.588
G1 Y-29.5
G2 X-96 Y-27.913 I1.588 J0
G1 X-91.588
Y-26.087
X-96
G2 X-97.588 Y-24.5 I0 J1.587
G1 Y-19.5
G2 X-96 Y-17.913 I1.588 J0
G1 X-91.588
Y-16.087
X-96
G2 X-97.588 Y-14.5 I0 J1.587
G1 Y-9.5
G2 X-96 Y-7.912 I1.588 J0
G1 X-91.588
Y-6.088
X-96
G2 X-97.588 Y-4.5 I0 J1.588
G1 Y0.5
G2 X-96 Y2.088 I1.588 J0
G1 X-91.588
Y3.912
X-96
G2 X-97.588 Y5.5 I0 J1.588
G1 Y10.5
G2 X-96 Y12.087 I1.588 J0
G1 X-91.588
Y13.913
X-96
G2 X-97.588 Y15.5 I0 J1.587
G1 Y20.5
G2 X-96 Y22.087 I1.588 J0
G1 X-91.588
Y23.913
X-96
G2 X-97.588 Y25.5 I0 J1.587
G1 Y30.5
G2 X-96 Y32.088 I1.588 J0
G1 X-91.588
Y33.912
X-96
G2 X-97.588 Y35.5 I0 J1.588
G1 Y40.5
G2 X-96 Y42.088 I1.588 J0
G1 X-91.588
Y43.912
X-96
G2 X-97.588 Y45.5 I0 J1.588
G1 Y50.5
G2 X-96 Y52.088 I1.588 J0
G1 X-91.588
Y53.912
X-96
G2 X-97.588 Y55.5 I0 J1.588
G1 Y60.5
G2 X-96 Y62.088 I1.588 J0
G1 X-91.588
Y65.5
G2 X-90 Y67.088 I1.588 J0
G1 X90
G2 X91.588 Y65.5 I0 J-1.588
G1 Y62.088
X96
G2 X97.588 Y60.5 I0 J-1.588
G1 Y55.5
G2 X96 Y53.912 I-1.588 J0
G1 X91.588
Y52.088
X96
G2 X97.588 Y50.5 I0 J-1.588
G1 Y45.5
G2 X96 Y43.912 I-1.588 J0
G1 X91.588
Y42.088
X96
G2 X97.588 Y40.5 I0 J-1.588
G1 Y35.5
G2 X96 Y33.912 I-1.588 J0
G1 X91.588
Y32.088
X96
G2 X97.588 Y30.5 I0 J-1.588
G1 Y25.5
G2 X96 Y23.913 I-1.588 J0
G1 X91.588
Y22.087
X96
G2 X97.588 Y20.5 I0 J-1.587
G1 Y15.5
G2 X96 Y13.913 I-1.588 J0
G1 X91.588
Y12.087
X96
G2 X97.588 Y10.5 I0 J-1.587
G1 Y5.5
G2 X96 Y3.912 I-1.588 J0
G1 X91.588
Y2.088
X96
G2 X97.588 Y0.5 I0 J-1.588
G1 Y-4.5
G2 X96 Y-6.088 I-1.588 J0
G1 X91.588
Y-7.912
X96
G2 X97.588 Y-9.5 I0 J-1.588
G1 Y-14.5
G2 X96 Y-16.087 I-1.588 J0
G1 X91.588
Y-17.913
X96
G2 X97.588 Y-19.5 I0 J-1.587
G1 Y-24.5
G2 X96 Y-26.087 I-1.588 J0
G1 X91.588
Y-27.913
X96
G2 X97.588 Y-29.5 I0 J-1.587
G1 Y-34.5
G2 X96 Y-36.088 I-1.588 J0
G1 X91.588
Y-37.912
X96
G2 X97.588 Y-39.5 I0 J-1.588
G1 Y-44.5
G2 X96 Y-46.088 I-1.588 J0
G1 X91.588
Y-47.912
X96
G2 X97.588 Y-49.5 I0 J-1.588
G1 Y-54.5
G2 X96 Y-56.088 I-1.588 J0
G1 X91.588
Y-57.912
X96
G2 X97.588 Y-59.5 I0 J-1.588
G1 Y-65.5
G2 X96 Y-67.088 I-1.588 J0
G1 X75
G2 X73.412 Y-65.5 I0 J1.588
G1 Y-61.088
X51.588
Y-65.5
G2 X50 Y-67.088 I-1.588 J0
G1 X15
G2 X13.413 Y-65.5 I0 J1.588
G1 Y-61.088
X-13.413
Y-65.5
G2 X-15 Y-67.088 I-1.587 J0
G1 X-50
G2 X-51.588 Y-65.5 I0 J1.588
G1 Y-61.088
X-73.412
Y-65.5
G2 X-75 Y-67.088 I-1.588 J0
G1 X-96
G2 X-97.588 Y-65.5 I0 J1.588
G1 Y-59.5
G2 X-96 Y-57.912 I1.588 J0
G3 X-95.683 Y-57.595 I0 J0.317
G1 Y-57.278
G19 G3 Y-56.96 Z0.117 J0 K0.318
G0 Z5
X-96.317
G1 Z1 F70
Z-0.083
G2 Y-57.278 Z-0.4 J-0.318 K0 F400
G1 Y-57.595
G17 G3 X-96 Y-57.912 I0.317 J0
G1 X-91.588
Y-56.088
X-96
G2 X-97.588 Y-54.5 I0 J1.588
G1 Y-49.5
G2 X-96 Y-47.912 I1.588 J0
G1 X-91.588
Y-46.088
X-96
G2 X-97.588 Y-44.5 I0 J1.588
G1 Y-39.5
G2 X-96 Y-37.912 I1.588 J0
G1 X-91.588
Y-36.088
X-96
G2 X-97.588 Y-34.5 I0 J1.588
G1 Y-29.5
G2 X-96 Y-27.913 I1.588 J0
G1 X-91.588
Y-26.087
X-96
G2 X-97.588 Y-24.5 I0 J1.587
G1 Y-19.5
G2 X-96 Y-17.913 I1.588 J0
G1 X-91.588
Y-16.087
X-96
G2 X-97.588 Y-14.5 I0 J1.587
G1 Y-9.5
G2 X-96 Y-7.912 I1.588 J0
G1 X-91.588
Y-6.088
X-96
G2 X-97.588 Y-4.5 I0 J1.588
G1 Y0.5
G2 X-96 Y2.088 I1.588 J0
G1 X-91.588
Y3.912
X-96
G2 X-97.588 Y5.5 I0 J1.588
G1 Y10.5
G2 X-96 Y12.087 I1.588 J0
G1 X-91.588
Y13.913
X-96
G2 X-97.588 Y15.5 I0 J1.587
G1 Y20.5
G2 X-96 Y22.087 I1.588 J0
G1 X-91.588
Y23.913
X-96
G2 X-97.588 Y25.5 I0 J1.587
G1 Y30.5
G2 X-96 Y32.088 I1.588 J0
G1 X-91.588
Y33.912
X-96
G2 X-97.588 Y35.5 I0 J1.588
G1 Y40.5
G2 X-96 Y42.088 I1.588 J0
G1 X-91.588
Y43.912
X-96
G2 X-97.588 Y45.5 I0 J1.588
G1 Y50.5
G2 X-96 Y52.088 I1.588 J0
G1 X-91.588
Y53.912
X-96
G2 X-97.588 Y55.5 I0 J1.588
G1 Y60.5
G2 X-96 Y62.088 I1.588 J0
G1 X-91.588
Y65.5
G2 X-90 Y67.088 I1.588 J0
G1 X90
G2 X91.588 Y65.5 I0 J-1.588
G1 Y62.088
X96
G2 X97.588 Y60.5 I0 J-1.588
G1 Y55.5
G2 X96 Y53.912 I-1.588 J0
G1 X91.588
Y52.088
X96
G2 X97.588 Y50.5 I0 J-1.588
G1 Y45.5
G2 X96 Y43.912 I-1.588 J0
G1 X91.588
Y42.088
X96
G2 X97.588 Y40.5 I0 J-1.588
G1 Y35.5
G2 X96 Y33.912 I-1.588 J0
G1 X91.588
Y32.088
X96
G2 X97.588 Y30.5 I0 J-1.588
G1 Y25.5
G2 X96 Y23.913 I-1.588 J0
G1 X91.588
Y22.087
X96
G2 X97.588 Y20.5 I0 J-1.587
G1 Y15.5
G2 X96 Y13.913 I-1.588 J0
G1 X91.588
Y12.087
X96
G2 X97.588 Y10.5 I0 J-1.587
G1 Y5.5
G2 X96 Y3.912 I-1.588 J0
G1 X91.588
Y2.088
X96
G2 X97.588 Y0.5 I0 J-1.588
G1 Y-4.5
G2 X96 Y-6.088 I-1.588 J0
G1 X91.588
Y-7.912
X96
G2 X97.588 Y-9.5 I0 J-1.588
G1 Y-14.5
G2 X96 Y-16.087 I-1.588 J0
G1 X91.588
Y-17.913
X96
G2 X97.588 Y-19.5 I0 J-1.587
G1 Y-24.5
G2 X96 Y-26.087 I-1.588 J0
G1 X91.588
Y-27.913
X96
G2 X97.588 Y-29.5 I0 J-1.587
G1 Y-34.5
G2 X96 Y-36.088 I-1.588 J0
G1 X91.588
Y-37.912
X96
G2 X97.588 Y-39.5 I0 J-1.588
G1 Y-44.5
G2 X96 Y-46.088 I-1.588 J0
G1 X91.588
Y-47.912
X96
G2 X97.588 Y-49.5 I0 J-1.588
G1 Y-54.5
G2 X96 Y-56.088 I-1.588 J0
G1 X91.588
Y-57.912
X96
G2 X97.588 Y-59.5 I0 J-1.588
G1 Y-65.5
G2 X96 Y-67.088 I-1.588 J0
G1 X75
G2 X73.412 Y-65.5 I0 J1.588
G1 Y-61.088
X51.588
Y-65.5
G2 X50 Y-67.088 I-1.588 J0
G1 X15
G2 X13.413 Y-65.5 I0 J1.588
G1 Y-61.088
X-13.413
Y-65.5
G2 X-15 Y-67.088 I-1.587 J0
G1 X-50
G2 X-51.588 Y-65.5 I0 J1.588
G1 Y-61.088
X-73.412
Y-65.5
G2 X-75 Y-67.088 I-1.588 J0
G1 X-96
G2 X-97.588 Y-65.5 I0 J1.588
G1 Y-59.5
G2 X-96 Y-57.912 I1.588 J0
G3 X-95.683 Y-57.595 I0 J0.317
G1 Y-57.278
G19 G3 Y-56.96 Z-0.083 J0 K0.318
G0 Z5
X-96.317
G1 Z0.8 F70
Z-0.283
G2 Y-57.278 Z-0.6 J-0.318 K0 F400
G1 Y-57.595
G17 G3 X-96 Y-57.912 I0.317 J0
G1 X-91.588
Y-56.088
X-96
G2 X-97.588 Y-54.5 I0 J1.588
G1 Y-49.5
G2 X-96 Y-47.912 I1.588 J0
G1 X-91.588
Y-46.088
X-96
G2 X-97.588 Y-44.5 I0 J1.588
G1 Y-39.5
G2 X-96 Y-37.912 I1.588 J0
G1 X-91.588
Y-36.088
X-96
G2 X-97.588 Y-34.5 I0 J1.588
G1 Y-29.5
G2 X-96 Y-27.913 I1.588 J0
G1 X-91.588
Y-26.087
X-96
G2 X-97.588 Y-24.5 I0 J1.587
G1 Y-19.5
G2 X-96 Y-17.913 I1.588 J0
G1 X-91.588
Y-16.087
X-96
G2 X-97.588 Y-14.5 I0 J1.587
G1 Y-9.5
G2 X-96 Y-7.912 I1.588 J0
G1 X-91.588
Y-6.088
X-96
G2 X-97.588 Y-4.5 I0 J1.588
G1 Y0.5
G2 X-96 Y2.088 I1.588 J0
G1 X-91.588
Y3.912
X-96
G2 X-97.588 Y5.5 I0 J1.588
G1 Y10.5
G2 X-96 Y12.087 I1.588 J0
G1 X-91.588
Y13.913
X-96
G2 X-97.588 Y15.5 I0 J1.587
G1 Y20.5
G2 X-96 Y22.087 I1.588 J0
G1 X-91.588
Y23.913
X-96
G2 X-97.588 Y25.5 I0 J1.587
G1 Y30.5
G2 X-96 Y32.088 I1.588 J0
G1 X-91.588
Y33.912
X-96
G2 X-97.588 Y35.5 I0 J1.588
G1 Y40.5
G2 X-96 Y42.088 I1.588 J0
G1 X-91.588
Y43.912
X-96
G2 X-97.588 Y45.5 I0 J1.588
G1 Y50.5
G2 X-96 Y52.088 I1.588 J0
G1 X-91.588
Y53.912
X-96
G2 X-97.588 Y55.5 I0 J1.588
G1 Y60.5
G2 X-96 Y62.088 I1.588 J0
G1 X-91.588
Y65.5
G2 X-90 Y67.088 I1.588 J0
G1 X90
G2 X91.588 Y65.5 I0 J-1.588
G1 Y62.088
X96
G2 X97.588 Y60.5 I0 J-1.588
G1 Y55.5
G2 X96 Y53.912 I-1.588 J0
G1 X91.588
Y52.088
X96
G2 X97.588 Y50.5 I0 J-1.588
G1 Y45.5
G2 X96 Y43.912 I-1.588 J0
G1 X91.588
Y42.088
X96
G2 X97.588 Y40.5 I0 J-1.588
G1 Y35.5
G2 X96 Y33.912 I-1.588 J0
G1 X91.588
Y32.088
X96
G2 X97.588 Y30.5 I0 J-1.588
G1 Y25.5
G2 X96 Y23.913 I-1.588 J0
G1 X91.588
Y22.087
X96
G2 X97.588 Y20.5 I0 J-1.587
G1 Y15.5
G2 X96 Y13.913 I-1.588 J0
G1 X91.588
Y12.087
X96
G2 X97.588 Y10.5 I0 J-1.587
G1 Y5.5
G2 X96 Y3.912 I-1.588 J0
G1 X91.588
Y2.088
X96
G2 X97.588 Y0.5 I0 J-1.588
G1 Y-4.5
G2 X96 Y-6.088 I-1.588 J0
G1 X91.588
Y-7.912
X96
G2 X97.588 Y-9.5 I0 J-1.588
G1 Y-14.5
G2 X96 Y-16.087 I-1.588 J0
G1 X91.588
Y-17.913
X96
G2 X97.588 Y-19.5 I0 J-1.587
G1 Y-24.5
G2 X96 Y-26.087 I-1.588 J0
G1 X91.588
Y-27.913
X96
G2 X97.588 Y-29.5 I0 J-1.587
G1 Y-34.5
G2 X96 Y-36.088 I-1.588 J0
G1 X91.588
Y-37.912
X96
G2 X97.588 Y-39.5 I0 J-1.588
G1 Y-44.5
G2 X96 Y-46.088 I-1.588 J0
G1 X91.588
Y-47.912
X96
G2 X97.588 Y-49.5 I0 J-1.588
G1 Y-54.5
G2 X96 Y-56.088 I-1.588 J0
G1 X91.588
Y-57.912
X96
G2 X97.588 Y-59.5 I0 J-1.588
G1 Y-65.5
G2 X96 Y-67.088 I-1.588 J0
G1 X75
G2 X73.412 Y-65.5 I0 J1.588
G1 Y-61.088
X51.588
Y-65.5
G2 X50 Y-67.088 I-1.588 J0
G1 X15
G2 X13.413 Y-65.5 I0 J1.588
G1 Y-61.088
X-13.413
Y-65.5
G2 X-15 Y-67.088 I-1.587 J0
G1 X-50
G2 X-51.588 Y-65.5 I0 J1.588
G1 Y-61.088
X-73.412
Y-65.5
G2 X-75 Y-67.088 I-1.588 J0
G1 X-96
G2 X-97.588 Y-65.5 I0 J1.588
G1 Y-59.5
G2 X-96 Y-57.912 I1.588 J0
G3 X-95.683 Y-57.595 I0 J0.317
G1 Y-57.278
G19 G3 Y-56.96 Z-0.283 J0 K0.318
G0 Z5
X-96.317
G1 Z0.6 F70
Z-0.483
G2 Y-57.278 Z-0.8 J-0.318 K0 F400
G1 Y-57.595
G17 G3 X-96 Y-57.912 I0.317 J0
G1 X-91.588
Y-56.088
X-96
G2 X-97.588 Y-54.5 I0 J1.588
G1 Y-49.5
G2 X-96 Y-47.912 I1.588 J0
G1 X-91.588
Y-46.088
X-96
G2 X-97.588 Y-44.5 I0 J1.588
G1 Y-39.5
G2 X-96 Y-37.912 I1.588 J0
G1 X-91.588
Y-36.088
X-96
G2 X-97.588 Y-34.5 I0 J1.588
G1 Y-29.5
G2 X-96 Y-27.913 I1.588 J0
G1 X-91.588
Y-26.087
X-96
G2 X-97.588 Y-24.5 I0 J1.587
G1 Y-19.5
G2 X-96 Y-17.913 I1.588 J0
G1 X-91.588
Y-16.087
X-96
G2 X-97.588 Y-14.5 I0 J1.587
G1 Y-9.5
G2 X-96 Y-7.912 I1.588 J0
G1 X-91.588
Y-6.088
X-96
G2 X-97.588 Y-4.5 I0 J1.588
G1 Y0.5
G2 X-96 Y2.088 I1.588 J0
G1 X-91.588
Y3.912
X-96
G2 X-97.588 Y5.5 I0 J1.588
G1 Y10.5
G2 X-96 Y12.087 I1.588 J0
G1 X-91.588
Y13.913
X-96
G2 X-97.588 Y15.5 I0 J1.587
G1 Y20.5
G2 X-96 Y22.087 I1.588 J0
G1 X-91.588
Y23.913
X-96
G2 X-97.588 Y25.5 I0 J1.587
G1 Y30.5
G2 X-96 Y32.088 I1.588 J0
G1 X-91.588
Y33.912
X-96
G2 X-97.588 Y35.5 I0 J1.588
G1 Y40.5
G2 X-96 Y42.088 I1.588 J0
G1 X-91.588
Y43.912
X-96
G2 X-97.588 Y45.5 I0 J1.588
G1 Y50.5
G2 X-96 Y52.088 I1.588 J0
G1 X-91.588
Y53.912
X-96
G2 X-97.588 Y55.5 I0 J1.588
G1 Y60.5
G2 X-96 Y62.088 I1.588 J0
G1 X-91.588
Y65.5
G2 X-90 Y67.088 I1.588 J0
G1 X90
G2 X91.588 Y65.5 I0 J-1.588
G1 Y62.088
X96
G2 X97.588 Y60.5 I0 J-1.588
G1 Y55.5
G2 X96 Y53.912 I-1.588 J0
G1 X91.588
Y52.088
X96
G2 X97.588 Y50.5 I0 J-1.588
G1 Y45.5
G2 X96 Y43.912 I-1.588 J0
G1 X91.588
Y42.088
X96
G2 X97.588 Y40.5 I0 J-1.588
G1 Y35.5
G2 X96 Y33.912 I-1.588 J0
G1 X91.588
Y32.088
X96
G2 X97.588 Y30.5 I0 J-1.588
G1 Y25.5
G2 X96 Y23.913 I-1.588 J0
G1 X91.588
Y22.087
X96
G2 X97.588 Y20.5 I0 J-1.587
G1 Y15.5
G2 X96 Y13.913 I-1.588 J0
G1 X91.588
Y12.087
X96
G2 X97.588 Y10.5 I0 J-1.587
G1 Y5.5
G2 X96 Y3.912 I-1.588 J0
G1 X91.588
Y2.088
X96
G2 X97.588 Y0.5 I0 J-1.588
G1 Y-4.5
G2 X96 Y-6.088 I-1.588 J0
G1 X91.588
Y-7.912
X96
G2 X97.588 Y-9.5 I0 J-1.588
G1 Y-14.5
G2 X96 Y-16.087 I-1.588 J0
G1 X91.588
Y-17.913
X96
G2 X97.588 Y-19.5 I0 J-1.587
G1 Y-24.5
G2 X96 Y-26.087 I-1.588 J0
G1 X91.588
Y-27.913
X96
G2 X97.588 Y-29.5 I0 J-1.587
G1 Y-34.5
G2 X96 Y-36.088 I-1.588 J0
G1 X91.588
Y-37.912
X96
G2 X97.588 Y-39.5 I0 J-1.588
G1 Y-44.5
G2 X96 Y-46.088 I-1.588 J0
G1 X91.588
Y-47.912
X96
G2 X97.588 Y-49.5 I0 J-1.588
G1 Y-54.5
G2 X96 Y-56.088 I-1.588 J0
G1 X91.588
Y-57.912
X96
G2 X97.588 Y-59.5 I0 J-1.588
G1 Y-65.5
G2 X96 Y-67.088 I-1.588 J0
G1 X75
G2 X73.412 Y-65.5 I0 J1.588
G1 Y-61.088
X51.588
Y-65.5
G2 X50 Y-67.088 I-1.588 J0
G1 X15
G2 X13.413 Y-65.5 I0 J1.588
G1 Y-61.088
X-13.413
Y-65.5
G2 X-15 Y-67.088 I-1.587 J0
G1 X-50
G2 X-51.588 Y-65.5 I0 J1.588
G1 Y-61.088
X-73.412
Y-65.5
G2 X-75 Y-67.088 I-1.588 J0
G1 X-96
G2 X-97.588 Y-65.5 I0 J1.588
G1 Y-59.5
G2 X-96 Y-57.912 I1.588 J0
G3 X-95.683 Y-57.595 I0 J0.317
G1 Y-57.278
G19 G3 Y-56.96 Z-0.483 J0 K0.318
G0 Z5
X-96.317
G1 Z0.4 F70
Z-0.683
G2 Y-57.278 Z-1 J-0.318 K0 F400
G1 Y-57.595
G17 G3 X-96 Y-57.912 I0.317 J0
G1 X-91.588
Y-56.088
X-96
G2 X-97.588 Y-54.5 I0 J1.588
G1 Y-49.5
G2 X-96 Y-47.912 I1.588 J0
G1 X-91.588
Y-46.088
X-96
G2 X-97.588 Y-44.5 I0 J1.588
G1 Y-39.5
G2 X-96 Y-37.912 I1.588 J0
G1 X-91.588
Y-36.088
X-96
G2 X-97.588 Y-34.5 I0 J1.588
G1 Y-29.5
G2 X-96 Y-27.913 I1.588 J0
G1 X-91.588
Y-26.087
X-96
G2 X-97.588 Y-24.5 I0 J1.587
G1 Y-19.5
G2 X-96 Y-17.913 I1.588 J0
G1 X-91.588
Y-16.087
X-96
G2 X-97.588 Y-14.5 I0 J1.587
G1 Y-9.5
G2 X-96 Y-7.912 I1.588 J0
G1 X-91.588
Y-6.088
X-96
G2 X-97.588 Y-4.5 I0 J1.588
G1 Y0.5
G2 X-96 Y2.088 I1.588 J0
G1 X-91.588
Y3.912
X-96
G2 X-97.588 Y5.5 I0 J1.588
G1 Y10.5
G2 X-96 Y12.087 I1.588 J0
G1 X-91.588
Y13.913
X-96
G2 X-97.588 Y15.5 I0 J1.587
G1 Y20.5
G2 X-96 Y22.087 I1.588 J0
G1 X-91.588
Y23.913
X-96
G2 X-97.588 Y25.5 I0 J1.587
G1 Y30.5
G2 X-96 Y32.088 I1.588 J0
G1 X-91.588
Y33.912
X-96
G2 X-97.588 Y35.5 I0 J1.588
G1 Y40.5
G2 X-96 Y42.088 I1.588 J0
G1 X-91.588
Y43.912
X-96
G2 X-97.588 Y45.5 I0 J1.588
G1 Y50.5
G2 X-96 Y52.088 I1.588 J0
G1 X-91.588
Y53.912
X-96
G2 X-97.588 Y55.5 I0 J1.588
G1 Y60.5
G2 X-96 Y62.088 I1.588 J0
G1 X-91.588
Y65.5
G2 X-90 Y67.088 I1.588 J0
G1 X90
G2 X91.588 Y65.5 I0 J-1.588
G1 Y62.088
X96
G2 X97.588 Y60.5 I0 J-1.588
G1 Y55.5
G2 X96 Y53.912 I-1.588 J0
G1 X91.588
Y52.088
X96
G2 X97.588 Y50.5 I0 J-1.588
G1 Y45.5
G2 X96 Y43.912 I-1.588 J0
G1 X91.588
Y42.088
X96
G2 X97.588 Y40.5 I0 J-1.588
G1 Y35.5
G2 X96 Y33.912 I-1.588 J0
G1 X91.588
Y32.088
X96
G2 X97.588 Y30.5 I0 J-1.588
G1 Y25.5
G2 X96 Y23.913 I-1.588 J0
G1 X91.588
Y22.087
X96
G2 X97.588 Y20.5 I0 J-1.587
G1 Y15.5
G2 X96 Y13.913 I-1.588 J0
G1 X91.588
Y12.087
X96
G2 X97.588 Y10.5 I0 J-1.587
G1 Y5.5
G2 X96 Y3.912 I-1.588 J0
G1 X91.588
Y2.088
X96
G2 X97.588 Y0.5 I0 J-1.588
G1 Y-4.5
G2 X96 Y-6.088 I-1.588 J0
G1 X91.588
Y-7.912
X96
G2 X97.588 Y-9.5 I0 J-1.588
G1 Y-14.5
G2 X96 Y-16.087 I-1.588 J0
G1 X91.588
Y-17.913
X96
G2 X97.588 Y-19.5 I0 J-1.587
G1 Y-24.5
G2 X96 Y-26.087 I-1.588 J0
G1 X91.588
Y-27.913
X96
G2 X97.588 Y-29.5 I0 J-1.587
G1 Y-34.5
G2 X96 Y-36.088 I-1.588 J0
G1 X91.588
Y-37.912
X96
G2 X97.588 Y-39.5 I0 J-1.588
G1 Y-44.5
G2 X96 Y-46.088 I-1.588 J0
G1 X91.588
Y-47.912
X96
G2 X97.588 Y-49.5 I0 J-1.588
G1 Y-54.5
G2 X96 Y-56.088 I-1.588 J0
G1 X91.588
Y-57.912
X96
G2 X97.588 Y-59.5 I0 J-1.588
G1 Y-65.5
G2 X96 Y-67.088 I-1.588 J0
G1 X75
G2 X73.412 Y-65.5 I0 J1.588
G1 Y-61.088
X51.588
Y-65.5
G2 X50 Y-67.088 I-1.588 J0
G1 X15
G2 X13.413 Y-65.5 I0 J1.588
G1 Y-61.088
X-13.413
Y-65.5
G2 X-15 Y-67.088 I-1.587 J0
G1 X-50
G2 X-51.588 Y-65.5 I0 J1.588
G1 Y-61.088
X-73.412
Y-65.5
G2 X-75 Y-67.088 I-1.588 J0
G1 X-96
G2 X-97.588 Y-65.5 I0 J1.588
G1 Y-59.5
G2 X-96 Y-57.912 I1.588 J0
G3 X-95.683 Y-57.595 I0 J0.317
G1 Y-57.278
G19 G3 Y-56.96 Z-0.683 J0 K0.317
G0 Z5
X-96.317
G1 Z0.2 F70
Z-0.883
G2 Y-57.278 Z-1.2 J-0.318 K0 F400
G1 Y-57.595
G17 G3 X-96 Y-57.912 I0.317 J0
G1 X-91.588
Y-56.088
X-96
G2 X-97.588 Y-54.5 I0 J1.588
G1 Y-49.5
G2 X-96 Y-47.912 I1.588 J0
G1 X-91.588
Y-46.088
X-96
G2 X-97.588 Y-44.5 I0 J1.588
G1 Y-39.5
G2 X-96 Y-37.912 I1.588 J0
G1 X-91.588
Y-36.088
X-96
G2 X-97.588 Y-34.5 I0 J1.588
G1 Y-29.5
G2 X-96 Y-27.913 I1.588 J0
G1 X-91.588
Y-26.087
X-96
G2 X-97.588 Y-24.5 I0 J1.587
G1 Y-19.5
G2 X-96 Y-17.913 I1.588 J0
G1 X-91.588
Y-16.087
X-96
G2 X-97.588 Y-14.5 I0 J1.587
G1 Y-9.5
G2 X-96 Y-7.912 I1.588 J0
G1 X-91.588
Y-6.088
X-96
G2 X-97.588 Y-4.5 I0 J1.588
G1 Y0.5
G2 X-96 Y2.088 I1.588 J0
G1 X-91.588
Y3.912
X-96
G2 X-97.588 Y5.5 I0 J1.588
G1 Y10.5
G2 X-96 Y12.087 I1.588 J0
G1 X-91.588
Y13.913
X-96
G2 X-97.588 Y15.5 I0 J1.587
G1 Y20.5
G2 X-96 Y22.087 I1.588 J0
G1 X-91.588
Y23.913
X-96
G2 X-97.588 Y25.5 I0 J1.587
G1 Y30.5
G2 X-96 Y32.088 I1.588 J0
G1 X-91.588
Y33.912
X-96
G2 X-97.588 Y35.5 I0 J1.588
G1 Y40.5
G2 X-96 Y42.088 I1.588 J0
G1 X-91.588
Y43.912
X-96
G2 X-97.588 Y45.5 I0 J1.588
G1 Y50.5
G2 X-96 Y52.088 I1.588 J0
G1 X-91.588
Y53.912
X-96
G2 X-97.588 Y55.5 I0 J1.588
G1 Y60.5
G2 X-96 Y62.088 I1.588 J0
G1 X-91.588
Y65.5
G2 X-90 Y67.088 I1.588 J0
G1 X90
G2 X91.588 Y65.5 I0 J-1.588
G1 Y62.088
X96
G2 X97.588 Y60.5 I0 J-1.588
G1 Y55.5
G2 X96 Y53.912 I-1.588 J0
G1 X91.588
Y52.088
X96
G2 X97.588 Y50.5 I0 J-1.588
G1 Y45.5
G2 X96 Y43.912 I-1.588 J0
G1 X91.588
Y42.088
X96
G2 X97.588 Y40.5 I0 J-1.588
G1 Y35.5
G2 X96 Y33.912 I-1.588 J0
G1 X91.588
Y32.088
X96
G2 X97.588 Y30.5 I0 J-1.588
G1 Y25.5
G2 X96 Y23.913 I-1.588 J0
G1 X91.588
Y22.087
X96
G2 X97.588 Y20.5 I0 J-1.587
G1 Y15.5
G2 X96 Y13.913 I-1.588 J0
G1 X91.588
Y12.087
X96
G2 X97.588 Y10.5 I0 J-1.587
G1 Y5.5
G2 X96 Y3.912 I-1.588 J0
G1 X91.588
Y2.088
X96
G2 X97.588 Y0.5 I0 J-1.588
G1 Y-4.5
G2 X96 Y-6.088 I-1.588 J0
G1 X91.588
Y-7.912
X96
G2 X97.588 Y-9.5 I0 J-1.588
G1 Y-14.5
G2 X96 Y-16.087 I-1.588 J0
G1 X91.588
Y-17.913
X96
G2 X97.588 Y-19.5 I0 J-1.587
G1 Y-24.5
G2 X96 Y-26.087 I-1.588 J0
G1 X91.588
Y-27.913
X96
G2 X97.588 Y-29.5 I0 J-1.587
G1 Y-34.5
G2 X96 Y-36.088 I-1.588 J0
G1 X91.588
Y-37.912
X96
G2 X97.588 Y-39.5 I0 J-1.588
G1 Y-44.5
G2 X96 Y-46.088 I-1.588 J0
G1 X91.588
Y-47.912
X96
G2 X97.588 Y-49.5 I0 J-1.588
G1 Y-54.5
G2 X96 Y-56.088 I-1.588 J0
G1 X91.588
Y-57.912
X96
G2 X97.588 Y-59.5 I0 J-1.588
G1 Y-65.5
G2 X96 Y-67.088 I-1.588 J0
G1 X75
G2 X73.412 Y-65.5 I0 J1.588
G1 Y-61.088
X51.588
Y-65.5
G2 X50 Y-67.088 I-1.588 J0
G1 X15
G2 X13.413 Y-65.5 I0 J1.588
G1 Y-61.088
X-13.413
Y-65.5
G2 X-15 Y-67.088 I-1.587 J0
G1 X-50
G2 X-51.588 Y-65.5 I0 J1.588
G1 Y-61.088
X-73.412
Y-65.5
G2 X-75 Y-67.088 I-1.588 J0
G1 X-96
G2 X-97.588 Y-65.5 I0 J1.588
G1 Y-59.5
G2 X-96 Y-57.912 I1.588 J0
G3 X-95.683 Y-57.595 I0 J0.317
G1 Y-57.278
G19 G3 Y-56.96 Z-0.883 J0 K0.318
G0 Z5
X-96.317
G1 Z0 F70
Z-1.083
G2 Y-57.278 Z-1.4 J-0.318 K0 F400
G1 Y-57.595
G17 G3 X-96 Y-57.912 I0.317 J0
G1 X-91.588
Y-56.088
X-96
G2 X-97.588 Y-54.5 I0 J1.588
G1 Y-49.5
G2 X-96 Y-47.912 I1.588 J0
G1 X-91.588
Y-46.088
X-96
G2 X-97.588 Y-44.5 I0 J1.588
G1 Y-39.5
G2 X-96 Y-37.912 I1.588 J0
G1 X-91.588
Y-36.088
X-96
G2 X-97.588 Y-34.5 I0 J1.588
G1 Y-29.5
G2 X-96 Y-27.913 I1.588 J0
G1 X-91.588
Y-26.087
X-96
G2 X-97.588 Y-24.5 I0 J1.587
G1 Y-19.5
G2 X-96 Y-17.913 I1.588 J0
G1 X-91.588
Y-16.087
X-96
G2 X-97.588 Y-14.5 I0 J1.587
G1 Y-9.5
G2 X-96 Y-7.912 I1.588 J0
G1 X-91.588
Y-6.088
X-96
G2 X-97.588 Y-4.5 I0 J1.588
G1 Y0.5
G2 X-96 Y2.088 I1.588 J0
G1 X-91.588
Y3.912
X-96
G2 X-97.588 Y5.5 I0 J1.588
G1 Y10.5
G2 X-96 Y12.087 I1.588 J0
G1 X-91.588
Y13.913
X-96
G2 X-97.588 Y15.5 I0 J1.587
G1 Y20.5
G2 X-96 Y22.087 I1.588 J0
G1 X-91.588
Y23.913
X-96
G2 X-97.588 Y25.5 I0 J1.587
G1 Y30.5
G2 X-96 Y32.088 I1.588 J0
G1 X-91.588
Y33.912
X-96
G2 X-97.588 Y35.5 I0 J1.588
G1 Y40.5
G2 X-96 Y42.088 I1.588 J0
G1 X-91.588
Y43.912
X-96
G2 X-97.588 Y45.5 I0 J1.588
G1 Y50.5
G2 X-96 Y52.088 I1.588 J0
G1 X-91.588
Y53.912
X-96
G2 X-97.588 Y55.5 I0 J1.588
G1 Y60.5
G2 X-96 Y62.088 I1.588 J0
G1 X-91.588
Y65.5
G2 X-90 Y67.088 I1.588 J0
G1 X90
G2 X91.588 Y65.5 I0 J-1.588
G1 Y62.088
X96
G2 X97.588 Y60.5 I0 J-1.588
G1 Y55.5
G2 X96 Y53.912 I-1.588 J0
G1 X91.588
Y52.088
X96
G2 X97.588 Y50.5 I0 J-1.588
G1 Y45.5
G2 X96 Y43.912 I-1.588 J0
G1 X91.588
Y42.088
X96
G2 X97.588 Y40.5 I0 J-1.588
G1 Y35.5
G2 X96 Y33.912 I-1.588 J0
G1 X91.588
Y32.088
X96
G2 X97.588 Y30.5 I0 J-1.588
G1 Y25.5
G2 X96 Y23.913 I-1.588 J0
G1 X91.588
Y22.087
X96
G2 X97.588 Y20.5 I0 J-1.587
G1 Y15.5
G2 X96 Y13.913 I-1.588 J0
G1 X91.588
Y12.087
X96
G2 X97.588 Y10.5 I0 J-1.587
G1 Y5.5
G2 X96 Y3.912 I-1.588 J0
G1 X91.588
Y2.088
X96
G2 X97.588 Y0.5 I0 J-1.588
G1 Y-4.5
G2 X96 Y-6.088 I-1.588 J0
G1 X91.588
Y-7.912
X96
G2 X97.588 Y-9.5 I0 J-1.588
G1 Y-14.5
G2 X96 Y-16.087 I-1.588 J0
G1 X91.588
Y-17.913
X96
G2 X97.588 Y-19.5 I0 J-1.587
G1 Y-24.5
G2 X96 Y-26.087 I-1.588 J0
G1 X91.588
Y-27.913
X96
G2 X97.588 Y-29.5 I0 J-1.587
G1 Y-34.5
G2 X96 Y-36.088 I-1.588 J0
G1 X91.588
Y-37.912
X96
G2 X97.588 Y-39.5 I0 J-1.588
G1 Y-44.5
G2 X96 Y-46.088 I-1.588 J0
G1 X91.588
Y-47.912
X96
G2 X97.588 Y-49.5 I0 J-1.588
G1 Y-54.5
G2 X96 Y-56.088 I-1.588 J0
G1 X91.588
Y-57.912
X96
G2 X97.588 Y-59.5 I0 J-1.588
G1 Y-65.5
G2 X96 Y-67.088 I-1.588 J0
G1 X75
G2 X73.412 Y-65.5 I0 J1.588
G1 Y-61.088
X51.588
Y-65.5
G2 X50 Y-67.088 I-1.588 J0
G1 X15
G2 X13.413 Y-65.5 I0 J1.588
G1 Y-61.088
X-13.413
Y-65.5
G2 X-15 Y-67.088 I-1.587 J0
G1 X-50
G2 X-51.588 Y-65.5 I0 J1.588
G1 Y-61.088
X-73.412
Y-65.5
G2 X-75 Y-67.088 I-1.588 J0
G1 X-96
G2 X-97.588 Y-65.5 I0 J1.588
G1 Y-59.5
G2 X-96 Y-57.912 I1.588 J0
G3 X-95.683 Y-57.595 I0 J0.317
G1 Y-57.278
G19 G3 Y-56.96 Z-1.083 J0 K0.317
G0 Z5
X-96.317
G1 Z-0.2 F70
Z-1.283
G2 Y-57.278 Z-1.6 J-0.318 K0 F400
G1 Y-57.595
G17 G3 X-96 Y-57.912 I0.317 J0
G1 X-91.588
Y-56.088
X-96
G2 X-97.588 Y-54.5 I0 J1.588
G1 Y-49.5
G2 X-96 Y-47.912 I1.588 J0
G1 X-91.588
Y-46.088
X-96
G2 X-97.588 Y-44.5 I0 J1.588
G1 Y-39.5
G2 X-96 Y-37.912 I1.588 J0
G1 X-91.588
Y-36.088
X-96
G2 X-97.588 Y-34.5 I0 J1.588
G1 Y-29.5
G2 X-96 Y-27.913 I1.588 J0
G1 X-91.588
Y-26.087
X-96
G2 X-97.588 Y-24.5 I0 J1.587
G1 Y-19.5
G2 X-96 Y-17.913 I1.588 J0
G1 X-91.588
Y-16.087
X-96
G2 X-97.588 Y-14.5 I0 J1.587
G1 Y-9.5
G2 X-96 Y-7.912 I1.588 J0
G1 X-91.588
Y-6.088
X-96
G2 X-97.588 Y-4.5 I0 J1.588
G1 Y0.5
G2 X-96 Y2.088 I1.588 J0
G1 X-91.588
Y3.912
X-96
G2 X-97.588 Y5.5 I0 J1.588
G1 Y10.5
G2 X-96 Y12.087 I1.588 J0
G1 X-91.588
Y13.913
X-96
G2 X-97.588 Y15.5 I0 J1.587
G1 Y20.5
G2 X-96 Y22.087 I1.588 J0
G1 X-91.588
Y23.913
X-96
G2 X-97.588 Y25.5 I0 J1.587
G1 Y30.5
G2 X-96 Y32.088 I1.588 J0
G1 X-91.588
Y33.912
X-96
G2 X-97.588 Y35.5 I0 J1.588
G1 Y40.5
G2 X-96 Y42.088 I1.588 J0
G1 X-91.588
Y43.912
X-96
G2 X-97.588 Y45.5 I0 J1.588
G1 Y50.5
G2 X-96 Y52.088 I1.588 J0
G1 X-91.588
Y53.912
X-96
G2 X-97.588 Y55.5 I0 J1.588
G1 Y60.5
G2 X-96 Y62.088 I1.588 J0
G1 X-91.588
Y65.5
G2 X-90 Y67.088 I1.588 J0
G1 X90
G2 X91.588 Y65.5 I0 J-1.588
G1 Y62.088
X96
G2 X97.588 Y60.5 I0 J-1.588
G1 Y55.5
G2 X96 Y53.912 I-1.588 J0
G1 X91.588
Y52.088
X96
G2 X97.588 Y50.5 I0 J-1.588
G1 Y45.5
G2 X96 Y43.912 I-1.588 J0
G1 X91.588
Y42.088
X96
G2 X97.588 Y40.5 I0 J-1.588
G1 Y35.5
G2 X96 Y33.912 I-1.588 J0
G1 X91.588
Y32.088
X96
G2 X97.588 Y30.5 I0 J-1.588
G1 Y25.5
G2 X96 Y23.913 I-1.588 J0
G1 X91.588
Y22.087
X96
G2 X97.588 Y20.5 I0 J-1.587
G1 Y15.5
G2 X96 Y13.913 I-1.588 J0
G1 X91.588
Y12.087
X96
G2 X97.588 Y10.5 I0 J-1.587
G1 Y5.5
G2 X96 Y3.912 I-1.588 J0
G1 X91.588
Y2.088
X96
G2 X97.588 Y0.5 I0 J-1.588
G1 Y-4.5
G2 X96 Y-6.088 I-1.588 J0
G1 X91.588
Y-7.912
X96
G2 X97.588 Y-9.5 I0 J-1.588
G1 Y-14.5
G2 X96 Y-16.087 I-1.588 J0
G1 X91.588
Y-17.913
X96
G2 X97.588 Y-19.5 I0 J-1.587
G1 Y-24.5
G2 X96 Y-26.087 I-1.588 J0
G1 X91.588
Y-27.913
X96
G2 X97.588 Y-29.5 I0 J-1.587
G1 Y-34.5
G2 X96 Y-36.088 I-1.588 J0
G1 X91.588
Y-37.912
X96
G2 X97.588 Y-39.5 I0 J-1.588
G1 Y-44.5
G2 X96 Y-46.088 I-1.588 J0
G1 X91.588
Y-47.912
X96
G2 X97.588 Y-49.5 I0 J-1.588
G1 Y-54.5
G2 X96 Y-56.088 I-1.588 J0
G1 X91.588
Y-57.912
X96
G2 X97.588 Y-59.5 I0 J-1.588
G1 Y-65.5
G2 X96 Y-67.088 I-1.588 J0
G1 X75
G2 X73.412 Y-65.5 I0 J1.588
G1 Y-61.088
X51.588
Y-65.5
G2 X50 Y-67.088 I-1.588 J0
G1 X15
G2 X13.413 Y-65.5 I0 J1.588
G1 Y-61.088
X-13.413
Y-65.5
G2 X-15 Y-67.088 I-1.587 J0
G1 X-50
G2 X-51.588 Y-65.5 I0 J1.588
G1 Y-61.088
X-73.412
Y-65.5
G2 X-75 Y-67.088 I-1.588 J0
G1 X-96
G2 X-97.588 Y-65.5 I0 J1.588
G1 Y-59.5
G2 X-96 Y-57.912 I1.588 J0
G3 X-95.683 Y-57.595 I0 J0.317
G1 Y-57.278
G19 G3 Y-56.96 Z-1.283 J0 K0.317
G0 Z5
X-96.317
G1 Z-0.4 F70
Z-1.483
G2 Y-57.278 Z-1.8 J-0.318 K0 F400
G1 Y-57.595
G17 G3 X-96 Y-57.912 I0.317 J0
G1 X-91.588
Y-56.088
X-96
G2 X-97.588 Y-54.5 I0 J1.588
G1 Y-49.5
G2 X-96 Y-47.912 I1.588 J0
G1 X-91.588
Y-46.088
X-96
G2 X-97.588 Y-44.5 I0 J1.588
G1 Y-39.5
G2 X-96 Y-37.912 I1.588 J0
G1 X-91.588
Y-36.088
X-96
G2 X-97.588 Y-34.5 I0 J1.588
G1 Y-29.5
G2 X-96 Y-27.913 I1.588 J0
G1 X-91.588
Y-26.087
X-96
G2 X-97.588 Y-24.5 I0 J1.587
G1 Y-19.5
G2 X-96 Y-17.913 I1.588 J0
G1 X-91.588
Y-16.087
X-96
G2 X-97.588 Y-14.5 I0 J1.587
G1 Y-9.5
G2 X-96 Y-7.912 I1.588 J0
G1 X-91.588
Y-6.088
X-96
G2 X-97.588 Y-4.5 I0 J1.588
G1 Y0.5
G2 X-96 Y2.088 I1.588 J0
G1 X-91.588
Y3.912
X-96
G2 X-97.588 Y5.5 I0 J1.588
G1 Y10.5
G2 X-96 Y12.087 I1.588 J0
G1 X-91.588
Y13.913
X-96
G2 X-97.588 Y15.5 I0 J1.587
G1 Y20.5
G2 X-96 Y22.087 I1.588 J0
G1 X-91.588
Y23.913
X-96
G2 X-97.588 Y25.5 I0 J1.587
G1 Y30.5
G2 X-96 Y32.088 I1.588 J0
G1 X-91.588
Y33.912
X-96
G2 X-97.588 Y35.5 I0 J1.588
G1 Y40.5
G2 X-96 Y42.088 I1.588 J0
G1 X-91.588
Y43.912
X-96
G2 X-97.588 Y45.5 I0 J1.588
G1 Y50.5
G2 X-96 Y52.088 I1.588 J0
G1 X-91.588
Y53.912
X-96
G2 X-97.588 Y55.5 I0 J1.588
G1 Y60.5
G2 X-96 Y62.088 I1.588 J0
G1 X-91.588
Y65.5
G2 X-90 Y67.088 I1.588 J0
G1 X90
G2 X91.588 Y65.5 I0 J-1.588
G1 Y62.088
X96
G2 X97.588 Y60.5 I0 J-1.588
G1 Y55.5
G2 X96 Y53.912 I-1.588 J0
G1 X91.588
Y52.088
X96
G2 X97.588 Y50.5 I0 J-1.588
G1 Y45.5
G2 X96 Y43.912 I-1.588 J0
G1 X91.588
Y42.088
X96
G2 X97.588 Y40.5 I0 J-1.588
G1 Y35.5
G2 X96 Y33.912 I-1.588 J0
G1 X91.588
Y32.088
X96
G2 X97.588 Y30.5 I0 J-1.588
G1 Y25.5
G2 X96 Y23.913 I-1.588 J0
G1 X91.588
Y22.087
X96
G2 X97.588 Y20.5 I0 J-1.587
G1 Y15.5
G2 X96 Y13.913 I-1.588 J0
G1 X91.588
Y12.087
X96
G2 X97.588 Y10.5 I0 J-1.587
G1 Y5.5
G2 X96 Y3.912 I-1.588 J0
G1 X91.588
Y2.088
X96
G2 X97.588 Y0.5 I0 J-1.588
G1 Y-4.5
G2 X96 Y-6.088 I-1.588 J0
G1 X91.588
Y-7.912
X96
G2 X97.588 Y-9.5 I0 J-1.588
G1 Y-14.5
G2 X96 Y-16.087 I-1.588 J0
G1 X91.588
Y-17.913
X96
G2 X97.588 Y-19.5 I0 J-1.587
G1 Y-24.5
G2 X96 Y-26.087 I-1.588 J0
G1 X91.588
Y-27.913
X96
G2 X97.588 Y-29.5 I0 J-1.587
G1 Y-34.5
G2 X96 Y-36.088 I-1.588 J0
G1 X91.588
Y-37.912
X96
G2 X97.588 Y-39.5 I0 J-1.588
G1 Y-44.5
G2 X96 Y-46.088 I-1.588 J0
G1 X91.588
Y-47.912
X96
G2 X97.588 Y-49.5 I0 J-1.588
G1 Y-54.5
G2 X96 Y-56.088 I-1.588 J0
G1 X91.588
Y-57.912
X96
G2 X97.588 Y-59.5 I0 J-1.588
G1 Y-65.5
G2 X96 Y-67.088 I-1.588 J0
G1 X75
G2 X73.412 Y-65.5 I0 J1.588
G1 Y-61.088
X51.588
Y-65.5
G2 X50 Y-67.088 I-1.588 J0
G1 X15
G2 X13.413 Y-65.5 I0 J1.588
G1 Y-61.088
X-13.413
Y-65.5
G2 X-15 Y-67.088 I-1.587 J0
G1 X-50
G2 X-51.588 Y-65.5 I0 J1.588
G1 Y-61.088
X-73.412
Y-65.5
G2 X-75 Y-67.088 I-1.588 J0
G1 X-96
G2 X-97.588 Y-65.5 I0 J1.588
G1 Y-59.5
G2 X-96 Y-57.912 I1.588 J0
G3 X-95.683 Y-57.595 I0 J0.317
G1 Y-57.278
G19 G3 Y-56.96 Z-1.483 J0 K0.317
G0 Z5
X-96.317
G1 Z-0.6 F70
Z-1.683
G2 Y-57.278 Z-2 J-0.318 K0 F400
G1 Y-57.595
G17 G3 X-96 Y-57.912 I0.317 J0
G1 X-91.588
Y-56.088
X-96
G2 X-97.588 Y-54.5 I0 J1.588
G1 Y-49.5
G2 X-96 Y-47.912 I1.588 J0
G1 X-91.588
Y-46.088
X-96
G2 X-97.588 Y-44.5 I0 J1.588
G1 Y-39.5
G2 X-96 Y-37.912 I1.588 J0
G1 X-91.588
Y-36.088
X-96
G2 X-97.588 Y-34.5 I0 J1.588
G1 Y-29.5
G2 X-96 Y-27.913 I1.588 J0
G1 X-91.588
Y-26.087
X-96
G2 X-97.588 Y-24.5 I0 J1.587
G1 Y-19.5
G2 X-96 Y-17.913 I1.588 J0
G1 X-91.588
Y-16.087
X-96
G2 X-97.588 Y-14.5 I0 J1.587
G1 Y-9.5
G2 X-96 Y-7.912 I1.588 J0
G1 X-91.588
Y-6.088
X-96
G2 X-97.588 Y-4.5 I0 J1.588
G1 Y0.5
G2 X-96 Y2.088 I1.588 J0
G1 X-91.588
Y3.912
X-96
G2 X-97.588 Y5.5 I0 J1.588
G1 Y10.5
G2 X-96 Y12.087 I1.588 J0
G1 X-91.588
Y13.913
X-96
G2 X-97.588 Y15.5 I0 J1.587
G1 Y20.5
G2 X-96 Y22.087 I1.588 J0
G1 X-91.588
Y23.913
X-96
G2 X-97.588 Y25.5 I0 J1.587
G1 Y30.5
G2 X-96 Y32.088 I1.588 J0
G1 X-91.588
Y33.912
X-96
G2 X-97.588 Y35.5 I0 J1.588
G1 Y40.5
G2 X-96 Y42.088 I1.588 J0
G1 X-91.588
Y43.912
X-96
G2 X-97.588 Y45.5 I0 J1.588
G1 Y50.5
G2 X-96 Y52.088 I1.588 J0
G1 X-91.588
Y53.912
X-96
G2 X-97.588 Y55.5 I0 J1.588
G1 Y60.5
G2 X-96 Y62.088 I1.588 J0
G1 X-91.588
Y65.5
G2 X-90 Y67.088 I1.588 J0
G1 X90
G2 X91.588 Y65.5 I0 J-1.588
G1 Y62.088
X96
G2 X97.588 Y60.5 I0 J-1.588
G1 Y55.5
G2 X96 Y53.912 I-1.588 J0
G1 X91.588
Y52.088
X96
G2 X97.588 Y50.5 I0 J-1.588
G1 Y45.5
G2 X96 Y43.912 I-1.588 J0
G1 X91.588
Y42.088
X96
G2 X97.588 Y40.5 I0 J-1.588
G1 Y35.5
G2 X96 Y33.912 I-1.588 J0
G1 X91.588
Y32.088
X96
G2 X97.588 Y30.5 I0 J-1.588
G1 Y25.5
G2 X96 Y23.913 I-1.588 J0
G1 X91.588
Y22.087
X96
G2 X97.588 Y20.5 I0 J-1.587
G1 Y15.5
G2 X96 Y13.913 I-1.588 J0
G1 X91.588
Y12.087
X96
G2 X97.588 Y10.5 I0 J-1.587
G1 Y5.5
G2 X96 Y3.912 I-1.588 J0
G1 X91.588
Y2.088
X96
G2 X97.588 Y0.5 I0 J-1.588
G1 Y-4.5
G2 X96 Y-6.088 I-1.588 J0
G1 X91.588
Y-7.912
X96
G2 X97.588 Y-9.5 I0 J-1.588
G1 Y-14.5
G2 X96 Y-16.087 I-1.588 J0
G1 X91.588
Y-17.913
X96
G2 X97.588 Y-19.5 I0 J-1.587
G1 Y-24.5
G2 X96 Y-26.087 I-1.588 J0
G1 X91.588
Y-27.913
X96
G2 X97.588 Y-29.5 I0 J-1.587
G1 Y-34.5
G2 X96 Y-36.088 I-1.588 J0
G1 X91.588
Y-37.912
X96
G2 X97.588 Y-39.5 I0 J-1.588
G1 Y-44.5
G2 X96 Y-46.088 I-1.588 J0
G1 X91.588
Y-47.912
X96
G2 X97.588 Y-49.5 I0 J-1.588
G1 Y-54.5
G2 X96 Y-56.088 I-1.588 J0
G1 X91.588
Y-57.912
X96
G2 X97.588 Y-59.5 I0 J-1.588
G1 Y-65.5
G2 X96 Y-67.088 I-1.588 J0
G1 X75
G2 X73.412 Y-65.5 I0 J1.588
G1 Y-61.088
X51.588
Y-65.5
G2 X50 Y-67.088 I-1.588 J0
G1 X15
G2 X13.413 Y-65.5 I0 J1.588
G1 Y-61.088
X-13.413
Y-65.5
G2 X-15 Y-67.088 I-1.587 J0
G1 X-50
G2 X-51.588 Y-65.5 I0 J1.588
G1 Y-61.088
X-73.412
Y-65.5
G2 X-75 Y-67.088 I-1.588 J0
G1 X-96
G2 X-97.588 Y-65.5 I0 J1.588
G1 Y-59.5
G2 X-96 Y-57.912 I1.588 J0
G3 X-95.683 Y-57.595 I0 J0.317
G1 Y-57.278
G19 G3 Y-56.96 Z-1.683 J0 K0.317
G0 Z5
X-96.317
G1 Z-0.8 F70
Z-1.883
G2 Y-57.278 Z-2.2 J-0.318 K0 F400
G1 Y-57.595
G17 G3 X-96 Y-57.912 I0.317 J0
G1 X-91.588
Y-56.088
X-96
G2 X-97.588 Y-54.5 I0 J1.588
G1 Y-49.5
G2 X-96 Y-47.912 I1.588 J0
G1 X-91.588
Y-46.088
X-96
G2 X-97.588 Y-44.5 I0 J1.588
G1 Y-39.5
G2 X-96 Y-37.912 I1.588 J0
G1 X-91.588
Y-36.088
X-96
G2 X-97.588 Y-34.5 I0 J1.588
G1 Y-29.5
G2 X-96 Y-27.913 I1.588 J0
G1 X-91.588
Y-26.087
X-96
G2 X-97.588 Y-24.5 I0 J1.587
G1 Y-19.5
G2 X-96 Y-17.913 I1.588 J0
G1 X-91.588
Y-16.087
X-96
G2 X-97.588 Y-14.5 I0 J1.587
G1 Y-9.5
G2 X-96 Y-7.912 I1.588 J0
G1 X-91.588
Y-6.088
X-96
G2 X-97.588 Y-4.5 I0 J1.588
G1 Y0.5
G2 X-96 Y2.088 I1.588 J0
G1 X-91.588
Y3.912
X-96
G2 X-97.588 Y5.5 I0 J1.588
G1 Y10.5
G2 X-96 Y12.087 I1.588 J0
G1 X-91.588
Y13.913
X-96
G2 X-97.588 Y15.5 I0 J1.587
G1 Y20.5
G2 X-96 Y22.087 I1.588 J0
G1 X-91.588
Y23.913
X-96
G2 X-97.588 Y25.5 I0 J1.587
G1 Y30.5
G2 X-96 Y32.088 I1.588 J0
G1 X-91.588
Y33.912
X-96
G2 X-97.588 Y35.5 I0 J1.588
G1 Y40.5
G2 X-96 Y42.088 I1.588 J0
G1 X-91.588
Y43.912
X-96
G2 X-97.588 Y45.5 I0 J1.588
G1 Y50.5
G2 X-96 Y52.088 I1.588 J0
G1 X-91.588
Y53.912
X-96
G2 X-97.588 Y55.5 I0 J1.588
G1 Y60.5
G2 X-96 Y62.088 I1.588 J0
G1 X-91.588
Y65.5
G2 X-90 Y67.088 I1.588 J0
G1 X90
G2 X91.588 Y65.5 I0 J-1.588
G1 Y62.088
X96
G2 X97.588 Y60.5 I0 J-1.588
G1 Y55.5
G2 X96 Y53.912 I-1.588 J0
G1 X91.588
Y52.088
X96
G2 X97.588 Y50.5 I0 J-1.588
G1 Y45.5
G2 X96 Y43.912 I-1.588 J0
G1 X91.588
Y42.088
X96
G2 X97.588 Y40.5 I0 J-1.588
G1 Y35.5
G2 X96 Y33.912 I-1.588 J0
G1 X91.588
Y32.088
X96
G2 X97.588 Y30.5 I0 J-1.588
G1 Y25.5
G2 X96 Y23.913 I-1.588 J0
G1 X91.588
Y22.087
X96
G2 X97.588 Y20.5 I0 J-1.587
G1 Y15.5
G2 X96 Y13.913 I-1.588 J0
G1 X91.588
Y12.087
X96
G2 X97.588 Y10.5 I0 J-1.587
G1 Y5.5
G2 X96 Y3.912 I-1.588 J0
G1 X91.588
Y2.088
X96
G2 X97.588 Y0.5 I0 J-1.588
G1 Y-4.5
G2 X96 Y-6.088 I-1.588 J0
G1 X91.588
Y-7.912
X96
G2 X97.588 Y-9.5 I0 J-1.588
G1 Y-14.5
G2 X96 Y-16.087 I-1.588 J0
G1 X91.588
Y-17.913
X96
G2 X97.588 Y-19.5 I0 J-1.587
G1 Y-24.5
G2 X96 Y-26.087 I-1.588 J0
G1 X91.588
Y-27.913
X96
G2 X97.588 Y-29.5 I0 J-1.587
G1 Y-34.5
G2 X96 Y-36.088 I-1.588 J0
G1 X91.588
Y-37.912
X96
G2 X97.588 Y-39.5 I0 J-1.588
G1 Y-44.5
G2 X96 Y-46.088 I-1.588 J0
G1 X91.588
Y-47.912
X96
G2 X97.588 Y-49.5 I0 J-1.588
G1 Y-54.5
G2 X96 Y-56.088 I-1.588 J0
G1 X91.588
Y-57.912
X96
G2 X97.588 Y-59.5 I0 J-1.588
G1 Y-65.5
G2 X96 Y-67.088 I-1.588 J0
G1 X75
G2 X73.412 Y-65.5 I0 J1.588
G1 Y-61.088
X51.588
Y-65.5
G2 X50 Y-67.088 I-1.588 J0
G1 X15
G2 X13.413 Y-65.5 I0 J1.588
G1 Y-61.088
X-13.413
Y-65.5
G2 X-15 Y-67.088 I-1.587 J0
G1 X-50
G2 X-51.588 Y-65.5 I0 J1.588
G1 Y-61.088
X-73.412
Y-65.5
G2 X-75 Y-67.088 I-1.588 J0
G1 X-96
G2 X-97.588 Y-65.5 I0 J1.588
G1 Y-59.5
G2 X-96 Y-57.912 I1.588 J0
G3 X-95.683 Y-57.595 I0 J0.317
G1 Y-57.278
G19 G3 Y-56.96 Z-1.883 J0 K0.317
G0 Z5
X-96.317
G1 Z-1 F70
Z-2.083
G2 Y-57.278 Z-2.4 J-0.318 K0 F400
G1 Y-57.595
G17 G3 X-96 Y-57.912 I0.317 J0
G1 X-91.588
Y-56.088
X-96
G2 X-97.588 Y-54.5 I0 J1.588
G1 Y-49.5
G2 X-96 Y-47.912 I1.588 J0
G1 X-91.588
Y-46.088
X-96
G2 X-97.588 Y-44.5 I0 J1.588
G1 Y-39.5
G2 X-96 Y-37.912 I1.588 J0
G1 X-91.588
Y-36.088
X-96
G2 X-97.588 Y-34.5 I0 J1.588
G1 Y-29.5
G2 X-96 Y-27.913 I1.588 J0
G1 X-91.588
Y-26.087
X-96
G2 X-97.588 Y-24.5 I0 J1.587
G1 Y-19.5
G2 X-96 Y-17.913 I1.588 J0
G1 X-91.588
Y-16.087
X-96
G2 X-97.588 Y-14.5 I0 J1.587
G1 Y-9.5
G2 X-96 Y-7.912 I1.588 J0
G1 X-91.588
Y-6.088
X-96
G2 X-97.588 Y-4.5 I0 J1.588
G1 Y0.5
G2 X-96 Y2.088 I1.588 J0
G1 X-91.588
Y3.912
X-96
G2 X-97.588 Y5.5 I0 J1.588
G1 Y10.5
G2 X-96 Y12.087 I1.588 J0
G1 X-91.588
Y13.913
X-96
G2 X-97.588 Y15.5 I0 J1.587
G1 Y20.5
G2 X-96 Y22.087 I1.588 J0
G1 X-91.588
Y23.913
X-96
G2 X-97.588 Y25.5 I0 J1.587
G1 Y30.5
G2 X-96 Y32.088 I1.588 J0
G1 X-91.588
Y33.912
X-96
G2 X-97.588 Y35.5 I0 J1.588
G1 Y40.5
G2 X-96 Y42.088 I1.588 J0
G1 X-91.588
Y43.912
X-96
G2 X-97.588 Y45.5 I0 J1.588
G1 Y50.5
G2 X-96 Y52.088 I1.588 J0
G1 X-91.588
Y53.912
X-96
G2 X-97.588 Y55.5 I0 J1.588
G1 Y60.5
G2 X-96 Y62.088 I1.588 J0
G1 X-91.588
Y65.5
G2 X-90 Y67.088 I1.588 J0
G1 X90
G2 X91.588 Y65.5 I0 J-1.588
G1 Y62.088
X96
G2 X97.588 Y60.5 I0 J-1.588
G1 Y55.5
G2 X96 Y53.912 I-1.588 J0
G1 X91.588
Y52.088
X96
G2 X97.588 Y50.5 I0 J-1.588
G1 Y45.5
G2 X96 Y43.912 I-1.588 J0
G1 X91.588
Y42.088
X96
G2 X97.588 Y40.5 I0 J-1.588
G1 Y35.5
G2 X96 Y33.912 I-1.588 J0
G1 X91.588
Y32.088
X96
G2 X97.588 Y30.5 I0 J-1.588
G1 Y25.5
G2 X96 Y23.913 I-1.588 J0
G1 X91.588
Y22.087
X96
G2 X97.588 Y20.5 I0 J-1.587
G1 Y15.5
G2 X96 Y13.913 I-1.588 J0
G1 X91.588
Y12.087
X96
G2 X97.588 Y10.5 I0 J-1.587
G1 Y5.5
G2 X96 Y3.912 I-1.588 J0
G1 X91.588
Y2.088
X96
G2 X97.588 Y0.5 I0 J-1.588
G1 Y-4.5
G2 X96 Y-6.088 I-1.588 J0
G1 X91.588
Y-7.912
X96
G2 X97.588 Y-9.5 I0 J-1.588
G1 Y-14.5
G2 X96 Y-16.087 I-1.588 J0
G1 X91.588
Y-17.913
X96
G2 X97.588 Y-19.5 I0 J-1.587
G1 Y-24.5
G2 X96 Y-26.087 I-1.588 J0
G1 X91.588
Y-27.913
X96
G2 X97.588 Y-29.5 I0 J-1.587
G1 Y-34.5
G2 X96 Y-36.088 I-1.588 J0
G1 X91.588
Y-37.912
X96
G2 X97.588 Y-39.5 I0 J-1.588
G1 Y-44.5
G2 X96 Y-46.088 I-1.588 J0
G1 X91.588
Y-47.912
X96
G2 X97.588 Y-49.5 I0 J-1.588
G1 Y-54.5
G2 X96 Y-56.088 I-1.588 J0
G1 X91.588
Y-57.912
X96
G2 X97.588 Y-59.5 I0 J-1.588
G1 Y-65.5
G2 X96 Y-67.088 I-1.588 J0
G1 X75
G2 X73.412 Y-65.5 I0 J1.588
G1 Y-61.088
X51.588
Y-65.5
G2 X50 Y-67.088 I-1.588 J0
G1 X15
G2 X13.413 Y-65.5 I0 J1.588
G1 Y-61.088
X-13.413
Y-65.5
G2 X-15 Y-67.088 I-1.587 J0
G1 X-50
G2 X-51.588 Y-65.5 I0 J1.588
G1 Y-61.088
X-73.412
Y-65.5
G2 X-75 Y-67.088 I-1.588 J0
G1 X-96
G2 X-97.588 Y-65.5 I0 J1.588
G1 Y-59.5
G2 X-96 Y-57.912 I1.588 J0
G3 X-95.683 Y-57.595 I0 J0.317
G1 Y-57.278
G19 G3 Y-56.96 Z-2.083 J0 K0.318
G0 Z5
X-96.317
G1 Z-1.2 F70
Z-2.283
G2 Y-57.278 Z-2.6 J-0.318 K0 F400
G1 Y-57.595
G17 G3 X-96 Y-57.912 I0.317 J0
G1 X-91.588
Y-56.088
X-96
G2 X-97.588 Y-54.5 I0 J1.588
G1 Y-49.5
G2 X-96 Y-47.912 I1.588 J0
G1 X-91.588
Y-46.088
X-96
G2 X-97.588 Y-44.5 I0 J1.588
G1 Y-39.5
G2 X-96 Y-37.912 I1.588 J0
G1 X-91.588
Y-36.088
X-96
G2 X-97.588 Y-34.5 I0 J1.588
G1 Y-29.5
G2 X-96 Y-27.913 I1.588 J0
G1 X-91.588
Y-26.087
X-96
G2 X-97.588 Y-24.5 I0 J1.587
G1 Y-19.5
G2 X-96 Y-17.913 I1.588 J0
G1 X-91.588
Y-16.087
X-96
G2 X-97.588 Y-14.5 I0 J1.587
G1 Y-9.5
G2 X-96 Y-7.912 I1.588 J0
G1 X-91.588
Y-6.088
X-96
G2 X-97.588 Y-4.5 I0 J1.588
G1 Y0.5
G2 X-96 Y2.088 I1.588 J0
G1 X-91.588
Y3.912
X-96
G2 X-97.588 Y5.5 I0 J1.588
G1 Y10.5
G2 X-96 Y12.087 I1.588 J0
G1 X-91.588
Y13.913
X-96
G2 X-97.588 Y15.5 I0 J1.587
G1 Y20.5
G2 X-96 Y22.087 I1.588 J0
G1 X-91.588
Y23.913
X-96
G2 X-97.588 Y25.5 I0 J1.587
G1 Y30.5
G2 X-96 Y32.088 I1.588 J0
G1 X-91.588
Y33.912
X-96
G2 X-97.588 Y35.5 I0 J1.588
G1 Y40.5
G2 X-96 Y42.088 I1.588 J0
G1 X-91.588
Y43.912
X-96
G2 X-97.588 Y45.5 I0 J1.588
G1 Y50.5
G2 X-96 Y52.088 I1.588 J0
G1 X-91.588
Y53.912
X-96
G2 X-97.588 Y55.5 I0 J1.588
G1 Y60.5
G2 X-96 Y62.088 I1.588 J0
G1 X-91.588
Y65.5
G2 X-90 Y67.088 I1.588 J0
G1 X90
G2 X91.588 Y65.5 I0 J-1.588
G1 Y62.088
X96
G2 X97.588 Y60.5 I0 J-1.588
G1 Y55.5
G2 X96 Y53.912 I-1.588 J0
G1 X91.588
Y52.088
X96
G2 X97.588 Y50.5 I0 J-1.588
G1 Y45.5
G2 X96 Y43.912 I-1.588 J0
G1 X91.588
Y42.088
X96
G2 X97.588 Y40.5 I0 J-1.588
G1 Y35.5
G2 X96 Y33.912 I-1.588 J0
G1 X91.588
Y32.088
X96
G2 X97.588 Y30.5 I0 J-1.588
G1 Y25.5
G2 X96 Y23.913 I-1.588 J0
G1 X91.588
Y22.087
X96
G2 X97.588 Y20.5 I0 J-1.587
G1 Y15.5
G2 X96 Y13.913 I-1.588 J0
G1 X91.588
Y12.087
X96
G2 X97.588 Y10.5 I0 J-1.587
G1 Y5.5
G2 X96 Y3.912 I-1.588 J0
G1 X91.588
Y2.088
X96
G2 X97.588 Y0.5 I0 J-1.588
G1 Y-4.5
G2 X96 Y-6.088 I-1.588 J0
G1 X91.588
Y-7.912
X96
G2 X97.588 Y-9.5 I0 J-1.588
G1 Y-14.5
G2 X96 Y-16.087 I-1.588 J0
G1 X91.588
Y-17.913
X96
G2 X97.588 Y-19.5 I0 J-1.587
G1 Y-24.5
G2 X96 Y-26.087 I-1.588 J0
G1 X91.588
Y-27.913
X96
G2 X97.588 Y-29.5 I0 J-1.587
G1 Y-34.5
G2 X96 Y-36.088 I-1.588 J0
G1 X91.588
Y-37.912
X96
G2 X97.588 Y-39.5 I0 J-1.588
G1 Y-44.5
G2 X96 Y-46.088 I-1.588 J0
G1 X91.588
Y-47.912
X96
G2 X97.588 Y-49.5 I0 J-1.588
G1 Y-54.5
G2 X96 Y-56.088 I-1.588 J0
G1 X91.588
Y-57.912
X96
G2 X97.588 Y-59.5 I0 J-1.588
G1 Y-65.5
G2 X96 Y-67.088 I-1.588 J0
G1 X75
G2 X73.412 Y-65.5 I0 J1.588
G1 Y-61.088
X51.588
Y-65.5
G2 X50 Y-67.088 I-1.588 J0
G1 X15
G2 X13.413 Y-65.5 I0 J1.588
G1 Y-61.088
X-13.413
Y-65.5
G2 X-15 Y-67.088 I-1.587 J0
G1 X-50
G2 X-51.588 Y-65.5 I0 J1.588
G1 Y-61.088
X-73.412
Y-65.5
G2 X-75 Y-67.088 I-1.588 J0
G1 X-96
G2 X-97.588 Y-65.5 I0 J1.588
G1 Y-59.5
G2 X-96 Y-57.912 I1.588 J0
G3 X-95.683 Y-57.595 I0 J0.317
G1 Y-57.278
G19 G3 Y-56.96 Z-2.283 J0 K0.317
G0 Z5
X-96.317
G1 Z-1.4 F70
Z-2.483
G2 Y-57.278 Z-2.8 J-0.318 K0 F400
G1 Y-57.595
G17 G3 X-96 Y-57.912 I0.317 J0
G1 X-91.588
Y-56.088
X-96
G2 X-97.588 Y-54.5 I0 J1.588
G1 Y-49.5
G2 X-96 Y-47.912 I1.588 J0
G1 X-91.588
Y-46.088
X-96
G2 X-97.588 Y-44.5 I0 J1.588
G1 Y-39.5
G2 X-96 Y-37.912 I1.588 J0
G1 X-91.588
Y-36.088
X-96
G2 X-97.588 Y-34.5 I0 J1.588
G1 Y-29.5
G2 X-96 Y-27.913 I1.588 J0
G1 X-91.588
Y-26.087
X-96
G2 X-97.588 Y-24.5 I0 J1.587
G1 Y-19.5
G2 X-96 Y-17.913 I1.588 J0
G1 X-91.588
Y-16.087
X-96
G2 X-97.588 Y-14.5 I0 J1.587
G1 Y-9.5
G2 X-96 Y-7.912 I1.588 J0
G1 X-91.588
Y-6.088
X-96
G2 X-97.588 Y-4.5 I0 J1.588
G1 Y0.5
G2 X-96 Y2.088 I1.588 J0
G1 X-91.588
Y3.912
X-96
G2 X-97.588 Y5.5 I0 J1.588
G1 Y10.5
G2 X-96 Y12.087 I1.588 J0
G1 X-91.588
Y13.913
X-96
G2 X-97.588 Y15.5 I0 J1.587
G1 Y20.5
G2 X-96 Y22.087 I1.588 J0
G1 X-91.588
Y23.913
X-96
G2 X-97.588 Y25.5 I0 J1.587
G1 Y30.5
G2 X-96 Y32.088 I1.588 J0
G1 X-91.588
Y33.912
X-96
G2 X-97.588 Y35.5 I0 J1.588
G1 Y40.5
G2 X-96 Y42.088 I1.588 J0
G1 X-91.588
Y43.912
X-96
G2 X-97.588 Y45.5 I0 J1.588
G1 Y50.5
G2 X-96 Y52.088 I1.588 J0
G1 X-91.588
Y53.912
X-96
G2 X-97.588 Y55.5 I0 J1.588
G1 Y60.5
G2 X-96 Y62.088 I1.588 J0
G1 X-91.588
Y65.5
G2 X-90 Y67.088 I1.588 J0
G1 X90
G2 X91.588 Y65.5 I0 J-1.588
G1 Y62.088
X96
G2 X97.588 Y60.5 I0 J-1.588
G1 Y55.5
G2 X96 Y53.912 I-1.588 J0
G1 X91.588
Y52.088
X96
G2 X97.588 Y50.5 I0 J-1.588
G1 Y45.5
G2 X96 Y43.912 I-1.588 J0
G1 X91.588
Y42.088
X96
G2 X97.588 Y40.5 I0 J-1.588
G1 Y35.5
G2 X96 Y33.912 I-1.588 J0
G1 X91.588
Y32.088
X96
G2 X97.588 Y30.5 I0 J-1.588
G1 Y25.5
G2 X96 Y23.913 I-1.588 J0
G1 X91.588
Y22.087
X96
G2 X97.588 Y20.5 I0 J-1.587
G1 Y15.5
G2 X96 Y13.913 I-1.588 J0
G1 X91.588
Y12.087
X96
G2 X97.588 Y10.5 I0 J-1.587
G1 Y5.5
G2 X96 Y3.912 I-1.588 J0
G1 X91.588
Y2.088
X96
G2 X97.588 Y0.5 I0 J-1.588
G1 Y-4.5
G2 X96 Y-6.088 I-1.588 J0
G1 X91.588
Y-7.912
X96
G2 X97.588 Y-9.5 I0 J-1.588
G1 Y-14.5
G2 X96 Y-16.087 I-1.588 J0
G1 X91.588
Y-17.913
X96
G2 X97.588 Y-19.5 I0 J-1.587
G1 Y-24.5
G2 X96 Y-26.087 I-1.588 J0
G1 X91.588
Y-27.913
X96
G2 X97.588 Y-29.5 I0 J-1.587
G1 Y-34.5
G2 X96 Y-36.088 I-1.588 J0
G1 X91.588
Y-37.912
X96
G2 X97.588 Y-39.5 I0 J-1.588
G1 Y-44.5
G2 X96 Y-46.088 I-1.588 J0
G1 X91.588
Y-47.912
X96
G2 X97.588 Y-49.5 I0 J-1.588
G1 Y-54.5
G2 X96 Y-56.088 I-1.588 J0
G1 X91.588
Y-57.912
X96
G2 X97.588 Y-59.5 I0 J-1.588
G1 Y-65.5
G2 X96 Y-67.088 I-1.588 J0
G1 X75
G2 X73.412 Y-65.5 I0 J1.588
G1 Y-61.088
X51.588
Y-65.5
G2 X50 Y-67.088 I-1.588 J0
G1 X15
G2 X13.413 Y-65.5 I0 J1.588
G1 Y-61.088
X-13.413
Y-65.5
G2 X-15 Y-67.088 I-1.587 J0
G1 X-50
G2 X-51.588 Y-65.5 I0 J1.588
G1 Y-61.088
X-73.412
Y-65.5
G2 X-75 Y-67.088 I-1.588 J0
G1 X-96
G2 X-97.588 Y-65.5 I0 J1.588
G1 Y-59.5
G2 X-96 Y-57.912 I1.588 J0
G3 X-95.683 Y-57.595 I0 J0.317
G1 Y-57.278
G19 G3 Y-56.96 Z-2.483 J0 K0.317
G0 Z5
X-96.317
G1 Z-1.6 F70
Z-2.683
G2 Y-57.278 Z-3 J-0.318 K0 F400
G1 Y-57.595
G17 G3 X-96 Y-57.912 I0.317 J0
G1 X-91.588
Y-56.088
X-96
G2 X-97.588 Y-54.5 I0 J1.588
G1 Y-49.5
G2 X-96 Y-47.912 I1.588 J0
G1 X-91.588
Y-46.088
X-96
G2 X-97.588 Y-44.5 I0 J1.588
G1 Y-39.5
G2 X-96 Y-37.912 I1.588 J0
G1 X-91.588
Y-36.088
X-96
G2 X-97.588 Y-34.5 I0 J1.588
G1 Y-29.5
G2 X-96 Y-27.913 I1.588 J0
G1 X-91.588
Y-26.087
X-96
G2 X-97.588 Y-24.5 I0 J1.587
G1 Y-19.5
G2 X-96 Y-17.913 I1.588 J0
G1 X-91.588
Y-16.087
X-96
G2 X-97.588 Y-14.5 I0 J1.587
G1 Y-9.5
G2 X-96 Y-7.912 I1.588 J0
G1 X-91.588
Y-6.088
X-96
G2 X-97.588 Y-4.5 I0 J1.588
G1 Y0.5
G2 X-96 Y2.088 I1.588 J0
G1 X-91.588
Y3.912
X-96
G2 X-97.588 Y5.5 I0 J1.588
G1 Y10.5
G2 X-96 Y12.087 I1.588 J0
G1 X-91.588
Y13.913
X-96
G2 X-97.588 Y15.5 I0 J1.587
G1 Y20.5
G2 X-96 Y22.087 I1.588 J0
G1 X-91.588
Y23.913
X-96
G2 X-97.588 Y25.5 I0 J1.587
G1 Y30.5
G2 X-96 Y32.088 I1.588 J0
G1 X-91.588
Y33.912
X-96
G2 X-97.588 Y35.5 I0 J1.588
G1 Y40.5
G2 X-96 Y42.088 I1.588 J0
G1 X-91.588
Y43.912
X-96
G2 X-97.588 Y45.5 I0 J1.588
G1 Y50.5
G2 X-96 Y52.088 I1.588 J0
G1 X-91.588
Y53.912
X-96
G2 X-97.588 Y55.5 I0 J1.588
G1 Y60.5
G2 X-96 Y62.088 I1.588 J0
G1 X-91.588
Y65.5
G2 X-90 Y67.088 I1.588 J0
G1 X90
G2 X91.588 Y65.5 I0 J-1.588
G1 Y62.088
X96
G2 X97.588 Y60.5 I0 J-1.588
G1 Y55.5
G2 X96 Y53.912 I-1.588 J0
G1 X91.588
Y52.088
X96
G2 X97.588 Y50.5 I0 J-1.588
G1 Y45.5
G2 X96 Y43.912 I-1.588 J0
G1 X91.588
Y42.088
X96
G2 X97.588 Y40.5 I0 J-1.588
G1 Y35.5
G2 X96 Y33.912 I-1.588 J0
G1 X91.588
Y32.088
X96
G2 X97.588 Y30.5 I0 J-1.588
G1 Y25.5
G2 X96 Y23.913 I-1.588 J0
G1 X91.588
Y22.087
X96
G2 X97.588 Y20.5 I0 J-1.587
G1 Y15.5
G2 X96 Y13.913 I-1.588 J0
G1 X91.588
Y12.087
X96
G2 X97.588 Y10.5 I0 J-1.587
G1 Y5.5
G2 X96 Y3.912 I-1.588 J0
G1 X91.588
Y2.088
X96
G2 X97.588 Y0.5 I0 J-1.588
G1 Y-4.5
G2 X96 Y-6.088 I-1.588 J0
G1 X91.588
Y-7.912
X96
G2 X97.588 Y-9.5 I0 J-1.588
G1 Y-14.5
G2 X96 Y-16.087 I-1.588 J0
G1 X91.588
Y-17.913
X96
G2 X97.588 Y-19.5 I0 J-1.587
G1 Y-24.5
G2 X96 Y-26.087 I-1.588 J0
G1 X91.588
Y-27.913
X96
G2 X97.588 Y-29.5 I0 J-1.587
G1 Y-34.5
G2 X96 Y-36.088 I-1.588 J0
G1 X91.588
Y-37.912
X96
G2 X97.588 Y-39.5 I0 J-1.588
G1 Y-44.5
G2 X96 Y-46.088 I-1.588 J0
G1 X91.588
Y-47.912
X96
G2 X97.588 Y-49.5 I0 J-1.588
G1 Y-54.5
G2 X96 Y-56.088 I-1.588 J0
G1 X91.588
Y-57.912
X96
G2 X97.588 Y-59.5 I0 J-1.588
G1 Y-65.5
G2 X96 Y-67.088 I-1.588 J0
G1 X75
G2 X73.412 Y-65.5 I0 J1.588
G1 Y-61.088
X51.588
Y-65.5
G2 X50 Y-67.088 I-1.588 J0
G1 X15
G2 X13.413 Y-65.5 I0 J1.588
G1 Y-61.088
X-13.413
Y-65.5
G2 X-15 Y-67.088 I-1.587 J0
G1 X-50
G2 X-51.588 Y-65.5 I0 J1.588
G1 Y-61.088
X-73.412
Y-65.5
G2 X-75 Y-67.088 I-1.588 J0
G1 X-96
G2 X-97.588 Y-65.5 I0 J1.588
G1 Y-59.5
G2 X-96 Y-57.912 I1.588 J0
G3 X-95.683 Y-57.595 I0 J0.317
G1 Y-57.278
G19 G3 Y-56.96 Z-2.683 J0 K0.318
G0 Z5
X-96.317
G1 Z-1.8 F70
Z-2.883
G2 Y-57.278 Z-3.2 J-0.318 K0 F400
G1 Y-57.595
G17 G3 X-96 Y-57.912 I0.317 J0
G1 X-91.588
Y-56.088
X-96
G2 X-97.588 Y-54.5 I0 J1.588
G1 Y-49.5
G2 X-96 Y-47.912 I1.588 J0
G1 X-91.588
Y-46.088
X-96
G2 X-97.588 Y-44.5 I0 J1.588
G1 Y-39.5
G2 X-96 Y-37.912 I1.588 J0
G1 X-91.588
Y-36.088
X-96
G2 X-97.588 Y-34.5 I0 J1.588
G1 Y-29.5
G2 X-96 Y-27.913 I1.588 J0
G1 X-91.588
Y-26.087
X-96
G2 X-97.588 Y-24.5 I0 J1.587
G1 Y-19.5
G2 X-96 Y-17.913 I1.588 J0
G1 X-91.588
Y-16.087
X-96
G2 X-97.588 Y-14.5 I0 J1.587
G1 Y-9.5
G2 X-96 Y-7.912 I1.588 J0
G1 X-91.588
Y-6.088
X-96
G2 X-97.588 Y-4.5 I0 J1.588
G1 Y0.5
G2 X-96 Y2.088 I1.588 J0
G1 X-91.588
Y3.912
X-96
G2 X-97.588 Y5.5 I0 J1.588
G1 Y10.5
G2 X-96 Y12.087 I1.588 J0
G1 X-91.588
Y13.913
X-96
G2 X-97.588 Y15.5 I0 J1.587
G1 Y20.5
G2 X-96 Y22.087 I1.588 J0
G1 X-91.588
Y23.913
X-96
G2 X-97.588 Y25.5 I0 J1.587
G1 Y30.5
G2 X-96 Y32.088 I1.588 J0
G1 X-91.588
Y33.912
X-96
G2 X-97.588 Y35.5 I0 J1.588
G1 Y40.5
G2 X-96 Y42.088 I1.588 J0
G1 X-91.588
Y43.912
X-96
G2 X-97.588 Y45.5 I0 J1.588
G1 Y50.5
G2 X-96 Y52.088 I1.588 J0
G1 X-91.588
Y53.912
X-96
G2 X-97.588 Y55.5 I0 J1.588
G1 Y60.5
G2 X-96 Y62.088 I1.588 J0
G1 X-91.588
Y65.5
G2 X-90 Y67.088 I1.588 J0
G1 X90
G2 X91.588 Y65.5 I0 J-1.588
G1 Y62.088
X96
G2 X97.588 Y60.5 I0 J-1.588
G1 Y55.5
G2 X96 Y53.912 I-1.588 J0
G1 X91.588
Y52.088
X96
G2 X97.588 Y50.5 I0 J-1.588
G1 Y45.5
G2 X96 Y43.912 I-1.588 J0
G1 X91.588
Y42.088
X96
G2 X97.588 Y40.5 I0 J-1.588
G1 Y35.5
G2 X96 Y33.912 I-1.588 J0
G1 X91.588
Y32.088
X96
G2 X97.588 Y30.5 I0 J-1.588
G1 Y25.5
G2 X96 Y23.913 I-1.588 J0
G1 X91.588
Y22.087
X96
G2 X97.588 Y20.5 I0 J-1.587
G1 Y15.5
G2 X96 Y13.913 I-1.588 J0
G1 X91.588
Y12.087
X96
G2 X97.588 Y10.5 I0 J-1.587
G1 Y5.5
G2 X96 Y3.912 I-1.588 J0
G1 X91.588
Y2.088
X96
G2 X97.588 Y0.5 I0 J-1.588
G1 Y-4.5
G2 X96 Y-6.088 I-1.588 J0
G1 X91.588
Y-7.912
X96
G2 X97.588 Y-9.5 I0 J-1.588
G1 Y-14.5
G2 X96 Y-16.087 I-1.588 J0
G1 X91.588
Y-17.913
X96
G2 X97.588 Y-19.5 I0 J-1.587
G1 Y-24.5
G2 X96 Y-26.087 I-1.588 J0
G1 X91.588
Y-27.913
X96
G2 X97.588 Y-29.5 I0 J-1.587
G1 Y-34.5
G2 X96 Y-36.088 I-1.588 J0
G1 X91.588
Y-37.912
X96
G2 X97.588 Y-39.5 I0 J-1.588
G1 Y-44.5
G2 X96 Y-46.088 I-1.588 J0
G1 X91.588
Y-47.912
X96
G2 X97.588 Y-49.5 I0 J-1.588
G1 Y-54.5
G2 X96 Y-56.088 I-1.588 J0
G1 X91.588
Y-57.912
X96
G2 X97.588 Y-59.5 I0 J-1.588
G1 Y-65.5
G2 X96 Y-67.088 I-1.588 J0
G1 X75
G2 X73.412 Y-65.5 I0 J1.588
G1 Y-61.088
X51.588
Y-65.5
G2 X50 Y-67.088 I-1.588 J0
G1 X15
G2 X13.413 Y-65.5 I0 J1.588
G1 Y-61.088
X-13.413
Y-65.5
G2 X-15 Y-67.088 I-1.587 J0
G1 X-50
G2 X-51.588 Y-65.5 I0 J1.588
G1 Y-61.088
X-73.412
Y-65.5
G2 X-75 Y-67.088 I-1.588 J0
G1 X-96
G2 X-97.588 Y-65.5 I0 J1.588
G1 Y-59.5
G2 X-96 Y-57.912 I1.588 J0
G3 X-95.683 Y-57.595 I0 J0.317
G1 Y-57.278
G19 G3 Y-56.96 Z-2.883 J0 K0.318
G0 Z5
X-96.317
G1 Z-2 F70
Z-3.083
G2 Y-57.278 Z-3.4 J-0.318 K0 F400
G1 Y-57.595
G17 G3 X-96 Y-57.912 I0.317 J0
G1 X-91.588
Y-56.088
X-96
G2 X-97.588 Y-54.5 I0 J1.588
G1 Y-49.5
G2 X-96 Y-47.912 I1.588 J0
G1 X-91.588
Y-46.088
X-96
G2 X-97.588 Y-44.5 I0 J1.588
G1 Y-39.5
G2 X-96 Y-37.912 I1.588 J0
G1 X-91.588
Y-36.088
X-96
G2 X-97.588 Y-34.5 I0 J1.588
G1 Y-29.5
G2 X-96 Y-27.913 I1.588 J0
G1 X-91.588
Y-26.087
X-96
G2 X-97.588 Y-24.5 I0 J1.587
G1 Y-19.5
G2 X-96 Y-17.913 I1.588 J0
G1 X-91.588
Y-16.087
X-96
G2 X-97.588 Y-14.5 I0 J1.587
G1 Y-9.5
G2 X-96 Y-7.912 I1.588 J0
G1 X-91.588
Y-6.088
X-96
G2 X-97.588 Y-4.5 I0 J1.588
G1 Y0.5
G2 X-96 Y2.088 I1.588 J0
G1 X-91.588
Y3.912
X-96
G2 X-97.588 Y5.5 I0 J1.588
G1 Y10.5
G2 X-96 Y12.087 I1.588 J0
G1 X-91.588
Y13.913
X-96
G2 X-97.588 Y15.5 I0 J1.587
G1 Y20.5
G2 X-96 Y22.087 I1.588 J0
G1 X-91.588
Y23.913
X-96
G2 X-97.588 Y25.5 I0 J1.587
G1 Y30.5
G2 X-96 Y32.088 I1.588 J0
G1 X-91.588
Y33.912
X-96
G2 X-97.588 Y35.5 I0 J1.588
G1 Y40.5
G2 X-96 Y42.088 I1.588 J0
G1 X-91.588
Y43.912
X-96
G2 X-97.588 Y45.5 I0 J1.588
G1 Y50.5
G2 X-96 Y52.088 I1.588 J0
G1 X-91.588
Y53.912
X-96
G2 X-97.588 Y55.5 I0 J1.588
G1 Y60.5
G2 X-96 Y62.088 I1.588 J0
G1 X-91.588
Y65.5
G2 X-90 Y67.088 I1.588 J0
G1 X90
G2 X91.588 Y65.5 I0 J-1.588
G1 Y62.088
X96
G2 X97.588 Y60.5 I0 J-1.588
G1 Y55.5
G2 X96 Y53.912 I-1.588 J0
G1 X91.588
Y52.088
X96
G2 X97.588 Y50.5 I0 J-1.588
G1 Y45.5
G2 X96 Y43.912 I-1.588 J0
G1 X91.588
Y42.088
X96
G2 X97.588 Y40.5 I0 J-1.588
G1 Y35.5
G2 X96 Y33.912 I-1.588 J0
G1 X91.588
Y32.088
X96
G2 X97.588 Y30.5 I0 J-1.588
G1 Y25.5
G2 X96 Y23.913 I-1.588 J0
G1 X91.588
Y22.087
X96
G2 X97.588 Y20.5 I0 J-1.587
G1 Y15.5
G2 X96 Y13.913 I-1.588 J0
G1 X91.588
Y12.087
X96
G2 X97.588 Y10.5 I0 J-1.587
G1 Y5.5
G2 X96 Y3.912 I-1.588 J0
G1 X91.588
Y2.088
X96
G2 X97.588 Y0.5 I0 J-1.588
G1 Y-4.5
G2 X96 Y-6.088 I-1.588 J0
G1 X91.588
Y-7.912
X96
G2 X97.588 Y-9.5 I0 J-1.588
G1 Y-14.5
G2 X96 Y-16.087 I-1.588 J0
G1 X91.588
Y-17.913
X96
G2 X97.588 Y-19.5 I0 J-1.587
G1 Y-24.5
G2 X96 Y-26.087 I-1.588 J0
G1 X91.588
Y-27.913
X96
G2 X97.588 Y-29.5 I0 J-1.587
G1 Y-34.5
G2 X96 Y-36.088 I-1.588 J0
G1 X91.588
Y-37.912
X96
G2 X97.588 Y-39.5 I0 J-1.588
G1 Y-44.5
G2 X96 Y-46.088 I-1.588 J0
G1 X91.588
Y-47.912
X96
G2 X97.588 Y-49.5 I0 J-1.588
G1 Y-54.5
G2 X96 Y-56.088 I-1.588 J0
G1 X91.588
Y-57.912
X96
G2 X97.588 Y-59.5 I0 J-1.588
G1 Y-65.5
G2 X96 Y-67.088 I-1.588 J0
G1 X75
G2 X73.412 Y-65.5 I0 J1.588
G1 Y-61.088
X51.588
Y-65.5
G2 X50 Y-67.088 I-1.588 J0
G1 X15
G2 X13.413 Y-65.5 I0 J1.588
G1 Y-61.088
X-13.413
Y-65.5
G2 X-15 Y-67.088 I-1.587 J0
G1 X-50
G2 X-51.588 Y-65.5 I0 J1.588
G1 Y-61.088
X-73.412
Y-65.5
G2 X-75 Y-67.088 I-1.588 J0
G1 X-96
G2 X-97.588 Y-65.5 I0 J1.588
G1 Y-59.5
G2 X-96 Y-57.912 I1.588 J0
G3 X-95.683 Y-57.595 I0 J0.317
G1 Y-57.278
G19 G3 Y-56.96 Z-3.083 J0 K0.318
G0 Z5
X-96.317
G1 Z-2.2 F70
Z-3.283
G2 Y-57.278 Z-3.6 J-0.318 K0 F400
G1 Y-57.595
G17 G3 X-96 Y-57.912 I0.317 J0
G1 X-91.588
Y-56.088
X-96
G2 X-97.588 Y-54.5 I0 J1.588
G1 Y-49.5
G2 X-96 Y-47.912 I1.588 J0
G1 X-91.588
Y-46.088
X-96
G2 X-97.588 Y-44.5 I0 J1.588
G1 Y-39.5
G2 X-96 Y-37.912 I1.588 J0
G1 X-91.588
Y-36.088
X-96
G2 X-97.588 Y-34.5 I0 J1.588
G1 Y-29.5
G2 X-96 Y-27.913 I1.588 J0
G1 X-91.588
Y-26.087
X-96
G2 X-97.588 Y-24.5 I0 J1.587
G1 Y-19.5
G2 X-96 Y-17.913 I1.588 J0
G1 X-91.588
Y-16.087
X-96
G2 X-97.588 Y-14.5 I0 J1.587
G1 Y-9.5
G2 X-96 Y-7.912 I1.588 J0
G1 X-91.588
Y-6.088
X-96
G2 X-97.588 Y-4.5 I0 J1.588
G1 Y0.5
G2 X-96 Y2.088 I1.588 J0
G1 X-91.588
Y3.912
X-96
G2 X-97.588 Y5.5 I0 J1.588
G1 Y10.5
G2 X-96 Y12.087 I1.588 J0
G1 X-91.588
Y13.913
X-96
G2 X-97.588 Y15.5 I0 J1.587
G1 Y20.5
G2 X-96 Y22.087 I1.588 J0
G1 X-91.588
Y23.913
X-96
G2 X-97.588 Y25.5 I0 J1.587
G1 Y30.5
G2 X-96 Y32.088 I1.588 J0
G1 X-91.588
Y33.912
X-96
G2 X-97.588 Y35.5 I0 J1.588
G1 Y40.5
G2 X-96 Y42.088 I1.588 J0
G1 X-91.588
Y43.912
X-96
G2 X-97.588 Y45.5 I0 J1.588
G1 Y50.5
G2 X-96 Y52.088 I1.588 J0
G1 X-91.588
Y53.912
X-96
G2 X-97.588 Y55.5 I0 J1.588
G1 Y60.5
G2 X-96 Y62.088 I1.588 J0
G1 X-91.588
Y65.5
G2 X-90 Y67.088 I1.588 J0
G1 X90
G2 X91.588 Y65.5 I0 J-1.588
G1 Y62.088
X96
G2 X97.588 Y60.5 I0 J-1.588
G1 Y55.5
G2 X96 Y53.912 I-1.588 J0
G1 X91.588
Y52.088
X96
G2 X97.588 Y50.5 I0 J-1.588
G1 Y45.5
G2 X96 Y43.912 I-1.588 J0
G1 X91.588
Y42.088
X96
G2 X97.588 Y40.5 I0 J-1.588
G1 Y35.5
G2 X96 Y33.912 I-1.588 J0
G1 X91.588
Y32.088
X96
G2 X97.588 Y30.5 I0 J-1.588
G1 Y25.5
G2 X96 Y23.913 I-1.588 J0
G1 X91.588
Y22.087
X96
G2 X97.588 Y20.5 I0 J-1.587
G1 Y15.5
G2 X96 Y13.913 I-1.588 J0
G1 X91.588
Y12.087
X96
G2 X97.588 Y10.5 I0 J-1.587
G1 Y5.5
G2 X96 Y3.912 I-1.588 J0
G1 X91.588
Y2.088
X96
G2 X97.588 Y0.5 I0 J-1.588
G1 Y-4.5
G2 X96 Y-6.088 I-1.588 J0
G1 X91.588
Y-7.912
X96
G2 X97.588 Y-9.5 I0 J-1.588
G1 Y-14.5
G2 X96 Y-16.087 I-1.588 J0
G1 X91.588
Y-17.913
X96
G2 X97.588 Y-19.5 I0 J-1.587
G1 Y-24.5
G2 X96 Y-26.087 I-1.588 J0
G1 X91.588
Y-27.913
X96
G2 X97.588 Y-29.5 I0 J-1.587
G1 Y-34.5
G2 X96 Y-36.088 I-1.588 J0
G1 X91.588
Y-37.912
X96
G2 X97.588 Y-39.5 I0 J-1.588
G1 Y-44.5
G2 X96 Y-46.088 I-1.588 J0
G1 X91.588
Y-47.912
X96
G2 X97.588 Y-49.5 I0 J-1.588
G1 Y-54.5
G2 X96 Y-56.088 I-1.588 J0
G1 X91.588
Y-57.912
X96
G2 X97.588 Y-59.5 I0 J-1.588
G1 Y-65.5
G2 X96 Y-67.088 I-1.588 J0
G1 X75
G2 X73.412 Y-65.5 I0 J1.588
G1 Y-61.088
X51.588
Y-65.5
G2 X50 Y-67.088 I-1.588 J0
G1 X15
G2 X13.413 Y-65.5 I0 J1.588
G1 Y-61.088
X-13.413
Y-65.5
G2 X-15 Y-67.088 I-1.587 J0
G1 X-50
G2 X-51.588 Y-65.5 I0 J1.588
G1 Y-61.088
X-73.412
Y-65.5
G2 X-75 Y-67.088 I-1.588 J0
G1 X-96
G2 X-97.588 Y-65.5 I0 J1.588
G1 Y-59.5
G2 X-96 Y-57.912 I1.588 J0
G3 X-95.683 Y-57.595 I0 J0.317
G1 Y-57.278
G19 G3 Y-56.96 Z-3.283 J0 K0.317
G0 Z5
X-96.317
G1 Z-2.4 F70
Z-3.483
G2 Y-57.278 Z-3.8 J-0.318 K0 F400
G1 Y-57.595
G17 G3 X-96 Y-57.912 I0.317 J0
G1 X-91.588
Y-56.088
X-96
G2 X-97.588 Y-54.5 I0 J1.588
G1 Y-49.5
G2 X-96 Y-47.912 I1.588 J0
G1 X-91.588
Y-46.088
X-96
G2 X-97.588 Y-44.5 I0 J1.588
G1 Y-39.5
G2 X-96 Y-37.912 I1.588 J0
G1 X-91.588
Y-36.088
X-96
G2 X-97.588 Y-34.5 I0 J1.588
G1 Y-29.5
G2 X-96 Y-27.913 I1.588 J0
G1 X-91.588
Y-26.087
X-96
G2 X-97.588 Y-24.5 I0 J1.587
G1 Y-19.5
G2 X-96 Y-17.913 I1.588 J0
G1 X-91.588
Y-16.087
X-96
G2 X-97.588 Y-14.5 I0 J1.587
G1 Y-9.5
G2 X-96 Y-7.912 I1.588 J0
G1 X-91.588
Y-6.088
X-96
G2 X-97.588 Y-4.5 I0 J1.588
G1 Y0.5
G2 X-96 Y2.088 I1.588 J0
G1 X-91.588
Y3.912
X-96
G2 X-97.588 Y5.5 I0 J1.588
G1 Y10.5
G2 X-96 Y12.087 I1.588 J0
G1 X-91.588
Y13.913
X-96
G2 X-97.588 Y15.5 I0 J1.587
G1 Y20.5
G2 X-96 Y22.087 I1.588 J0
G1 X-91.588
Y23.913
X-96
G2 X-97.588 Y25.5 I0 J1.587
G1 Y30.5
G2 X-96 Y32.088 I1.588 J0
G1 X-91.588
Y33.912
X-96
G2 X-97.588 Y35.5 I0 J1.588
G1 Y40.5
G2 X-96 Y42.088 I1.588 J0
G1 X-91.588
Y43.912
X-96
G2 X-97.588 Y45.5 I0 J1.588
G1 Y50.5
G2 X-96 Y52.088 I1.588 J0
G1 X-91.588
Y53.912
X-96
G2 X-97.588 Y55.5 I0 J1.588
G1 Y60.5
G2 X-96 Y62.088 I1.588 J0
G1 X-91.588
Y65.5
G2 X-90 Y67.088 I1.588 J0
G1 X90
G2 X91.588 Y65.5 I0 J-1.588
G1 Y62.088
X96
G2 X97.588 Y60.5 I0 J-1.588
G1 Y55.5
G2 X96 Y53.912 I-1.588 J0
G1 X91.588
Y52.088
X96
G2 X97.588 Y50.5 I0 J-1.588
G1 Y45.5
G2 X96 Y43.912 I-1.588 J0
G1 X91.588
Y42.088
X96
G2 X97.588 Y40.5 I0 J-1.588
G1 Y35.5
G2 X96 Y33.912 I-1.588 J0
G1 X91.588
Y32.088
X96
G2 X97.588 Y30.5 I0 J-1.588
G1 Y25.5
G2 X96 Y23.913 I-1.588 J0
G1 X91.588
Y22.087
X96
G2 X97.588 Y20.5 I0 J-1.587
G1 Y15.5
G2 X96 Y13.913 I-1.588 J0
G1 X91.588
Y12.087
X96
G2 X97.588 Y10.5 I0 J-1.587
G1 Y5.5
G2 X96 Y3.912 I-1.588 J0
G1 X91.588
Y2.088
X96
G2 X97.588 Y0.5 I0 J-1.588
G1 Y-4.5
G2 X96 Y-6.088 I-1.588 J0
G1 X91.588
Y-7.912
X96
G2 X97.588 Y-9.5 I0 J-1.588
G1 Y-14.5
G2 X96 Y-16.087 I-1.588 J0
G1 X91.588
Y-17.913
X96
G2 X97.588 Y-19.5 I0 J-1.587
G1 Y-24.5
G2 X96 Y-26.087 I-1.588 J0
G1 X91.588
Y-27.913
X96
G2 X97.588 Y-29.5 I0 J-1.587
G1 Y-34.5
G2 X96 Y-36.088 I-1.588 J0
G1 X91.588
Y-37.912
X96
G2 X97.588 Y-39.5 I0 J-1.588
G1 Y-44.5
G2 X96 Y-46.088 I-1.588 J0
G1 X91.588
Y-47.912
X96
G2 X97.588 Y-49.5 I0 J-1.588
G1 Y-54.5
G2 X96 Y-56.088 I-1.588 J0
G1 X91.588
Y-57.912
X96
G2 X97.588 Y-59.5 I0 J-1.588
G1 Y-65.5
G2 X96 Y-67.088 I-1.588 J0
G1 X75
G2 X73.412 Y-65.5 I0 J1.588
G1 Y-61.088
X51.588
Y-65.5
G2 X50 Y-67.088 I-1.588 J0
G1 X15
G2 X13.413 Y-65.5 I0 J1.588
G1 Y-61.088
X-13.413
Y-65.5
G2 X-15 Y-67.088 I-1.587 J0
G1 X-50
G2 X-51.588 Y-65.5 I0 J1.588
G1 Y-61.088
X-73.412
Y-65.5
G2 X-75 Y-67.088 I-1.588 J0
G1 X-96
G2 X-97.588 Y-65.5 I0 J1.588
G1 Y-59.5
G2 X-96 Y-57.912 I1.588 J0
G3 X-95.683 Y-57.595 I0 J0.317
G1 Y-57.278
G19 G3 Y-56.96 Z-3.483 J0 K0.317
G0 Z5
X-96.317
G1 Z-2.6 F70
Z-3.683
G2 Y-57.278 Z-4 J-0.318 K0 F400
G1 Y-57.595
G17 G3 X-96 Y-57.912 I0.317 J0
G1 X-91.588
Y-56.088
X-96
G2 X-97.588 Y-54.5 I0 J1.588
G1 Y-49.5
G2 X-96 Y-47.912 I1.588 J0
G1 X-91.588
Y-46.088
X-96
G2 X-97.588 Y-44.5 I0 J1.588
G1 Y-39.5
G2 X-96 Y-37.912 I1.588 J0
G1 X-91.588
Y-36.088
X-96
G2 X-97.588 Y-34.5 I0 J1.588
G1 Y-29.5
G2 X-96 Y-27.913 I1.588 J0
G1 X-91.588
Y-26.087
X-96
G2 X-97.588 Y-24.5 I0 J1.587
G1 Y-19.5
G2 X-96 Y-17.913 I1.588 J0
G1 X-91.588
Y-16.087
X-96
G2 X-97.588 Y-14.5 I0 J1.587
G1 Y-9.5
G2 X-96 Y-7.912 I1.588 J0
G1 X-91.588
Y-6.088
X-96
G2 X-97.588 Y-4.5 I0 J1.588
G1 Y0.5
G2 X-96 Y2.088 I1.588 J0
G1 X-91.588
Y3.912
X-96
G2 X-97.588 Y5.5 I0 J1.588
G1 Y10.5
G2 X-96 Y12.087 I1.588 J0
G1 X-91.588
Y13.913
X-96
G2 X-97.588 Y15.5 I0 J1.587
G1 Y20.5
G2 X-96 Y22.087 I1.588 J0
G1 X-91.588
Y23.913
X-96
G2 X-97.588 Y25.5 I0 J1.587
G1 Y30.5
G2 X-96 Y32.088 I1.588 J0
G1 X-91.588
Y33.912
X-96
G2 X-97.588 Y35.5 I0 J1.588
G1 Y40.5
G2 X-96 Y42.088 I1.588 J0
G1 X-91.588
Y43.912
X-96
G2 X-97.588 Y45.5 I0 J1.588
G1 Y50.5
G2 X-96 Y52.088 I1.588 J0
G1 X-91.588
Y53.912
X-96
G2 X-97.588 Y55.5 I0 J1.588
G1 Y60.5
G2 X-96 Y62.088 I1.588 J0
G1 X-91.588
Y65.5
G2 X-90 Y67.088 I1.588 J0
G1 X90
G2 X91.588 Y65.5 I0 J-1.588
G1 Y62.088
X96
G2 X97.588 Y60.5 I0 J-1.588
G1 Y55.5
G2 X96 Y53.912 I-1.588 J0
G1 X91.588
Y52.088
X96
G2 X97.588 Y50.5 I0 J-1.588
G1 Y45.5
G2 X96 Y43.912 I-1.588 J0
G1 X91.588
Y42.088
X96
G2 X97.588 Y40.5 I0 J-1.588
G1 Y35.5
G2 X96 Y33.912 I-1.588 J0
G1 X91.588
Y32.088
X96
G2 X97.588 Y30.5 I0 J-1.588
G1 Y25.5
G2 X96 Y23.913 I-1.588 J0
G1 X91.588
Y22.087
X96
G2 X97.588 Y20.5 I0 J-1.587
G1 Y15.5
G2 X96 Y13.913 I-1.588 J0
G1 X91.588
Y12.087
X96
G2 X97.588 Y10.5 I0 J-1.587
G1 Y5.5
G2 X96 Y3.912 I-1.588 J0
G1 X91.588
Y2.088
X96
G2 X97.588 Y0.5 I0 J-1.588
G1 Y-4.5
G2 X96 Y-6.088 I-1.588 J0
G1 X91.588
Y-7.912
X96
G2 X97.588 Y-9.5 I0 J-1.588
G1 Y-14.5
G2 X96 Y-16.087 I-1.588 J0
G1 X91.588
Y-17.913
X96
G2 X97.588 Y-19.5 I0 J-1.587
G1 Y-24.5
G2 X96 Y-26.087 I-1.588 J0
G1 X91.588
Y-27.913
X96
G2 X97.588 Y-29.5 I0 J-1.587
G1 Y-34.5
G2 X96 Y-36.088 I-1.588 J0
G1 X91.588
Y-37.912
X96
G2 X97.588 Y-39.5 I0 J-1.588
G1 Y-44.5
G2 X96 Y-46.088 I-1.588 J0
G1 X91.588
Y-47.912
X96
G2 X97.588 Y-49.5 I0 J-1.588
G1 Y-54.5
G2 X96 Y-56.088 I-1.588 J0
G1 X91.588
Y-57.912
X96
G2 X97.588 Y-59.5 I0 J-1.588
G1 Y-65.5
G2 X96 Y-67.088 I-1.588 J0
G1 X75
G2 X73.412 Y-65.5 I0 J1.588
G1 Y-61.088
X51.588
Y-65.5
G2 X50 Y-67.088 I-1.588 J0
G1 X15
G2 X13.413 Y-65.5 I0 J1.588
G1 Y-61.088
X-13.413
Y-65.5
G2 X-15 Y-67.088 I-1.587 J0
G1 X-50
G2 X-51.588 Y-65.5 I0 J1.588
G1 Y-61.088
X-73.412
Y-65.5
G2 X-75 Y-67.088 I-1.588 J0
G1 X-96
G2 X-97.588 Y-65.5 I0 J1.588
G1 Y-59.5
G2 X-96 Y-57.912 I1.588 J0
G3 X-95.683 Y-57.595 I0 J0.317
G1 Y-57.278
G19 G3 Y-56.96 Z-3.683 J0 K0.318
G0 Z5
X-96.317
G1 Z-2.8 F70
Z-3.883
G2 Y-57.278 Z-4.2 J-0.318 K0 F400
G1 Y-57.595
G17 G3 X-96 Y-57.912 I0.317 J0
G1 X-91.588
Y-56.088
X-96
G2 X-97.588 Y-54.5 I0 J1.588
G1 Y-49.5
G2 X-96 Y-47.912 I1.588 J0
G1 X-91.588
Y-46.088
X-96
G2 X-97.588 Y-44.5 I0 J1.588
G1 Y-39.5
G2 X-96 Y-37.912 I1.588 J0
G1 X-91.588
Y-36.088
X-96
G2 X-97.588 Y-34.5 I0 J1.588
G1 Y-29.5
G2 X-96 Y-27.913 I1.588 J0
G1 X-91.588
Y-26.087
X-96
G2 X-97.588 Y-24.5 I0 J1.587
G1 Y-19.5
G2 X-96 Y-17.913 I1.588 J0
G1 X-91.588
Y-16.087
X-96
G2 X-97.588 Y-14.5 I0 J1.587
G1 Y-9.5
G2 X-96 Y-7.912 I1.588 J0
G1 X-91.588
Y-6.088
X-96
G2 X-97.588 Y-4.5 I0 J1.588
G1 Y0.5
G2 X-96 Y2.088 I1.588 J0
G1 X-91.588
Y3.912
X-96
G2 X-97.588 Y5.5 I0 J1.588
G1 Y10.5
G2 X-96 Y12.087 I1.588 J0
G1 X-91.588
Y13.913
X-96
G2 X-97.588 Y15.5 I0 J1.587
G1 Y20.5
G2 X-96 Y22.087 I1.588 J0
G1 X-91.588
Y23.913
X-96
G2 X-97.588 Y25.5 I0 J1.587
G1 Y30.5
G2 X-96 Y32.088 I1.588 J0
G1 X-91.588
Y33.912
X-96
G2 X-97.588 Y35.5 I0 J1.588
G1 Y40.5
G2 X-96 Y42.088 I1.588 J0
G1 X-91.588
Y43.912
X-96
G2 X-97.588 Y45.5 I0 J1.588
G1 Y50.5
G2 X-96 Y52.088 I1.588 J0
G1 X-91.588
Y53.912
X-96
G2 X-97.588 Y55.5 I0 J1.588
G1 Y60.5
G2 X-96 Y62.088 I1.588 J0
G1 X-91.588
Y65.5
G2 X-90 Y67.088 I1.588 J0
G1 X90
G2 X91.588 Y65.5 I0 J-1.588
G1 Y62.088
X96
G2 X97.588 Y60.5 I0 J-1.588
G1 Y55.5
G2 X96 Y53.912 I-1.588 J0
G1 X91.588
Y52.088
X96
G2 X97.588 Y50.5 I0 J-1.588
G1 Y45.5
G2 X96 Y43.912 I-1.588 J0
G1 X91.588
Y42.088
X96
G2 X97.588 Y40.5 I0 J-1.588
G1 Y35.5
G2 X96 Y33.912 I-1.588 J0
G1 X91.588
Y32.088
X96
G2 X97.588 Y30.5 I0 J-1.588
G1 Y25.5
G2 X96 Y23.913 I-1.588 J0
G1 X91.588
Y22.087
X96
G2 X97.588 Y20.5 I0 J-1.587
G1 Y15.5
G2 X96 Y13.913 I-1.588 J0
G1 X91.588
Y12.087
X96
G2 X97.588 Y10.5 I0 J-1.587
G1 Y5.5
G2 X96 Y3.912 I-1.588 J0
G1 X91.588
Y2.088
X96
G2 X97.588 Y0.5 I0 J-1.588
G1 Y-4.5
G2 X96 Y-6.088 I-1.588 J0
G1 X91.588
Y-7.912
X96
G2 X97.588 Y-9.5 I0 J-1.588
G1 Y-14.5
G2 X96 Y-16.087 I-1.588 J0
G1 X91.588
Y-17.913
X96
G2 X97.588 Y-19.5 I0 J-1.587
G1 Y-24.5
G2 X96 Y-26.087 I-1.588 J0
G1 X91.588
Y-27.913
X96
G2 X97.588 Y-29.5 I0 J-1.587
G1 Y-34.5
G2 X96 Y-36.088 I-1.588 J0
G1 X91.588
Y-37.912
X96
G2 X97.588 Y-39.5 I0 J-1.588
G1 Y-44.5
G2 X96 Y-46.088 I-1.588 J0
G1 X91.588
Y-47.912
X96
G2 X97.588 Y-49.5 I0 J-1.588
G1 Y-54.5
G2 X96 Y-56.088 I-1.588 J0
G1 X91.588
Y-57.912
X96
G2 X97.588 Y-59.5 I0 J-1.588
G1 Y-65.5
G2 X96 Y-67.088 I-1.588 J0
G1 X75
G2 X73.412 Y-65.5 I0 J1.588
G1 Y-61.088
X51.588
Y-65.5
G2 X50 Y-67.088 I-1.588 J0
G1 X15
G2 X13.413 Y-65.5 I0 J1.588
G1 Y-61.088
X-13.413
Y-65.5
G2 X-15 Y-67.088 I-1.587 J0
G1 X-50
G2 X-51.588 Y-65.5 I0 J1.588
G1 Y-61.088
X-73.412
Y-65.5
G2 X-75 Y-67.088 I-1.588 J0
G1 X-96
G2 X-97.588 Y-65.5 I0 J1.588
G1 Y-59.5
G2 X-96 Y-57.912 I1.588 J0
G3 X-95.683 Y-57.595 I0 J0.317
G1 Y-57.278
G19 G3 Y-56.96 Z-3.883 J0 K0.317
G0 Z5
X-96.317
G1 Z-3 F70
Z-4.083
G2 Y-57.278 Z-4.4 J-0.318 K0 F400
G1 Y-57.595
G17 G3 X-96 Y-57.912 I0.317 J0
G1 X-91.588
Y-56.088
X-96
G2 X-97.588 Y-54.5 I0 J1.588
G1 Y-49.5
G2 X-96 Y-47.912 I1.588 J0
G1 X-91.588
Y-46.088
X-96
G2 X-97.588 Y-44.5 I0 J1.588
G1 Y-39.5
G2 X-96 Y-37.912 I1.588 J0
G1 X-91.588
Y-36.088
X-96
G2 X-97.588 Y-34.5 I0 J1.588
G1 Y-29.5
G2 X-96 Y-27.913 I1.588 J0
G1 X-91.588
Y-26.087
X-96
G2 X-97.588 Y-24.5 I0 J1.587
G1 Y-19.5
G2 X-96 Y-17.913 I1.588 J0
G1 X-91.588
Y-16.087
X-96
G2 X-97.588 Y-14.5 I0 J1.587
G1 Y-9.5
G2 X-96 Y-7.912 I1.588 J0
G1 X-91.588
Y-6.088
X-96
G2 X-97.588 Y-4.5 I0 J1.588
G1 Y0.5
G2 X-96 Y2.088 I1.588 J0
G1 X-91.588
Y3.912
X-96
G2 X-97.588 Y5.5 I0 J1.588
G1 Y10.5
G2 X-96 Y12.087 I1.588 J0
G1 X-91.588
Y13.913
X-96
G2 X-97.588 Y15.5 I0 J1.587
G1 Y20.5
G2 X-96 Y22.087 I1.588 J0
G1 X-91.588
Y23.913
X-96
G2 X-97.588 Y25.5 I0 J1.587
G1 Y30.5
G2 X-96 Y32.088 I1.588 J0
G1 X-91.588
Y33.912
X-96
G2 X-97.588 Y35.5 I0 J1.588
G1 Y40.5
G2 X-96 Y42.088 I1.588 J0
G1 X-91.588
Y43.912
X-96
G2 X-97.588 Y45.5 I0 J1.588
G1 Y50.5
G2 X-96 Y52.088 I1.588 J0
G1 X-91.588
Y53.912
X-96
G2 X-97.588 Y55.5 I0 J1.588
G1 Y60.5
G2 X-96 Y62.088 I1.588 J0
G1 X-91.588
Y65.5
G2 X-90 Y67.088 I1.588 J0
G1 X90
G2 X91.588 Y65.5 I0 J-1.588
G1 Y62.088
X96
G2 X97.588 Y60.5 I0 J-1.588
G1 Y55.5
G2 X96 Y53.912 I-1.588 J0
G1 X91.588
Y52.088
X96
G2 X97.588 Y50.5 I0 J-1.588
G1 Y45.5
G2 X96 Y43.912 I-1.588 J0
G1 X91.588
Y42.088
X96
G2 X97.588 Y40.5 I0 J-1.588
G1 Y35.5
G2 X96 Y33.912 I-1.588 J0
G1 X91.588
Y32.088
X96
G2 X97.588 Y30.5 I0 J-1.588
G1 Y25.5
G2 X96 Y23.913 I-1.588 J0
G1 X91.588
Y22.087
X96
G2 X97.588 Y20.5 I0 J-1.587
G1 Y15.5
G2 X96 Y13.913 I-1.588 J0
G1 X91.588
Y12.087
X96
G2 X97.588 Y10.5 I0 J-1.587
G1 Y5.5
G2 X96 Y3.912 I-1.588 J0
G1 X91.588
Y2.088
X96
G2 X97.588 Y0.5 I0 J-1.588
G1 Y-4.5
G2 X96 Y-6.088 I-1.588 J0
G1 X91.588
Y-7.912
X96
G2 X97.588 Y-9.5 I0 J-1.588
G1 Y-14.5
G2 X96 Y-16.087 I-1.588 J0
G1 X91.588
Y-17.913
X96
G2 X97.588 Y-19.5 I0 J-1.587
G1 Y-24.5
G2 X96 Y-26.087 I-1.588 J0
G1 X91.588
Y-27.913
X96
G2 X97.588 Y-29.5 I0 J-1.587
G1 Y-34.5
G2 X96 Y-36.088 I-1.588 J0
G1 X91.588
Y-37.912
X96
G2 X97.588 Y-39.5 I0 J-1.588
G1 Y-44.5
G2 X96 Y-46.088 I-1.588 J0
G1 X91.588
Y-47.912
X96
G2 X97.588 Y-49.5 I0 J-1.588
G1 Y-54.5
G2 X96 Y-56.088 I-1.588 J0
G1 X91.588
Y-57.912
X96
G2 X97.588 Y-59.5 I0 J-1.588
G1 Y-65.5
G2 X96 Y-67.088 I-1.588 J0
G1 X75
G2 X73.412 Y-65.5 I0 J1.588
G1 Y-61.088
X51.588
Y-65.5
G2 X50 Y-67.088 I-1.588 J0
G1 X15
G2 X13.413 Y-65.5 I0 J1.588
G1 Y-61.088
X-13.413
Y-65.5
G2 X-15 Y-67.088 I-1.587 J0
G1 X-50
G2 X-51.588 Y-65.5 I0 J1.588
G1 Y-61.088
X-73.412
Y-65.5
G2 X-75 Y-67.088 I-1.588 J0
G1 X-96
G2 X-97.588 Y-65.5 I0 J1.588
G1 Y-59.5
G2 X-96 Y-57.912 I1.588 J0
G3 X-95.683 Y-57.595 I0 J0.317
G1 Y-57.278
G19 G3 Y-56.96 Z-4.083 J0 K0.318
G0 Z5
X-96.317
G1 Z-3.2 F70
Z-4.283
G2 Y-57.278 Z-4.6 J-0.318 K0 F400
G1 Y-57.595
G17 G3 X-96 Y-57.912 I0.317 J0
G1 X-91.588
Y-56.088
X-96
G2 X-97.588 Y-54.5 I0 J1.588
G1 Y-49.5
G2 X-96 Y-47.912 I1.588 J0
G1 X-91.588
Y-46.088
X-96
G2 X-97.588 Y-44.5 I0 J1.588
G1 Y-39.5
G2 X-96 Y-37.912 I1.588 J0
G1 X-91.588
Y-36.088
X-96
G2 X-97.588 Y-34.5 I0 J1.588
G1 Y-29.5
G2 X-96 Y-27.913 I1.588 J0
G1 X-91.588
Y-26.087
X-96
G2 X-97.588 Y-24.5 I0 J1.587
G1 Y-19.5
G2 X-96 Y-17.913 I1.588 J0
G1 X-91.588
Y-16.087
X-96
G2 X-97.588 Y-14.5 I0 J1.587
G1 Y-9.5
G2 X-96 Y-7.912 I1.588 J0
G1 X-91.588
Y-6.088
X-96
G2 X-97.588 Y-4.5 I0 J1.588
G1 Y0.5
G2 X-96 Y2.088 I1.588 J0
G1 X-91.588
Y3.912
X-96
G2 X-97.588 Y5.5 I0 J1.588
G1 Y10.5
G2 X-96 Y12.087 I1.588 J0
G1 X-91.588
Y13.913
X-96
G2 X-97.588 Y15.5 I0 J1.587
G1 Y20.5
G2 X-96 Y22.087 I1.588 J0
G1 X-91.588
Y23.913
X-96
G2 X-97.588 Y25.5 I0 J1.587
G1 Y30.5
G2 X-96 Y32.088 I1.588 J0
G1 X-91.588
Y33.912
X-96
G2 X-97.588 Y35.5 I0 J1.588
G1 Y40.5
G2 X-96 Y42.088 I1.588 J0
G1 X-91.588
Y43.912
X-96
G2 X-97.588 Y45.5 I0 J1.588
G1 Y50.5
G2 X-96 Y52.088 I1.588 J0
G1 X-91.588
Y53.912
X-96
G2 X-97.588 Y55.5 I0 J1.588
G1 Y60.5
G2 X-96 Y62.088 I1.588 J0
G1 X-91.588
Y65.5
G2 X-90 Y67.088 I1.588 J0
G1 X90
G2 X91.588 Y65.5 I0 J-1.588
G1 Y62.088
X96
G2 X97.588 Y60.5 I0 J-1.588
G1 Y55.5
G2 X96 Y53.912 I-1.588 J0
G1 X91.588
Y52.088
X96
G2 X97.588 Y50.5 I0 J-1.588
G1 Y45.5
G2 X96 Y43.912 I-1.588 J0
G1 X91.588
Y42.088
X96
G2 X97.588 Y40.5 I0 J-1.588
G1 Y35.5
G2 X96 Y33.912 I-1.588 J0
G1 X91.588
Y32.088
X96
G2 X97.588 Y30.5 I0 J-1.588
G1 Y25.5
G2 X96 Y23.913 I-1.588 J0
G1 X91.588
Y22.087
X96
G2 X97.588 Y20.5 I0 J-1.587
G1 Y15.5
G2 X96 Y13.913 I-1.588 J0
G1 X91.588
Y12.087
X96
G2 X97.588 Y10.5 I0 J-1.587
G1 Y5.5
G2 X96 Y3.912 I-1.588 J0
G1 X91.588
Y2.088
X96
G2 X97.588 Y0.5 I0 J-1.588
G1 Y-4.5
G2 X96 Y-6.088 I-1.588 J0
G1 X91.588
Y-7.912
X96
G2 X97.588 Y-9.5 I0 J-1.588
G1 Y-14.5
G2 X96 Y-16.087 I-1.588 J0
G1 X91.588
Y-17.913
X96
G2 X97.588 Y-19.5 I0 J-1.587
G1 Y-24.5
G2 X96 Y-26.087 I-1.588 J0
G1 X91.588
Y-27.913
X96
G2 X97.588 Y-29.5 I0 J-1.587
G1 Y-34.5
G2 X96 Y-36.088 I-1.588 J0
G1 X91.588
Y-37.912
X96
G2 X97.588 Y-39.5 I0 J-1.588
G1 Y-44.5
G2 X96 Y-46.088 I-1.588 J0
G1 X91.588
Y-47.912
X96
G2 X97.588 Y-49.5 I0 J-1.588
G1 Y-54.5
G2 X96 Y-56.088 I-1.588 J0
G1 X91.588
Y-57.912
X96
G2 X97.588 Y-59.5 I0 J-1.588
G1 Y-65.5
G2 X96 Y-67.088 I-1.588 J0
G1 X75
G2 X73.412 Y-65.5 I0 J1.588
G1 Y-61.088
X51.588
Y-65.5
G2 X50 Y-67.088 I-1.588 J0
G1 X15
G2 X13.413 Y-65.5 I0 J1.588
G1 Y-61.088
X-13.413
Y-65.5
G2 X-15 Y-67.088 I-1.587 J0
G1 X-50
G2 X-51.588 Y-65.5 I0 J1.588
G1 Y-61.088
X-73.412
Y-65.5
G2 X-75 Y-67.088 I-1.588 J0
G1 X-96
G2 X-97.588 Y-65.5 I0 J1.588
G1 Y-59.5
G2 X-96 Y-57.912 I1.588 J0
G3 X-95.683 Y-57.595 I0 J0.317
G1 Y-57.278
G19 G3 Y-56.96 Z-4.283 J0 K0.318
G0 Z5
X-96.317
G1 Z-3.4 F70
Z-4.483
G2 Y-57.278 Z-4.8 J-0.318 K0 F400
G1 Y-57.595
G17 G3 X-96 Y-57.912 I0.317 J0
G1 X-91.588
Y-56.088
X-96
G2 X-97.588 Y-54.5 I0 J1.588
G1 Y-49.5
G2 X-96 Y-47.912 I1.588 J0
G1 X-91.588
Y-46.088
X-96
G2 X-97.588 Y-44.5 I0 J1.588
G1 Y-39.5
G2 X-96 Y-37.912 I1.588 J0
G1 X-91.588
Y-36.088
X-96
G2 X-97.588 Y-34.5 I0 J1.588
G1 Y-29.5
G2 X-96 Y-27.913 I1.588 J0
G1 X-91.588
Y-26.087
X-96
G2 X-97.588 Y-24.5 I0 J1.587
G1 Y-19.5
G2 X-96 Y-17.913 I1.588 J0
G1 X-91.588
Y-16.087
X-96
G2 X-97.588 Y-14.5 I0 J1.587
G1 Y-9.5
G2 X-96 Y-7.912 I1.588 J0
G1 X-91.588
Y-6.088
X-96
G2 X-97.588 Y-4.5 I0 J1.588
G1 Y0.5
G2 X-96 Y2.088 I1.588 J0
G1 X-91.588
Y3.912
X-96
G2 X-97.588 Y5.5 I0 J1.588
G1 Y10.5
G2 X-96 Y12.087 I1.588 J0
G1 X-91.588
Y13.913
X-96
G2 X-97.588 Y15.5 I0 J1.587
G1 Y20.5
G2 X-96 Y22.087 I1.588 J0
G1 X-91.588
Y23.913
X-96
G2 X-97.588 Y25.5 I0 J1.587
G1 Y30.5
G2 X-96 Y32.088 I1.588 J0
G1 X-91.588
Y33.912
X-96
G2 X-97.588 Y35.5 I0 J1.588
G1 Y40.5
G2 X-96 Y42.088 I1.588 J0
G1 X-91.588
Y43.912
X-96
G2 X-97.588 Y45.5 I0 J1.588
G1 Y50.5
G2 X-96 Y52.088 I1.588 J0
G1 X-91.588
Y53.912
X-96
G2 X-97.588 Y55.5 I0 J1.588
G1 Y60.5
G2 X-96 Y62.088 I1.588 J0
G1 X-91.588
Y65.5
G2 X-90 Y67.088 I1.588 J0
G1 X90
G2 X91.588 Y65.5 I0 J-1.588
G1 Y62.088
X96
G2 X97.588 Y60.5 I0 J-1.588
G1 Y55.5
G2 X96 Y53.912 I-1.588 J0
G1 X91.588
Y52.088
X96
G2 X97.588 Y50.5 I0 J-1.588
G1 Y45.5
G2 X96 Y43.912 I-1.588 J0
G1 X91.588
Y42.088
X96
G2 X97.588 Y40.5 I0 J-1.588
G1 Y35.5
G2 X96 Y33.912 I-1.588 J0
G1 X91.588
Y32.088
X96
G2 X97.588 Y30.5 I0 J-1.588
G1 Y25.5
G2 X96 Y23.913 I-1.588 J0
G1 X91.588
Y22.087
X96
G2 X97.588 Y20.5 I0 J-1.587
G1 Y15.5
G2 X96 Y13.913 I-1.588 J0
G1 X91.588
Y12.087
X96
G2 X97.588 Y10.5 I0 J-1.587
G1 Y5.5
G2 X96 Y3.912 I-1.588 J0
G1 X91.588
Y2.088
X96
G2 X97.588 Y0.5 I0 J-1.588
G1 Y-4.5
G2 X96 Y-6.088 I-1.588 J0
G1 X91.588
Y-7.912
X96
G2 X97.588 Y-9.5 I0 J-1.588
G1 Y-14.5
G2 X96 Y-16.087 I-1.588 J0
G1 X91.588
Y-17.913
X96
G2 X97.588 Y-19.5 I0 J-1.587
G1 Y-24.5
G2 X96 Y-26.087 I-1.588 J0
G1 X91.588
Y-27.913
X96
G2 X97.588 Y-29.5 I0 J-1.587
G1 Y-34.5
G2 X96 Y-36.088 I-1.588 J0
G1 X91.588
Y-37.912
X96
G2 X97.588 Y-39.5 I0 J-1.588
G1 Y-44.5
G2 X96 Y-46.088 I-1.588 J0
G1 X91.588
Y-47.912
X96
G2 X97.588 Y-49.5 I0 J-1.588
G1 Y-54.5
G2 X96 Y-56.088 I-1.588 J0
G1 X91.588
Y-57.912
X96
G2 X97.588 Y-59.5 I0 J-1.588
G1 Y-65.5
G2 X96 Y-67.088 I-1.588 J0
G1 X75
G2 X73.412 Y-65.5 I0 J1.588
G1 Y-61.088
X51.588
Y-65.5
G2 X50 Y-67.088 I-1.588 J0
G1 X15
G2 X13.413 Y-65.5 I0 J1.588
G1 Y-61.088
X-13.413
Y-65.5
G2 X-15 Y-67.088 I-1.587 J0
G1 X-50
G2 X-51.588 Y-65.5 I0 J1.588
G1 Y-61.088
X-73.412
Y-65.5
G2 X-75 Y-67.088 I-1.588 J0
G1 X-96
G2 X-97.588 Y-65.5 I0 J1.588
G1 Y-59.5
G2 X-96 Y-57.912 I1.588 J0
G3 X-95.683 Y-57.595 I0 J0.317
G1 Y-57.278
G19 G3 Y-56.96 Z-4.483 J0 K0.318
G0 Z5
X-96.317
G1 Z-3.6 F70
Z-4.683
G2 Y-57.278 Z-5 J-0.318 K0 F400
G1 Y-57.595
G17 G3 X-96 Y-57.912 I0.317 J0
G1 X-91.588
Y-56.088
X-96
G2 X-97.588 Y-54.5 I0 J1.588
G1 Y-49.5
G2 X-96 Y-47.912 I1.588 J0
G1 X-91.588
Y-46.088
X-96
G2 X-97.588 Y-44.5 I0 J1.588
G1 Y-39.5
G2 X-96 Y-37.912 I1.588 J0
G1 X-91.588
Y-36.088
X-96
G2 X-97.588 Y-34.5 I0 J1.588
G1 Y-29.5
G2 X-96 Y-27.913 I1.588 J0
G1 X-91.588
Y-26.087
X-96
G2 X-97.588 Y-24.5 I0 J1.587
G1 Y-19.5
G2 X-96 Y-17.913 I1.588 J0
G1 X-91.588
Y-16.087
X-96
G2 X-97.588 Y-14.5 I0 J1.587
G1 Y-9.5
G2 X-96 Y-7.912 I1.588 J0
G1 X-91.588
Y-6.088
X-96
G2 X-97.588 Y-4.5 I0 J1.588
G1 Y0.5
G2 X-96 Y2.088 I1.588 J0
G1 X-91.588
Y3.912
X-96
G2 X-97.588 Y5.5 I0 J1.588
G1 Y10.5
G2 X-96 Y12.087 I1.588 J0
G1 X-91.588
Y13.913
X-96
G2 X-97.588 Y15.5 I0 J1.587
G1 Y20.5
G2 X-96 Y22.087 I1.588 J0
G1 X-91.588
Y23.913
X-96
G2 X-97.588 Y25.5 I0 J1.587
G1 Y30.5
G2 X-96 Y32.088 I1.588 J0
G1 X-91.588
Y33.912
X-96
G2 X-97.588 Y35.5 I0 J1.588
G1 Y40.5
G2 X-96 Y42.088 I1.588 J0
G1 X-91.588
Y43.912
X-96
G2 X-97.588 Y45.5 I0 J1.588
G1 Y50.5
G2 X-96 Y52.088 I1.588 J0
G1 X-91.588
Y53.912
X-96
G2 X-97.588 Y55.5 I0 J1.588
G1 Y60.5
G2 X-96 Y62.088 I1.588 J0
G1 X-91.588
Y65.5
G2 X-90 Y67.088 I1.588 J0
G1 X90
G2 X91.588 Y65.5 I0 J-1.588
G1 Y62.088
X96
G2 X97.588 Y60.5 I0 J-1.588
G1 Y55.5
G2 X96 Y53.912 I-1.588 J0
G1 X91.588
Y52.088
X96
G2 X97.588 Y50.5 I0 J-1.588
G1 Y45.5
G2 X96 Y43.912 I-1.588 J0
G1 X91.588
Y42.088
X96
G2 X97.588 Y40.5 I0 J-1.588
G1 Y35.5
G2 X96 Y33.912 I-1.588 J0
G1 X91.588
Y32.088
X96
G2 X97.588 Y30.5 I0 J-1.588
G1 Y25.5
G2 X96 Y23.913 I-1.588 J0
G1 X91.588
Y22.087
X96
G2 X97.588 Y20.5 I0 J-1.587
G1 Y15.5
G2 X96 Y13.913 I-1.588 J0
G1 X91.588
Y12.087
X96
G2 X97.588 Y10.5 I0 J-1.587
G1 Y5.5
G2 X96 Y3.912 I-1.588 J0
G1 X91.588
Y2.088
X96
G2 X97.588 Y0.5 I0 J-1.588
G1 Y-4.5
G2 X96 Y-6.088 I-1.588 J0
G1 X91.588
Y-7.912
X96
G2 X97.588 Y-9.5 I0 J-1.588
G1 Y-14.5
G2 X96 Y-16.087 I-1.588 J0
G1 X91.588
Y-17.913
X96
G2 X97.588 Y-19.5 I0 J-1.587
G1 Y-24.5
G2 X96 Y-26.087 I-1.588 J0
G1 X91.588
Y-27.913
X96
G2 X97.588 Y-29.5 I0 J-1.587
G1 Y-34.5
G2 X96 Y-36.088 I-1.588 J0
G1 X91.588
Y-37.912
X96
G2 X97.588 Y-39.5 I0 J-1.588
G1 Y-44.5
G2 X96 Y-46.088 I-1.588 J0
G1 X91.588
Y-47.912
X96
G2 X97.588 Y-49.5 I0 J-1.588
G1 Y-54.5
G2 X96 Y-56.088 I-1.588 J0
G1 X91.588
Y-57.912
X96
G2 X97.588 Y-59.5 I0 J-1.588
G1 Y-65.5
G2 X96 Y-67.088 I-1.588 J0
G1 X75
G2 X73.412 Y-65.5 I0 J1.588
G1 Y-61.088
X51.588
Y-65.5
G2 X50 Y-67.088 I-1.588 J0
G1 X15
G2 X13.413 Y-65.5 I0 J1.588
G1 Y-61.088
X-13.413
Y-65.5
G2 X-15 Y-67.088 I-1.587 J0
G1 X-50
G2 X-51.588 Y-65.5 I0 J1.588
G1 Y-61.088
X-73.412
Y-65.5
G2 X-75 Y-67.088 I-1.588 J0
G1 X-96
G2 X-97.588 Y-65.5 I0 J1.588
G1 Y-59.5
G2 X-96 Y-57.912 I1.588 J0
G3 X-95.683 Y-57.595 I0 J0.317
G1 Y-57.278
G19 G3 Y-56.96 Z-4.683 J0 K0.318
G0 Z5
X-96.317
G1 Z-3.8 F70
Z-4.883
G2 Y-57.278 Z-5.2 J-0.318 K0 F400
G1 Y-57.595
G17 G3 X-96 Y-57.912 I0.317 J0
G1 X-91.588
Y-56.088
X-96
G2 X-97.588 Y-54.5 I0 J1.588
G1 Y-49.5
G2 X-96 Y-47.912 I1.588 J0
G1 X-91.588
Y-46.088
X-96
G2 X-97.588 Y-44.5 I0 J1.588
G1 Y-39.5
G2 X-96 Y-37.912 I1.588 J0
G1 X-91.588
Y-36.088
X-96
G2 X-97.588 Y-34.5 I0 J1.588
G1 Y-29.5
G2 X-96 Y-27.913 I1.588 J0
G1 X-91.588
Y-26.087
X-96
G2 X-97.588 Y-24.5 I0 J1.587
G1 Y-19.5
G2 X-96 Y-17.913 I1.588 J0
G1 X-91.588
Y-16.087
X-96
G2 X-97.588 Y-14.5 I0 J1.587
G1 Y-9.5
G2 X-96 Y-7.912 I1.588 J0
G1 X-91.588
Y-6.088
X-96
G2 X-97.588 Y-4.5 I0 J1.588
G1 Y0.5
G2 X-96 Y2.088 I1.588 J0
G1 X-91.588
Y3.912
X-96
G2 X-97.588 Y5.5 I0 J1.588
G1 Y10.5
G2 X-96 Y12.087 I1.588 J0
G1 X-91.588
Y13.913
X-96
G2 X-97.588 Y15.5 I0 J1.587
G1 Y20.5
G2 X-96 Y22.087 I1.588 J0
G1 X-91.588
Y23.913
X-96
G2 X-97.588 Y25.5 I0 J1.587
G1 Y30.5
G2 X-96 Y32.088 I1.588 J0
G1 X-91.588
Y33.912
X-96
G2 X-97.588 Y35.5 I0 J1.588
G1 Y40.5
G2 X-96 Y42.088 I1.588 J0
G1 X-91.588
Y43.912
X-96
G2 X-97.588 Y45.5 I0 J1.588
G1 Y50.5
G2 X-96 Y52.088 I1.588 J0
G1 X-91.588
Y53.912
X-96
G2 X-97.588 Y55.5 I0 J1.588
G1 Y60.5
G2 X-96 Y62.088 I1.588 J0
G1 X-91.588
Y65.5
G2 X-90 Y67.088 I1.588 J0
G1 X90
G2 X91.588 Y65.5 I0 J-1.588
G1 Y62.088
X96
G2 X97.588 Y60.5 I0 J-1.588
G1 Y55.5
G2 X96 Y53.912 I-1.588 J0
G1 X91.588
Y52.088
X96
G2 X97.588 Y50.5 I0 J-1.588
G1 Y45.5
G2 X96 Y43.912 I-1.588 J0
G1 X91.588
Y42.088
X96
G2 X97.588 Y40.5 I0 J-1.588
G1 Y35.5
G2 X96 Y33.912 I-1.588 J0
G1 X91.588
Y32.088
X96
G2 X97.588 Y30.5 I0 J-1.588
G1 Y25.5
G2 X96 Y23.913 I-1.588 J0
G1 X91.588
Y22.087
X96
G2 X97.588 Y20.5 I0 J-1.587
G1 Y15.5
G2 X96 Y13.913 I-1.588 J0
G1 X91.588
Y12.087
X96
G2 X97.588 Y10.5 I0 J-1.587
G1 Y5.5
G2 X96 Y3.912 I-1.588 J0
G1 X91.588
Y2.088
X96
G2 X97.588 Y0.5 I0 J-1.588
G1 Y-4.5
G2 X96 Y-6.088 I-1.588 J0
G1 X91.588
Y-7.912
X96
G2 X97.588 Y-9.5 I0 J-1.588
G1 Y-14.5
G2 X96 Y-16.087 I-1.588 J0
G1 X91.588
Y-17.913
X96
G2 X97.588 Y-19.5 I0 J-1.587
G1 Y-24.5
G2 X96 Y-26.087 I-1.588 J0
G1 X91.588
Y-27.913
X96
G2 X97.588 Y-29.5 I0 J-1.587
G1 Y-34.5
G2 X96 Y-36.088 I-1.588 J0
G1 X91.588
Y-37.912
X96
G2 X97.588 Y-39.5 I0 J-1.588
G1 Y-44.5
G2 X96 Y-46.088 I-1.588 J0
G1 X91.588
Y-47.912
X96
G2 X97.588 Y-49.5 I0 J-1.588
G1 Y-54.5
G2 X96 Y-56.088 I-1.588 J0
G1 X91.588
Y-57.912
X96
G2 X97.588 Y-59.5 I0 J-1.588
G1 Y-65.5
G2 X96 Y-67.088 I-1.588 J0
G1 X75
G2 X73.412 Y-65.5 I0 J1.588
G1 Y-61.088
X51.588
Y-65.5
G2 X50 Y-67.088 I-1.588 J0
G1 X15
G2 X13.413 Y-65.5 I0 J1.588
G1 Y-61.088
X-13.413
Y-65.5
G2 X-15 Y-67.088 I-1.587 J0
G1 X-50
G2 X-51.588 Y-65.5 I0 J1.588
G1 Y-61.088
X-73.412
Y-65.5
G2 X-75 Y-67.088 I-1.588 J0
G1 X-96
G2 X-97.588 Y-65.5 I0 J1.588
G1 Y-59.5
G2 X-96 Y-57.912 I1.588 J0
G3 X-95.683 Y-57.595 I0 J0.317
G1 Y-57.278
G19 G3 Y-56.96 Z-4.883 J0 K0.317
G0 Z5
X-96.317
G1 Z-4 F70
Z-5.083
G2 Y-57.278 Z-5.4 J-0.318 K0 F400
G1 Y-57.595
G17 G3 X-96 Y-57.912 I0.317 J0
G1 X-91.588
Y-56.088
X-96
G2 X-97.588 Y-54.5 I0 J1.588
G1 Y-49.5
G2 X-96 Y-47.912 I1.588 J0
G1 X-91.588
Y-46.088
X-96
G2 X-97.588 Y-44.5 I0 J1.588
G1 Y-39.5
G2 X-96 Y-37.912 I1.588 J0
G1 X-91.588
Y-36.088
X-96
G2 X-97.588 Y-34.5 I0 J1.588
G1 Y-29.5
G2 X-96 Y-27.913 I1.588 J0
G1 X-91.588
Y-26.087
X-96
G2 X-97.588 Y-24.5 I0 J1.587
G1 Y-19.5
G2 X-96 Y-17.913 I1.588 J0
G1 X-91.588
Y-16.087
X-96
G2 X-97.588 Y-14.5 I0 J1.587
G1 Y-9.5
G2 X-96 Y-7.912 I1.588 J0
G1 X-91.588
Y-6.088
X-96
G2 X-97.588 Y-4.5 I0 J1.588
G1 Y0.5
G2 X-96 Y2.088 I1.588 J0
G1 X-91.588
Y3.912
X-96
G2 X-97.588 Y5.5 I0 J1.588
G1 Y10.5
G2 X-96 Y12.087 I1.588 J0
G1 X-91.588
Y13.913
X-96
G2 X-97.588 Y15.5 I0 J1.587
G1 Y20.5
G2 X-96 Y22.087 I1.588 J0
G1 X-91.588
Y23.913
X-96
G2 X-97.588 Y25.5 I0 J1.587
G1 Y30.5
G2 X-96 Y32.088 I1.588 J0
G1 X-91.588
Y33.912
X-96
G2 X-97.588 Y35.5 I0 J1.588
G1 Y40.5
G2 X-96 Y42.088 I1.588 J0
G1 X-91.588
Y43.912
X-96
G2 X-97.588 Y45.5 I0 J1.588
G1 Y50.5
G2 X-96 Y52.088 I1.588 J0
G1 X-91.588
Y53.912
X-96
G2 X-97.588 Y55.5 I0 J1.588
G1 Y60.5
G2 X-96 Y62.088 I1.588 J0
G1 X-91.588
Y65.5
G2 X-90 Y67.088 I1.588 J0
G1 X90
G2 X91.588 Y65.5 I0 J-1.588
G1 Y62.088
X96
G2 X97.588 Y60.5 I0 J-1.588
G1 Y55.5
G2 X96 Y53.912 I-1.588 J0
G1 X91.588
Y52.088
X96
G2 X97.588 Y50.5 I0 J-1.588
G1 Y45.5
G2 X96 Y43.912 I-1.588 J0
G1 X91.588
Y42.088
X96
G2 X97.588 Y40.5 I0 J-1.588
G1 Y35.5
G2 X96 Y33.912 I-1.588 J0
G1 X91.588
Y32.088
X96
G2 X97.588 Y30.5 I0 J-1.588
G1 Y25.5
G2 X96 Y23.913 I-1.588 J0
G1 X91.588
Y22.087
X96
G2 X97.588 Y20.5 I0 J-1.587
G1 Y15.5
G2 X96 Y13.913 I-1.588 J0
G1 X91.588
Y12.087
X96
G2 X97.588 Y10.5 I0 J-1.587
G1 Y5.5
G2 X96 Y3.912 I-1.588 J0
G1 X91.588
Y2.088
X96
G2 X97.588 Y0.5 I0 J-1.588
G1 Y-4.5
G2 X96 Y-6.088 I-1.588 J0
G1 X91.588
Y-7.912
X96
G2 X97.588 Y-9.5 I0 J-1.588
G1 Y-14.5
G2 X96 Y-16.087 I-1.588 J0
G1 X91.588
Y-17.913
X96
G2 X97.588 Y-19.5 I0 J-1.587
G1 Y-24.5
G2 X96 Y-26.087 I-1.588 J0
G1 X91.588
Y-27.913
X96
G2 X97.588 Y-29.5 I0 J-1.587
G1 Y-34.5
G2 X96 Y-36.088 I-1.588 J0
G1 X91.588
Y-37.912
X96
G2 X97.588 Y-39.5 I0 J-1.588
G1 Y-44.5
G2 X96 Y-46.088 I-1.588 J0
G1 X91.588
Y-47.912
X96
G2 X97.588 Y-49.5 I0 J-1.588
G1 Y-54.5
G2 X96 Y-56.088 I-1.588 J0
G1 X91.588
Y-57.912
X96
G2 X97.588 Y-59.5 I0 J-1.588
G1 Y-65.5
G2 X96 Y-67.088 I-1.588 J0
G1 X75
G2 X73.412 Y-65.5 I0 J1.588
G1 Y-61.088
X51.588
Y-65.5
G2 X50 Y-67.088 I-1.588 J0
G1 X15
G2 X13.413 Y-65.5 I0 J1.588
G1 Y-61.088
X-13.413
Y-65.5
G2 X-15 Y-67.088 I-1.587 J0
G1 X-50
G2 X-51.588 Y-65.5 I0 J1.588
G1 Y-61.088
X-73.412
Y-65.5
G2 X-75 Y-67.088 I-1.588 J0
G1 X-96
G2 X-97.588 Y-65.5 I0 J1.588
G1 Y-59.5
G2 X-96 Y-57.912 I1.588 J0
G3 X-95.683 Y-57.595 I0 J0.317
G1 Y-57.278
G19 G3 Y-56.96 Z-5.083 J0 K0.318
G0 Z5
X-96.317
G1 Z-4.2 F70
Z-5.283
G2 Y-57.278 Z-5.6 J-0.318 K0 F400
G1 Y-57.595
G17 G3 X-96 Y-57.912 I0.317 J0
G1 X-91.588
Y-56.088
X-96
G2 X-97.588 Y-54.5 I0 J1.588
G1 Y-49.5
G2 X-96 Y-47.912 I1.588 J0
G1 X-91.588
Y-46.088
X-96
G2 X-97.588 Y-44.5 I0 J1.588
G1 Y-39.5
G2 X-96 Y-37.912 I1.588 J0
G1 X-91.588
Y-36.088
X-96
G2 X-97.588 Y-34.5 I0 J1.588
G1 Y-29.5
G2 X-96 Y-27.913 I1.588 J0
G1 X-91.588
Y-26.087
X-96
G2 X-97.588 Y-24.5 I0 J1.587
G1 Y-19.5
G2 X-96 Y-17.913 I1.588 J0
G1 X-91.588
Y-16.087
X-96
G2 X-97.588 Y-14.5 I0 J1.587
G1 Y-9.5
G2 X-96 Y-7.912 I1.588 J0
G1 X-91.588
Y-6.088
X-96
G2 X-97.588 Y-4.5 I0 J1.588
G1 Y0.5
G2 X-96 Y2.088 I1.588 J0
G1 X-91.588
Y3.912
X-96
G2 X-97.588 Y5.5 I0 J1.588
G1 Y10.5
G2 X-96 Y12.087 I1.588 J0
G1 X-91.588
Y13.913
X-96
G2 X-97.588 Y15.5 I0 J1.587
G1 Y20.5
G2 X-96 Y22.087 I1.588 J0
G1 X-91.588
Y23.913
X-96
G2 X-97.588 Y25.5 I0 J1.587
G1 Y30.5
G2 X-96 Y32.088 I1.588 J0
G1 X-91.588
Y33.912
X-96
G2 X-97.588 Y35.5 I0 J1.588
G1 Y40.5
G2 X-96 Y42.088 I1.588 J0
G1 X-91.588
Y43.912
X-96
G2 X-97.588 Y45.5 I0 J1.588
G1 Y50.5
G2 X-96 Y52.088 I1.588 J0
G1 X-91.588
Y53.912
X-96
G2 X-97.588 Y55.5 I0 J1.588
G1 Y60.5
G2 X-96 Y62.088 I1.588 J0
G1 X-91.588
Y65.5
G2 X-90 Y67.088 I1.588 J0
G1 X90
G2 X91.588 Y65.5 I0 J-1.588
G1 Y62.088
X96
G2 X97.588 Y60.5 I0 J-1.588
G1 Y55.5
G2 X96 Y53.912 I-1.588 J0
G1 X91.588
Y52.088
X96
G2 X97.588 Y50.5 I0 J-1.588
G1 Y45.5
G2 X96 Y43.912 I-1.588 J0
G1 X91.588
Y42.088
X96
G2 X97.588 Y40.5 I0 J-1.588
G1 Y35.5
G2 X96 Y33.912 I-1.588 J0
G1 X91.588
Y32.088
X96
G2 X97.588 Y30.5 I0 J-1.588
G1 Y25.5
G2 X96 Y23.913 I-1.588 J0
G1 X91.588
Y22.087
X96
G2 X97.588 Y20.5 I0 J-1.587
G1 Y15.5
G2 X96 Y13.913 I-1.588 J0
G1 X91.588
Y12.087
X96
G2 X97.588 Y10.5 I0 J-1.587
G1 Y5.5
G2 X96 Y3.912 I-1.588 J0
G1 X91.588
Y2.088
X96
G2 X97.588 Y0.5 I0 J-1.588
G1 Y-4.5
G2 X96 Y-6.088 I-1.588 J0
G1 X91.588
Y-7.912
X96
G2 X97.588 Y-9.5 I0 J-1.588
G1 Y-14.5
G2 X96 Y-16.087 I-1.588 J0
G1 X91.588
Y-17.913
X96
G2 X97.588 Y-19.5 I0 J-1.587
G1 Y-24.5
G2 X96 Y-26.087 I-1.588 J0
G1 X91.588
Y-27.913
X96
G2 X97.588 Y-29.5 I0 J-1.587
G1 Y-34.5
G2 X96 Y-36.088 I-1.588 J0
G1 X91.588
Y-37.912
X96
G2 X97.588 Y-39.5 I0 J-1.588
G1 Y-44.5
G2 X96 Y-46.088 I-1.588 J0
G1 X91.588
Y-47.912
X96
G2 X97.588 Y-49.5 I0 J-1.588
G1 Y-54.5
G2 X96 Y-56.088 I-1.588 J0
G1 X91.588
Y-57.912
X96
G2 X97.588 Y-59.5 I0 J-1.588
G1 Y-65.5
G2 X96 Y-67.088 I-1.588 J0
G1 X75
G2 X73.412 Y-65.5 I0 J1.588
G1 Y-61.088
X51.588
Y-65.5
G2 X50 Y-67.088 I-1.588 J0
G1 X15
G2 X13.413 Y-65.5 I0 J1.588
G1 Y-61.088
X-13.413
Y-65.5
G2 X-15 Y-67.088 I-1.587 J0
G1 X-50
G2 X-51.588 Y-65.5 I0 J1.588
G1 Y-61.088
X-73.412
Y-65.5
G2 X-75 Y-67.088 I-1.588 J0
G1 X-96
G2 X-97.588 Y-65.5 I0 J1.588
G1 Y-59.5
G2 X-96 Y-57.912 I1.588 J0
G3 X-95.683 Y-57.595 I0 J0.317
G1 Y-57.278
G19 G3 Y-56.96 Z-5.283 J0 K0.318
G0 Z5
X-96.317
G1 Z-4.4 F70
Z-5.483
G2 Y-57.278 Z-5.8 J-0.318 K0 F400
G1 Y-57.595
G17 G3 X-96 Y-57.912 I0.317 J0
G1 X-91.588
Y-56.088
X-96
G2 X-97.588 Y-54.5 I0 J1.588
G1 Y-49.5
G2 X-96.498 Y-47.993 I1.588 J0
G1 Z-5.706
G2 X-96 Y-47.912 I0.498 J-1.507
G1 X-91.588
Y-46.088
X-96
G2 X-97.588 Y-44.5 I0 J1.588
G1 Y-42.912
Z-5.8 F70
Y-39.5 F400
G2 X-96 Y-37.912 I1.588 J0
G1 X-91.588
Y-36.088
X-96
G2 X-97.588 Y-34.5 I0 J1.588
G1 Y-29.5
G2 X-96 Y-27.913 I1.588 J0
G1 X-91.588
Y-26.087
X-96
G2 X-97.588 Y-24.5 I0 J1.587
G1 Y-21.087
Z-5.706
Y-19.5
G2 X-96 Y-17.913 I1.588 J0
G1 X-92.088
Z-5.8 F70
X-91.588 F400
Y-16.087
X-92.088
Z-5.706
X-96
G2 X-96.498 Y-16.007 I0 J1.587
G1 Z-5.8 F70
G2 X-97.588 Y-14.5 I0.498 J1.507 F400
G1 Y-9.5
G2 X-96 Y-7.912 I1.588 J0
G1 X-91.588
Y-6.088
X-96
G2 X-97.588 Y-4.5 I0 J1.588
G1 Y0.5
G2 X-96 Y2.088 I1.588 J0
G1 X-93.493
Z-5.706
X-91.588
Y3.912
X-93.493
Z-5.8 F70
X-96 F400
G2 X-97.588 Y5.5 I0 J1.588
G1 Y10.5
G2 X-96 Y12.087 I1.588 J0
G1 X-91.588
Y13.913
X-96
G2 X-97.588 Y15.5 I0 J1.587
G1 Y20.5
G2 X-96.498 Y22.007 I1.588 J0
G1 Z-5.706
G2 X-96 Y22.087 I0.498 J-1.507
G1 X-91.588
Y23.913
X-96
G2 X-97.017 Y24.281 I0 J1.587
G1 Z-5.8 F70
G2 X-97.588 Y25.5 I1.017 J1.219 F400
G1 Y30.5
G2 X-96 Y32.088 I1.588 J0
G1 X-91.588
Y33.912
X-96
G2 X-97.588 Y35.5 I0 J1.588
G1 Y40.5
G2 X-96 Y42.088 I1.588 J0
G1 X-91.588
Y43.912
X-96
G2 X-97.588 Y45.5 I0 J1.588
G1 Y47.22
Z-5.706
Y50.5
G2 X-96 Y52.088 I1.588 J0
G1 X-94.412
Z-5.8 F70
X-91.588 F400
Y53.912
X-96
G2 X-97.588 Y55.5 I0 J1.588
G1 Y60.5
G2 X-96 Y62.088 I1.588 J0
G1 X-91.588
Y65.5
G2 X-90 Y67.088 I1.588 J0
G1 X-75.228
Z-5.706
X-68.878
Z-5.8 F70
X-24.175 F400
Z-5.706
X-17.825
Z-5.8 F70
X26.878 F400
Z-5.706
X33.228
Z-5.8 F70
X77.93 F400
Z-5.706
X84.28
Z-5.8 F70
X90 F400
G2 X91.588 Y65.5 I0 J-1.588
G1 Y62.088
X96
G2 X97.588 Y60.5 I0 J-1.588
G1 Y55.5
G2 X96 Y53.912 I-1.588 J0
G1 X91.588
Y52.088
X96
G2 X97.588 Y50.5 I0 J-1.588
G1 Y45.5
G2 X96 Y43.912 I-1.588 J0
G1 X95.017
Z-5.706
X91.588
Y42.088
X95.017
Z-5.8 F70
X96 F400
G2 X97.588 Y40.5 I0 J-1.588
G1 Y35.5
G2 X96 Y33.912 I-1.588 J0
G1 X91.588
Y32.088
X96
G2 X97.588 Y30.5 I0 J-1.588
G1 Y25.5
G2 X96 Y23.913 I-1.588 J0
G1 X93.385
Z-5.706
X91.588
Y22.087
X93.385
Z-5.8 F70
X96 F400
G2 X97.588 Y20.5 I0 J-1.587
G1 Y15.5
G2 X96 Y13.913 I-1.588 J0
G1 X91.588
Y12.087
X96
G2 X97.588 Y10.5 I0 J-1.587
G1 Y5.5
G2 X96 Y3.912 I-1.588 J0
G1 X91.588
Y2.088
X94.412
Z-5.706
X96
G2 X97.588 Y0.5 I0 J-1.588
G1 Y-3.938
Z-5.8 F70
Y-4.5 F400
G2 X96 Y-6.088 I-1.588 J0
G1 X91.588
Y-7.912
X96
G2 X97.588 Y-9.5 I0 J-1.588
G1 Y-14.5
G2 X96 Y-16.087 I-1.588 J0
G1 X91.588
Y-17.913
X96
G2 X97.588 Y-19.5 I0 J-1.587
G1 Y-24.5
G2 X96 Y-26.087 I-1.588 J0
G1 X95.859
Z-5.706
X91.588
Y-27.913
X95.859
Z-5.8 F70
X96 F400
G2 X97.588 Y-29.5 I0 J-1.587
G1 Y-34.5
G2 X96 Y-36.088 I-1.588 J0
G1 X91.588
Y-37.912
X96
G2 X97.588 Y-39.5 I0 J-1.588
G1 Y-44.5
G2 X96 Y-46.088 I-1.588 J0
G1 X93.493
Z-5.706
X91.588
Y-47.912
X93.493
Z-5.8 F70
X96 F400
G2 X97.588 Y-49.5 I0 J-1.588
G1 Y-54.5
G2 X96 Y-56.088 I-1.588 J0
G1 X91.588
Y-57.912
X96
G2 X97.588 Y-59.5 I0 J-1.588
G1 Y-65.5
G2 X96 Y-67.088 I-1.588 J0
G1 X82.754
Z-5.706
X76.404
Z-5.8 F70
X75 F400
G2 X73.412 Y-65.5 I0 J1.588
G1 Y-61.088
X51.588
Y-65.5
G2 X50 Y-67.088 I-1.588 J0
G1 X43.701
Z-5.706
X37.351
Z-5.8 F70
X15 F400
G2 X13.413 Y-65.5 I0 J1.588
G1 Y-61.088
X-1.351
Z-5.706
X-7.701
Z-5.8 F70
X-13.413 F400
Y-65.5
G2 X-15 Y-67.088 I-1.587 J0
G1 X-46.404
Z-5.706
X-50
G2 X-51.588 Y-65.5 I0 J1.588
G1 Y-63.912
Z-5.8 F70
Y-61.088 F400
X-73.412
Y-65.5
G2 X-75 Y-67.088 I-1.588 J0
G1 X-85.457
Z-5.706
X-91.807
Z-5.8 F70
X-96 F400
G2 X-97.588 Y-65.5 I0 J1.588
G1 Y-59.5
G2 X-96 Y-57.912 I1.588 J0
G3 X-95.683 Y-57.595 I0 J0.317
G1 Y-57.278
G19 G3 Y-56.96 Z-5.483 J0 K0.318
G0 Z5
X-96.317
G1 Z-4.6 F70
Z-5.683
G2 Y-57.278 Z-6 J-0.318 K0 F400
G1 Y-57.595
G17 G3 X-96 Y-57.912 I0.317 J0
G1 X-91.588
Y-56.088
X-96
G2 X-97.588 Y-54.5 I0 J1.588
G1 Y-49.5
G2 X-96.498 Y-47.993 I1.588 J0
G1 Z-5.706
G2 X-96 Y-47.912 I0.498 J-1.507
G1 X-91.588
Y-46.088
X-96
G2 X-97.588 Y-44.5 I0 J1.588
G1 Y-42.912
Z-6 F70
Y-39.5 F400
G2 X-96 Y-37.912 I1.588 J0
G1 X-91.588
Y-36.088
X-96
G2 X-97.588 Y-34.5 I0 J1.588
G1 Y-29.5
G2 X-96 Y-27.913 I1.588 J0
G1 X-91.588
Y-26.087
X-96
G2 X-97.588 Y-24.5 I0 J1.587
G1 Y-21.087
Z-5.706
Y-19.5
G2 X-96 Y-17.913 I1.588 J0
G1 X-92.088
Z-6 F70
X-91.588 F400
Y-16.087
X-92.088
Z-5.706
X-96
G2 X-96.498 Y-16.007 I0 J1.587
G1 Z-6 F70
G2 X-97.588 Y-14.5 I0.498 J1.507 F400
G1 Y-9.5
G2 X-96 Y-7.912 I1.588 J0
G1 X-91.588
Y-6.088
X-96
G2 X-97.588 Y-4.5 I0 J1.588
G1 Y0.5
G2 X-96 Y2.088 I1.588 J0
G1 X-93.493
Z-5.706
X-91.588
Y3.912
X-93.493
Z-6 F70
X-96 F400
G2 X-97.588 Y5.5 I0 J1.588
G1 Y10.5
G2 X-96 Y12.087 I1.588 J0
G1 X-91.588
Y13.913
X-96
G2 X-97.588 Y15.5 I0 J1.587
G1 Y20.5
G2 X-96.498 Y22.007 I1.588 J0
G1 Z-5.706
G2 X-96 Y22.087 I0.498 J-1.507
G1 X-91.588
Y23.913
X-96
G2 X-97.017 Y24.281 I0 J1.587
G1 Z-6 F70
G2 X-97.588 Y25.5 I1.017 J1.219 F400
G1 Y30.5
G2 X-96 Y32.088 I1.588 J0
G1 X-91.588
Y33.912
X-96
G2 X-97.588 Y35.5 I0 J1.588
G1 Y40.5
G2 X-96 Y42.088 I1.588 J0
G1 X-91.588
Y43.912
X-96
G2 X-97.588 Y45.5 I0 J1.588
G1 Y47.22
Z-5.706
Y50.5
G2 X-96 Y52.088 I1.588 J0
G1 X-94.412
Z-6 F70
X-91.588 F400
Y53.912
X-96
G2 X-97.588 Y55.5 I0 J1.588
G1 Y60.5
G2 X-96 Y62.088 I1.588 J0
G1 X-91.588
Y65.5
G2 X-90 Y67.088 I1.588 J0
G1 X-75.228
Z-5.706
X-68.878
Z-6 F70
X-24.175 F400
Z-5.706
X-17.825
Z-6 F70
X26.878 F400
Z-5.706
X33.228
Z-6 F70
X77.93 F400
Z-5.706
X84.28
Z-6 F70
X90 F400
G2 X91.588 Y65.5 I0 J-1.588
G1 Y62.088
X96
G2 X97.588 Y60.5 I0 J-1.588
G1 Y55.5
G2 X96 Y53.912 I-1.588 J0
G1 X91.588
Y52.088
X96
G2 X97.588 Y50.5 I0 J-1.588
G1 Y45.5
G2 X96 Y43.912 I-1.588 J0
G1 X95.017
Z-5.706
X91.588
Y42.088
X95.017
Z-6 F70
X96 F400
G2 X97.588 Y40.5 I0 J-1.588
G1 Y35.5
G2 X96 Y33.912 I-1.588 J0
G1 X91.588
Y32.088
X96
G2 X97.588 Y30.5 I0 J-1.588
G1 Y25.5
G2 X96 Y23.913 I-1.588 J0
G1 X93.385
Z-5.706
X91.588
Y22.087
X93.385
Z-6 F70
X96 F400
G2 X97.588 Y20.5 I0 J-1.587
G1 Y15.5
G2 X96 Y13.913 I-1.588 J0
G1 X91.588
Y12.087
X96
G2 X97.588 Y10.5 I0 J-1.587
G1 Y5.5
G2 X96 Y3.912 I-1.588 J0
G1 X91.588
Y2.088
X94.412
Z-5.706
X96
G2 X97.588 Y0.5 I0 J-1.588
G1 Y-3.938
Z-6 F70
Y-4.5 F400
G2 X96 Y-6.088 I-1.588 J0
G1 X91.588
Y-7.912
X96
G2 X97.588 Y-9.5 I0 J-1.588
G1 Y-14.5
G2 X96 Y-16.087 I-1.588 J0
G1 X91.588
Y-17.913
X96
G2 X97.588 Y-19.5 I0 J-1.587
G1 Y-24.5
G2 X96 Y-26.087 I-1.588 J0
G1 X95.859
Z-5.706
X91.588
Y-27.913
X95.859
Z-6 F70
X96 F400
G2 X97.588 Y-29.5 I0 J-1.587
G1 Y-34.5
G2 X96 Y-36.088 I-1.588 J0
G1 X91.588
Y-37.912
X96
G2 X97.588 Y-39.5 I0 J-1.588
G1 Y-44.5
G2 X96 Y-46.088 I-1.588 J0
G1 X93.493
Z-5.706
X91.588
Y-47.912
X93.493
Z-6 F70
X96 F400
G2 X97.588 Y-49.5 I0 J-1.588
G1 Y-54.5
G2 X96 Y-56.088 I-1.588 J0
G1 X91.588
Y-57.912
X96
G2 X97.588 Y-59.5 I0 J-1.588
G1 Y-65.5
G2 X96 Y-67.088 I-1.588 J0
G1 X82.754
Z-5.706
X76.404
Z-6 F70
X75 F400
G2 X73.412 Y-65.5 I0 J1.588
G1 Y-61.088
X51.588
Y-65.5
G2 X50 Y-67.088 I-1.588 J0
G1 X43.701
Z-5.706
X37.351
Z-6 F70
X15 F400
G2 X13.413 Y-65.5 I0 J1.588
G1 Y-61.088
X-1.351
Z-5.706
X-7.701
Z-6 F70
X-13.413 F400
Y-65.5
G2 X-15 Y-67.088 I-1.587 J0
G1 X-46.404
Z-5.706
X-50
G2 X-51.588 Y-65.5 I0 J1.588
G1 Y-63.912
Z-6 F70
Y-61.088 F400
X-73.412
Y-65.5
G2 X-75 Y-67.088 I-1.588 J0
G1 X-85.457
Z-5.706
X-91.807
Z-6 F70
X-96 F400
G2 X-97.588 Y-65.5 I0 J1.588
G1 Y-59.5
G2 X-96 Y-57.912 I1.588 J0
G3 X-95.683 Y-57.595 I0 J0.317
G1 Y-57.278
G19 G3 Y-56.96 Z-5.683 J0 K0.318
G0 Z5
X-96.317
G1 Z-4.8 F70
Z-5.883
G2 Y-57.278 Z-6.2 J-0.318 K0 F400
G1 Y-57.595
G17 G3 X-96 Y-57.912 I0.317 J0
G1 X-91.588
Y-56.088
X-96
G2 X-97.588 Y-54.5 I0 J1.588
G1 Y-49.5
G2 X-96.498 Y-47.993 I1.588 J0
G1 Z-5.706
G2 X-96 Y-47.912 I0.498 J-1.507
G1 X-91.588
Y-46.088
X-96
G2 X-97.588 Y-44.5 I0 J1.588
G1 Y-42.912
Z-6.2 F70
Y-39.5 F400
G2 X-96 Y-37.912 I1.588 J0
G1 X-91.588
Y-36.088
X-96
G2 X-97.588 Y-34.5 I0 J1.588
G1 Y-29.5
G2 X-96 Y-27.913 I1.588 J0
G1 X-91.588
Y-26.087
X-96
G2 X-97.588 Y-24.5 I0 J1.587
G1 Y-21.087
Z-5.706
Y-19.5
G2 X-96 Y-17.913 I1.588 J0
G1 X-92.088
Z-6.2 F70
X-91.588 F400
Y-16.087
X-92.088
Z-5.706
X-96
G2 X-96.498 Y-16.007 I0 J1.587
G1 Z-6.2 F70
G2 X-97.588 Y-14.5 I0.498 J1.507 F400
G1 Y-9.5
G2 X-96 Y-7.912 I1.588 J0
G1 X-91.588
Y-6.088
X-96
G2 X-97.588 Y-4.5 I0 J1.588
G1 Y0.5
G2 X-96 Y2.088 I1.588 J0
G1 X-93.493
Z-5.706
X-91.588
Y3.912
X-93.493
Z-6.2 F70
X-96 F400
G2 X-97.588 Y5.5 I0 J1.588
G1 Y10.5
G2 X-96 Y12.087 I1.588 J0
G1 X-91.588
Y13.913
X-96
G2 X-97.588 Y15.5 I0 J1.587
G1 Y20.5
G2 X-96.498 Y22.007 I1.588 J0
G1 Z-5.706
G2 X-96 Y22.087 I0.498 J-1.507
G1 X-91.588
Y23.913
X-96
G2 X-97.017 Y24.281 I0 J1.587
G1 Z-6.2 F70
G2 X-97.588 Y25.5 I1.017 J1.219 F400
G1 Y30.5
G2 X-96 Y32.088 I1.588 J0
G1 X-91.588
Y33.912
X-96
G2 X-97.588 Y35.5 I0 J1.588
G1 Y40.5
G2 X-96 Y42.088 I1.588 J0
G1 X-91.588
Y43.912
X-96
G2 X-97.588 Y45.5 I0 J1.588
G1 Y47.22
Z-5.706
Y50.5
G2 X-96 Y52.088 I1.588 J0
G1 X-94.412
Z-6.2 F70
X-91.588 F400
Y53.912
X-96
G2 X-97.588 Y55.5 I0 J1.588
G1 Y60.5
G2 X-96 Y62.088 I1.588 J0
G1 X-91.588
Y65.5
G2 X-90 Y67.088 I1.588 J0
G1 X-75.228
Z-5.706
X-68.878
Z-6.2 F70
X-24.175 F400
Z-5.706
X-17.825
Z-6.2 F70
X26.878 F400
Z-5.706
X33.228
Z-6.2 F70
X77.93 F400
Z-5.706
X84.28
Z-6.2 F70
X90 F400
G2 X91.588 Y65.5 I0 J-1.588
G1 Y62.088
X96
G2 X97.588 Y60.5 I0 J-1.588
G1 Y55.5
G2 X96 Y53.912 I-1.588 J0
G1 X91.588
Y52.088
X96
G2 X97.588 Y50.5 I0 J-1.588
G1 Y45.5
G2 X96 Y43.912 I-1.588 J0
G1 X95.017
Z-5.706
X91.588
Y42.088
X95.017
Z-6.2 F70
X96 F400
G2 X97.588 Y40.5 I0 J-1.588
G1 Y35.5
G2 X96 Y33.912 I-1.588 J0
G1 X91.588
Y32.088
X96
G2 X97.588 Y30.5 I0 J-1.588
G1 Y25.5
G2 X96 Y23.913 I-1.588 J0
G1 X93.385
Z-5.706
X91.588
Y22.087
X93.385
Z-6.2 F70
X96 F400
G2 X97.588 Y20.5 I0 J-1.587
G1 Y15.5
G2 X96 Y13.913 I-1.588 J0
G1 X91.588
Y12.087
X96
G2 X97.588 Y10.5 I0 J-1.587
G1 Y5.5
G2 X96 Y3.912 I-1.588 J0
G1 X91.588
Y2.088
X94.412
Z-5.706
X96
G2 X97.588 Y0.5 I0 J-1.588
G1 Y-3.938
Z-6.2 F70
Y-4.5 F400
G2 X96 Y-6.088 I-1.588 J0
G1 X91.588
Y-7.912
X96
G2 X97.588 Y-9.5 I0 J-1.588
G1 Y-14.5
G2 X96 Y-16.087 I-1.588 J0
G1 X91.588
Y-17.913
X96
G2 X97.588 Y-19.5 I0 J-1.587
G1 Y-24.5
G2 X96 Y-26.087 I-1.588 J0
G1 X95.859
Z-5.706
X91.588
Y-27.913
X95.859
Z-6.2 F70
X96 F400
G2 X97.588 Y-29.5 I0 J-1.587
G1 Y-34.5
G2 X96 Y-36.088 I-1.588 J0
G1 X91.588
Y-37.912
X96
G2 X97.588 Y-39.5 I0 J-1.588
G1 Y-44.5
G2 X96 Y-46.088 I-1.588 J0
G1 X93.493
Z-5.706
X91.588
Y-47.912
X93.493
Z-6.2 F70
X96 F400
G2 X97.588 Y-49.5 I0 J-1.588
G1 Y-54.5
G2 X96 Y-56.088 I-1.588 J0
G1 X91.588
Y-57.912
X96
G2 X97.588 Y-59.5 I0 J-1.588
G1 Y-65.5
G2 X96 Y-67.088 I-1.588 J0
G1 X82.754
Z-5.706
X76.404
Z-6.2 F70
X75 F400
G2 X73.412 Y-65.5 I0 J1.588
G1 Y-61.088
X51.588
Y-65.5
G2 X50 Y-67.088 I-1.588 J0
G1 X43.701
Z-5.706
X37.351
Z-6.2 F70
X15 F400
G2 X13.413 Y-65.5 I0 J1.588
G1 Y-61.088
X-1.351
Z-5.706
X-7.701
Z-6.2 F70
X-13.413 F400
Y-65.5
G2 X-15 Y-67.088 I-1.587 J0
G1 X-46.404
Z-5.706
X-50
G2 X-51.588 Y-65.5 I0 J1.588
G1 Y-63.912
Z-6.2 F70
Y-61.088 F400
X-73.412
Y-65.5
G2 X-75 Y-67.088 I-1.588 J0
G1 X-85.457
Z-5.706
X-91.807
Z-6.2 F70
X-96 F400
G2 X-97.588 Y-65.5 I0 J1.588
G1 Y-59.5
G2 X-96 Y-57.912 I1.588 J0
G3 X-95.683 Y-57.595 I0 J0.317
G1 Y-57.278
G19 G3 Y-56.96 Z-5.883 J0 K0.317
G0 Z5
X-96.317
G1 Z-5 F70
Z-6.083
G2 Y-57.278 Z-6.4 J-0.318 K0 F400
G1 Y-57.595
G17 G3 X-96 Y-57.912 I0.317 J0
G1 X-91.588
Y-56.088
X-96
G2 X-97.588 Y-54.5 I0 J1.588
G1 Y-49.5
G2 X-96.498 Y-47.993 I1.588 J0
G1 Z-5.706
G2 X-96 Y-47.912 I0.498 J-1.507
G1 X-91.588
Y-46.088
X-96
G2 X-97.588 Y-44.5 I0 J1.588
G1 Y-42.912
Z-6.4 F70
Y-39.5 F400
G2 X-96 Y-37.912 I1.588 J0
G1 X-91.588
Y-36.088
X-96
G2 X-97.588 Y-34.5 I0 J1.588
G1 Y-29.5
G2 X-96 Y-27.913 I1.588 J0
G1 X-91.588
Y-26.087
X-96
G2 X-97.588 Y-24.5 I0 J1.587
G1 Y-21.087
Z-5.706
Y-19.5
G2 X-96 Y-17.913 I1.588 J0
G1 X-92.088
Z-6.4 F70
X-91.588 F400
Y-16.087
X-92.088
Z-5.706
X-96
G2 X-96.498 Y-16.007 I0 J1.587
G1 Z-6.4 F70
G2 X-97.588 Y-14.5 I0.498 J1.507 F400
G1 Y-9.5
G2 X-96 Y-7.912 I1.588 J0
G1 X-91.588
Y-6.088
X-96
G2 X-97.588 Y-4.5 I0 J1.588
G1 Y0.5
G2 X-96 Y2.088 I1.588 J0
G1 X-93.493
Z-5.706
X-91.588
Y3.912
X-93.493
Z-6.4 F70
X-96 F400
G2 X-97.588 Y5.5 I0 J1.588
G1 Y10.5
G2 X-96 Y12.087 I1.588 J0
G1 X-91.588
Y13.913
X-96
G2 X-97.588 Y15.5 I0 J1.587
G1 Y20.5
G2 X-96.498 Y22.007 I1.588 J0
G1 Z-5.706
G2 X-96 Y22.087 I0.498 J-1.507
G1 X-91.588
Y23.913
X-96
G2 X-97.017 Y24.281 I0 J1.587
G1 Z-6.4 F70
G2 X-97.588 Y25.5 I1.017 J1.219 F400
G1 Y30.5
G2 X-96 Y32.088 I1.588 J0
G1 X-91.588
Y33.912
X-96
G2 X-97.588 Y35.5 I0 J1.588
G1 Y40.5
G2 X-96 Y42.088 I1.588 J0
G1 X-91.588
Y43.912
X-96
G2 X-97.588 Y45.5 I0 J1.588
G1 Y47.22
Z-5.706
Y50.5
G2 X-96 Y52.088 I1.588 J0
G1 X-94.412
Z-6.4 F70
X-91.588 F400
Y53.912
X-96
G2 X-97.588 Y55.5 I0 J1.588
G1 Y60.5
G2 X-96 Y62.088 I1.588 J0
G1 X-91.588
Y65.5
G2 X-90 Y67.088 I1.588 J0
G1 X-75.228
Z-5.706
X-68.878
Z-6.4 F70
X-24.175 F400
Z-5.706
X-17.825
Z-6.4 F70
X26.878 F400
Z-5.706
X33.228
Z-6.4 F70
X77.93 F400
Z-5.706
X84.28
Z-6.4 F70
X90 F400
G2 X91.588 Y65.5 I0 J-1.588
G1 Y62.088
X96
G2 X97.588 Y60.5 I0 J-1.588
G1 Y55.5
G2 X96 Y53.912 I-1.588 J0
G1 X91.588
Y52.088
X96
G2 X97.588 Y50.5 I0 J-1.588
G1 Y45.5
G2 X96 Y43.912 I-1.588 J0
G1 X95.017
Z-5.706
X91.588
Y42.088
X95.017
Z-6.4 F70
X96 F400
G2 X97.588 Y40.5 I0 J-1.588
G1 Y35.5
G2 X96 Y33.912 I-1.588 J0
G1 X91.588
Y32.088
X96
G2 X97.588 Y30.5 I0 J-1.588
G1 Y25.5
G2 X96 Y23.913 I-1.588 J0
G1 X93.385
Z-5.706
X91.588
Y22.087
X93.385
Z-6.4 F70
X96 F400
G2 X97.588 Y20.5 I0 J-1.587
G1 Y15.5
G2 X96 Y13.913 I-1.588 J0
G1 X91.588
Y12.087
X96
G2 X97.588 Y10.5 I0 J-1.587
G1 Y5.5
G2 X96 Y3.912 I-1.588 J0
G1 X91.588
Y2.088
X94.412
Z-5.706
X96
G2 X97.588 Y0.5 I0 J-1.588
G1 Y-3.938
Z-6.4 F70
Y-4.5 F400
G2 X96 Y-6.088 I-1.588 J0
G1 X91.588
Y-7.912
X96
G2 X97.588 Y-9.5 I0 J-1.588
G1 Y-14.5
G2 X96 Y-16.087 I-1.588 J0
G1 X91.588
Y-17.913
X96
G2 X97.588 Y-19.5 I0 J-1.587
G1 Y-24.5
G2 X96 Y-26.087 I-1.588 J0
G1 X95.859
Z-5.706
X91.588
Y-27.913
X95.859
Z-6.4 F70
X96 F400
G2 X97.588 Y-29.5 I0 J-1.587
G1 Y-34.5
G2 X96 Y-36.088 I-1.588 J0
G1 X91.588
Y-37.912
X96
G2 X97.588 Y-39.5 I0 J-1.588
G1 Y-44.5
G2 X96 Y-46.088 I-1.588 J0
G1 X93.493
Z-5.706
X91.588
Y-47.912
X93.493
Z-6.4 F70
X96 F400
G2 X97.588 Y-49.5 I0 J-1.588
G1 Y-54.5
G2 X96 Y-56.088 I-1.588 J0
G1 X91.588
Y-57.912
X96
G2 X97.588 Y-59.5 I0 J-1.588
G1 Y-65.5
G2 X96 Y-67.088 I-1.588 J0
G1 X82.754
Z-5.706
X76.404
Z-6.4 F70
X75 F400
G2 X73.412 Y-65.5 I0 J1.588
G1 Y-61.088
X51.588
Y-65.5
G2 X50 Y-67.088 I-1.588 J0
G1 X43.701
Z-5.706
X37.351
Z-6.4 F70
X15 F400
G2 X13.413 Y-65.5 I0 J1.588
G1 Y-61.088
X-1.351
Z-5.706
X-7.701
Z-6.4 F70
X-13.413 F400
Y-65.5
G2 X-15 Y-67.088 I-1.587 J0
G1 X-46.404
Z-5.706
X-50
G2 X-51.588 Y-65.5 I0 J1.588
G1 Y-63.912
Z-6.4 F70
Y-61.088 F400
X-73.412
Y-65.5
G2 X-75 Y-67.088 I-1.588 J0
G1 X-85.457
Z-5.706
X-91.807
Z-6.4 F70
X-96 F400
G2 X-97.588 Y-65.5 I0 J1.588
G1 Y-59.5
G2 X-96 Y-57.912 I1.588 J0
G3 X-95.683 Y-57.595 I0 J0.317
G1 Y-57.278
G19 G3 Y-56.96 Z-6.083 J0 K0.318
G0 Z5
X-96.317
G1 Z-5.2 F70
Z-6.183
G2 Y-57.278 Z-6.5 J-0.318 K0 F400
G1 Y-57.595
G17 G3 X-96 Y-57.912 I0.317 J0
G1 X-91.588
Y-56.088
X-96
G2 X-97.588 Y-54.5 I0 J1.588
G1 Y-49.5
G2 X-96.498 Y-47.993 I1.588 J0
G1 Z-5.706
G2 X-96 Y-47.912 I0.498 J-1.507
G1 X-91.588
Y-46.088
X-96
G2 X-97.588 Y-44.5 I0 J1.588
G1 Y-42.912
Z-6.5 F70
Y-39.5 F400
G2 X-96 Y-37.912 I1.588 J0
G1 X-91.588
Y-36.088
X-96
G2 X-97.588 Y-34.5 I0 J1.588
G1 Y-29.5
G2 X-96 Y-27.913 I1.588 J0
G1 X-91.588
Y-26.087
X-96
G2 X-97.588 Y-24.5 I0 J1.587
G1 Y-21.087
Z-5.706
Y-19.5
G2 X-96 Y-17.913 I1.588 J0
G1 X-92.088
Z-6.5 F70
X-91.588 F400
Y-16.087
X-92.088
Z-5.706
X-96
G2 X-96.498 Y-16.007 I0 J1.587
G1 Z-6.5 F70
G2 X-97.588 Y-14.5 I0.498 J1.507 F400
G1 Y-9.5
G2 X-96 Y-7.912 I1.588 J0
G1 X-91.588
Y-6.088
X-96
G2 X-97.588 Y-4.5 I0 J1.588
G1 Y0.5
G2 X-96 Y2.088 I1.588 J0
G1 X-93.493
Z-5.706
X-91.588
Y3.912
X-93.493
Z-6.5 F70
X-96 F400
G2 X-97.588 Y5.5 I0 J1.588
G1 Y10.5
G2 X-96 Y12.087 I1.588 J0
G1 X-91.588
Y13.913
X-96
G2 X-97.588 Y15.5 I0 J1.587
G1 Y20.5
G2 X-96.498 Y22.007 I1.588 J0
G1 Z-5.706
G2 X-96 Y22.087 I0.498 J-1.507
G1 X-91.588
Y23.913
X-96
G2 X-97.017 Y24.281 I0 J1.587
G1 Z-6.5 F70
G2 X-97.588 Y25.5 I1.017 J1.219 F400
G1 Y30.5
G2 X-96 Y32.088 I1.588 J0
G1 X-91.588
Y33.912
X-96
G2 X-97.588 Y35.5 I0 J1.588
G1 Y40.5
G2 X-96 Y42.088 I1.588 J0
G1 X-91.588
Y43.912
X-96
G2 X-97.588 Y45.5 I0 J1.588
G1 Y47.22
Z-5.706
Y50.5
G2 X-96 Y52.088 I1.588 J0
G1 X-94.412
Z-6.5 F70
X-91.588 F400
Y53.912
X-96
G2 X-97.588 Y55.5 I0 J1.588
G1 Y60.5
G2 X-96 Y62.088 I1.588 J0
G1 X-91.588
Y65.5
G2 X-90 Y67.088 I1.588 J0
G1 X-75.228
Z-5.706
X-68.878
Z-6.5 F70
X-24.175 F400
Z-5.706
X-17.825
Z-6.5 F70
X26.878 F400
Z-5.706
X33.228
Z-6.5 F70
X77.93 F400
Z-5.706
X84.28
Z-6.5 F70
X90 F400
G2 X91.588 Y65.5 I0 J-1.588
G1 Y62.088
X96
G2 X97.588 Y60.5 I0 J-1.588
G1 Y55.5
G2 X96 Y53.912 I-1.588 J0
G1 X91.588
Y52.088
X96
G2 X97.588 Y50.5 I0 J-1.588
G1 Y45.5
G2 X96 Y43.912 I-1.588 J0
G1 X95.017
Z-5.706
X91.588
Y42.088
X95.017
Z-6.5 F70
X96 F400
G2 X97.588 Y40.5 I0 J-1.588
G1 Y35.5
G2 X96 Y33.912 I-1.588 J0
G1 X91.588
Y32.088
X96
G2 X97.588 Y30.5 I0 J-1.588
G1 Y25.5
G2 X96 Y23.913 I-1.588 J0
G1 X93.385
Z-5.706
X91.588
Y22.087
X93.385
Z-6.5 F70
X96 F400
G2 X97.588 Y20.5 I0 J-1.587
G1 Y15.5
G2 X96 Y13.913 I-1.588 J0
G1 X91.588
Y12.087
X96
G2 X97.588 Y10.5 I0 J-1.587
G1 Y5.5
G2 X96 Y3.912 I-1.588 J0
G1 X91.588
Y2.088
X94.412
Z-5.706
X96
G2 X97.588 Y0.5 I0 J-1.588
G1 Y-3.938
Z-6.5 F70
Y-4.5 F400
G2 X96 Y-6.088 I-1.588 J0
G1 X91.588
Y-7.912
X96
G2 X97.588 Y-9.5 I0 J-1.588
G1 Y-14.5
G2 X96 Y-16.087 I-1.588 J0
G1 X91.588
Y-17.913
X96
G2 X97.588 Y-19.5 I0 J-1.587
G1 Y-24.5
G2 X96 Y-26.087 I-1.588 J0
G1 X95.859
Z-5.706
X91.588
Y-27.913
X95.859
Z-6.5 F70
X96 F400
G2 X97.588 Y-29.5 I0 J-1.587
G1 Y-34.5
G2 X96 Y-36.088 I-1.588 J0
G1 X91.588
Y-37.912
X96
G2 X97.588 Y-39.5 I0 J-1.588
G1 Y-44.5
G2 X96 Y-46.088 I-1.588 J0
G1 X93.493
Z-5.706
X91.588
Y-47.912
X93.493
Z-6.5 F70
X96 F400
G2 X97.588 Y-49.5 I0 J-1.588
G1 Y-54.5
G2 X96 Y-56.088 I-1.588 J0
G1 X91.588
Y-57.912
X96
G2 X97.588 Y-59.5 I0 J-1.588
G1 Y-65.5
G2 X96 Y-67.088 I-1.588 J0
G1 X82.754
Z-5.706
X76.404
Z-6.5 F70
X75 F400
G2 X73.412 Y-65.5 I0 J1.588
G1 Y-61.088
X51.588
Y-65.5
G2 X50 Y-67.088 I-1.588 J0
G1 X43.701
Z-5.706
X37.351
Z-6.5 F70
X15 F400
G2 X13.413 Y-65.5 I0 J1.588
G1 Y-61.088
X-1.351
Z-5.706
X-7.701
Z-6.5 F70
X-13.413 F400
Y-65.5
G2 X-15 Y-67.088 I-1.587 J0
G1 X-46.404
Z-5.706
X-50
G2 X-51.588 Y-65.5 I0 J1.588
G1 Y-63.912
Z-6.5 F70
Y-61.088 F400
X-73.412
Y-65.5
G2 X-75 Y-67.088 I-1.588 J0
G1 X-85.457
Z-5.706
X-91.807
Z-6.5 F70
X-96 F400
G2 X-97.588 Y-65.5 I0 J1.588
G1 Y-59.5
G2 X-96 Y-57.912 I1.588 J0
G3 X-95.683 Y-57.595 I0 J0.317
G1 Y-57.278
G19 G3 Y-56.96 Z-6.183 J0 K0.318
G0 Z15
G17
G28 G91 Z0
G90
G28 G91 X0 Y0
G90
M5
M30
