(bottom_plate)
(T2 D=3.175 CR=0 - ZMIN=-6 - flat end mill)
G90 G94G17
G21
G28 G91 Z0
G90

(2D Contour1)
T2
S5000 M3
G54

G0 X-98.529 Y22.604
Z15
G0 Z5
G1 Z1.4 F133.3
Z-0.08390 G94G17
G21
G28 G91 Z0
G90

(2D Contour1)
T2
S5000 M3
G54
X-98.521 Z-0.153 F400
X-98.497 Y22.605 Z-0.22
X-98.46 Y22.606 Z-0.28
X-98.409 Y22.607 Z-0.331
X-98.349 Y22.609 Z-0.369
X-98.282 Y22.611 Z-0.392
X-98.212 Y22.613 Z-0.4
X-97.894 Y22.623
G3 X-97.587 Y22.951 I-0.01 J0.317
G1 X-97.588 Y23
Y38
G2 X-96 Y39.588 I1.588 J0
G1 X-91.588
Y58
G2 X-90 Y59.588 I1.588 J0
G1 X90
G2 X91.588 Y58 I0 J-1.588
G1 Y39.373
X96
G2 X97.588 Y37.786 I0 J-1.587
G1 Y22.944
G2 X96 Y21.356 I-1.588 J0
G1 X91.588
Y14.587
X96
G2 X97.588 Y13 I0 J-1.587
G1 Y-12
G2 X96 Y-13.587 I-1.588 J0
G1 X91.588
Y-20.413
X96
G2 X97.588 Y-22 I0 J-1.587
G1 Y-37
G2 X96 Y-38.588 I-1.588 J0
G1 X91.588
Y-52
G2 X90 Y-53.588 I-1.588 J0
G1 X76.588
Y-58
G2 X75 Y-59.588 I-1.588 J0
G1 X50
G2 X48.412 Y-58 I0 J1.588
G1 Y-53.588
X16.587
Y-58
G2 X15 Y-59.588 I-1.587 J0
G1 X-15
G2 X-16.587 Y-58 I0 J1.588
G1 Y-53.588
X-48.412
Y-58
G2 X-50 Y-59.588 I-1.588 J0
G1 X-75
G2 X-76.588 Y-58 I0 J1.588
G1 Y-53.588
X-90
G2 X-91.588 Y-52 I0 J1.588
G1 Y-38.588
X-96
G2 X-97.588 Y-37 I0 J1.588
G1 Y-22
G2 X-96 Y-20.413 I1.588 J0
G1 X-91.588
Y-13.587
X-96
G2 X-97.588 Y-12 I0 J1.587
G1 Y13
G2 X-96 Y14.587 I1.588 J0
G1 X-91.588
Y21.413
X-96
G2 X-97.587 Y22.951 I0 J1.587
G3 X-97.914 Y23.258 I-0.317 J-0.01
G1 X-98.231 Y23.248
X-98.302 Y23.246 Z-0.392
X-98.369 Y23.244 Z-0.369
X-98.429 Y23.242 Z-0.331
X-98.479 Y23.24 Z-0.28
X-98.517 Y23.239 Z-0.22
X-98.541 Z-0.153
X-98.549 Y23.238 Z-0.083
G0 Z5
X-98.529 Y22.604
G1 Z1 F133.3
Z-0.483
X-98.521 Z-0.553 F400
X-98.497 Y22.605 Z-0.62
X-98.46 Y22.606 Z-0.68
X-98.409 Y22.607 Z-0.731
X-98.349 Y22.609 Z-0.769
X-98.282 Y22.611 Z-0.792
X-98.212 Y22.613 Z-0.8
X-97.894 Y22.623
G3 X-97.587 Y22.951 I-0.01 J0.317
G1 X-97.588 Y23
Y38
G2 X-96 Y39.588 I1.588 J0
G1 X-91.588
Y58
G2 X-90 Y59.588 I1.588 J0
G1 X90
G2 X91.588 Y58 I0 J-1.588
G1 Y39.373
X96
G2 X97.588 Y37.786 I0 J-1.587
G1 Y22.944
G2 X96 Y21.356 I-1.588 J0
G1 X91.588
Y14.587
X96
G2 X97.588 Y13 I0 J-1.587
G1 Y-12
G2 X96 Y-13.587 I-1.588 J0
G1 X91.588
Y-20.413
X96
G2 X97.588 Y-22 I0 J-1.587
G1 Y-37
G2 X96 Y-38.588 I-1.588 J0
G1 X91.588
Y-52
G2 X90 Y-53.588 I-1.588 J0
G1 X76.588
Y-58
G2 X75 Y-59.588 I-1.588 J0
G1 X50
G2 X48.412 Y-58 I0 J1.588
G1 Y-53.588
X16.587
Y-58
G2 X15 Y-59.588 I-1.587 J0
G1 X-15
G2 X-16.587 Y-58 I0 J1.588
G1 Y-53.588
X-48.412
Y-58
G2 X-50 Y-59.588 I-1.588 J0
G1 X-75
G2 X-76.588 Y-58 I0 J1.588
G1 Y-53.588
X-90
G2 X-91.588 Y-52 I0 J1.588
G1 Y-38.588
X-96
G2 X-97.588 Y-37 I0 J1.588
G1 Y-22
G2 X-96 Y-20.413 I1.588 J0
G1 X-91.588
Y-13.587
X-96
G2 X-97.588 Y-12 I0 J1.587
G1 Y13
G2 X-96 Y14.587 I1.588 J0
G1 X-91.588
Y21.413
X-96
G2 X-97.587 Y22.951 I0 J1.587
G3 X-97.914 Y23.258 I-0.317 J-0.01
G1 X-98.231 Y23.248
X-98.302 Y23.246 Z-0.792
X-98.369 Y23.244 Z-0.769
X-98.429 Y23.242 Z-0.731
X-98.479 Y23.24 Z-0.68
X-98.517 Y23.239 Z-0.62
X-98.541 Z-0.553
X-98.549 Y23.238 Z-0.483
G0 Z5
X-98.529 Y22.604
G1 Z0.6 F133.3
Z-0.883
X-98.521 Z-0.953 F400
X-98.497 Y22.605 Z-1.02
X-98.46 Y22.606 Z-1.08
X-98.409 Y22.607 Z-1.131
X-98.349 Y22.609 Z-1.169
X-98.282 Y22.611 Z-1.192
X-98.212 Y22.613 Z-1.2
X-97.894 Y22.623
G3 X-97.587 Y22.951 I-0.01 J0.317
G1 X-97.588 Y23
Y38
G2 X-96 Y39.588 I1.588 J0
G1 X-91.588
Y58
G2 X-90 Y59.588 I1.588 J0
G1 X90
G2 X91.588 Y58 I0 J-1.588
G1 Y39.373
X96
G2 X97.588 Y37.786 I0 J-1.587
G1 Y22.944
G2 X96 Y21.356 I-1.588 J0
G1 X91.588
Y14.587
X96
G2 X97.588 Y13 I0 J-1.587
G1 Y-12
G2 X96 Y-13.587 I-1.588 J0
G1 X91.588
Y-20.413
X96
G2 X97.588 Y-22 I0 J-1.587
G1 Y-37
G2 X96 Y-38.588 I-1.588 J0
G1 X91.588
Y-52
G2 X90 Y-53.588 I-1.588 J0
G1 X76.588
Y-58
G2 X75 Y-59.588 I-1.588 J0
G1 X50
G2 X48.412 Y-58 I0 J1.588
G1 Y-53.588
X16.587
Y-58
G2 X15 Y-59.588 I-1.587 J0
G1 X-15
G2 X-16.587 Y-58 I0 J1.588
G1 Y-53.588
X-48.412
Y-58
G2 X-50 Y-59.588 I-1.588 J0
G1 X-75
G2 X-76.588 Y-58 I0 J1.588
G1 Y-53.588
X-90
G2 X-91.588 Y-52 I0 J1.588
G1 Y-38.588
X-96
G2 X-97.588 Y-37 I0 J1.588
G1 Y-22
G2 X-96 Y-20.413 I1.588 J0
G1 X-91.588
Y-13.587
X-96
G2 X-97.588 Y-12 I0 J1.587
G1 Y13
G2 X-96 Y14.587 I1.588 J0
G1 X-91.588
Y21.413
X-96
G2 X-97.587 Y22.951 I0 J1.587
G3 X-97.914 Y23.258 I-0.317 J-0.01
G1 X-98.231 Y23.248
X-98.302 Y23.246 Z-1.192
X-98.369 Y23.244 Z-1.169
X-98.429 Y23.242 Z-1.131
X-98.479 Y23.24 Z-1.08
X-98.517 Y23.239 Z-1.02
X-98.541 Z-0.953
X-98.549 Y23.238 Z-0.883
G0 Z5
X-98.529 Y22.604
G1 Z0.2 F133.3
Z-1.283
X-98.521 Z-1.353 F400
X-98.497 Y22.605 Z-1.42
X-98.46 Y22.606 Z-1.48
X-98.409 Y22.607 Z-1.531
X-98.349 Y22.609 Z-1.569
X-98.282 Y22.611 Z-1.592
X-98.212 Y22.613 Z-1.6
X-97.894 Y22.623
G3 X-97.587 Y22.951 I-0.01 J0.317
G1 X-97.588 Y23
Y38
G2 X-96 Y39.588 I1.588 J0
G1 X-91.588
Y58
G2 X-90 Y59.588 I1.588 J0
G1 X90
G2 X91.588 Y58 I0 J-1.588
G1 Y39.373
X96
G2 X97.588 Y37.786 I0 J-1.587
G1 Y22.944
G2 X96 Y21.356 I-1.588 J0
G1 X91.588
Y14.587
X96
G2 X97.588 Y13 I0 J-1.587
G1 Y-12
G2 X96 Y-13.587 I-1.588 J0
G1 X91.588
Y-20.413
X96
G2 X97.588 Y-22 I0 J-1.587
G1 Y-37
G2 X96 Y-38.588 I-1.588 J0
G1 X91.588
Y-52
G2 X90 Y-53.588 I-1.588 J0
G1 X76.588
Y-58
G2 X75 Y-59.588 I-1.588 J0
G1 X50
G2 X48.412 Y-58 I0 J1.588
G1 Y-53.588
X16.587
Y-58
G2 X15 Y-59.588 I-1.587 J0
G1 X-15
G2 X-16.587 Y-58 I0 J1.588
G1 Y-53.588
X-48.412
Y-58
G2 X-50 Y-59.588 I-1.588 J0
G1 X-75
G2 X-76.588 Y-58 I0 J1.588
G1 Y-53.588
X-90
G2 X-91.588 Y-52 I0 J1.588
G1 Y-38.588
X-96
G2 X-97.588 Y-37 I0 J1.588
G1 Y-22
G2 X-96 Y-20.413 I1.588 J0
G1 X-91.588
Y-13.587
X-96
G2 X-97.588 Y-12 I0 J1.587
G1 Y13
G2 X-96 Y14.587 I1.588 J0
G1 X-91.588
Y21.413
X-96
G2 X-97.587 Y22.951 I0 J1.587
G3 X-97.914 Y23.258 I-0.317 J-0.01
G1 X-98.231 Y23.248
X-98.302 Y23.246 Z-1.592
X-98.369 Y23.244 Z-1.569
X-98.429 Y23.242 Z-1.531
X-98.479 Y23.24 Z-1.48
X-98.517 Y23.239 Z-1.42
X-98.541 Z-1.353
X-98.549 Y23.238 Z-1.283
G0 Z5
X-98.529 Y22.604
G1 Z-0.2 F133.3
Z-1.683
X-98.521 Z-1.753 F400
X-98.497 Y22.605 Z-1.82
X-98.46 Y22.606 Z-1.88
X-98.409 Y22.607 Z-1.931
X-98.349 Y22.609 Z-1.969
X-98.282 Y22.611 Z-1.992
X-98.212 Y22.613 Z-2
X-97.894 Y22.623
G3 X-97.587 Y22.951 I-0.01 J0.317
G1 X-97.588 Y23
Y38
G2 X-96 Y39.588 I1.588 J0
G1 X-91.588
Y58
G2 X-90 Y59.588 I1.588 J0
G1 X90
G2 X91.588 Y58 I0 J-1.588
G1 Y39.373
X96
G2 X97.588 Y37.786 I0 J-1.587
G1 Y22.944
G2 X96 Y21.356 I-1.588 J0
G1 X91.588
Y14.587
X96
G2 X97.588 Y13 I0 J-1.587
G1 Y-12
G2 X96 Y-13.587 I-1.588 J0
G1 X91.588
Y-20.413
X96
G2 X97.588 Y-22 I0 J-1.587
G1 Y-37
G2 X96 Y-38.588 I-1.588 J0
G1 X91.588
Y-52
G2 X90 Y-53.588 I-1.588 J0
G1 X76.588
Y-58
G2 X75 Y-59.588 I-1.588 J0
G1 X50
G2 X48.412 Y-58 I0 J1.588
G1 Y-53.588
X16.587
Y-58
G2 X15 Y-59.588 I-1.587 J0
G1 X-15
G2 X-16.587 Y-58 I0 J1.588
G1 Y-53.588
X-48.412
Y-58
G2 X-50 Y-59.588 I-1.588 J0
G1 X-75
G2 X-76.588 Y-58 I0 J1.588
G1 Y-53.588
X-90
G2 X-91.588 Y-52 I0 J1.588
G1 Y-38.588
X-96
G2 X-97.588 Y-37 I0 J1.588
G1 Y-22
G2 X-96 Y-20.413 I1.588 J0
G1 X-91.588
Y-13.587
X-96
G2 X-97.588 Y-12 I0 J1.587
G1 Y13
G2 X-96 Y14.587 I1.588 J0
G1 X-91.588
Y21.413
X-96
G2 X-97.587 Y22.951 I0 J1.587
G3 X-97.914 Y23.258 I-0.317 J-0.01
G1 X-98.231 Y23.248
X-98.302 Y23.246 Z-1.992
X-98.369 Y23.244 Z-1.969
X-98.429 Y23.242 Z-1.931
X-98.479 Y23.24 Z-1.88
X-98.517 Y23.239 Z-1.82
X-98.541 Z-1.753
X-98.549 Y23.238 Z-1.683
G0 Z5
X-98.529 Y22.604
G1 Z-0.6 F133.3
Z-2.083
X-98.521 Z-2.153 F400
X-98.497 Y22.605 Z-2.22
X-98.46 Y22.606 Z-2.28
X-98.409 Y22.607 Z-2.331
X-98.349 Y22.609 Z-2.369
X-98.282 Y22.611 Z-2.392
X-98.212 Y22.613 Z-2.4
X-97.894 Y22.623
G3 X-97.587 Y22.951 I-0.01 J0.317
G1 X-97.588 Y23
Y38
G2 X-96 Y39.588 I1.588 J0
G1 X-91.588
Y58
G2 X-90 Y59.588 I1.588 J0
G1 X90
G2 X91.588 Y58 I0 J-1.588
G1 Y39.373
X96
G2 X97.588 Y37.786 I0 J-1.587
G1 Y22.944
G2 X96 Y21.356 I-1.588 J0
G1 X91.588
Y14.587
X96
G2 X97.588 Y13 I0 J-1.587
G1 Y-12
G2 X96 Y-13.587 I-1.588 J0
G1 X91.588
Y-20.413
X96
G2 X97.588 Y-22 I0 J-1.587
G1 Y-37
G2 X96 Y-38.588 I-1.588 J0
G1 X91.588
Y-52
G2 X90 Y-53.588 I-1.588 J0
G1 X76.588
Y-58
G2 X75 Y-59.588 I-1.588 J0
G1 X50
G2 X48.412 Y-58 I0 J1.588
G1 Y-53.588
X16.587
Y-58
G2 X15 Y-59.588 I-1.587 J0
G1 X-15
G2 X-16.587 Y-58 I0 J1.588
G1 Y-53.588
X-48.412
Y-58
G2 X-50 Y-59.588 I-1.588 J0
G1 X-75
G2 X-76.588 Y-58 I0 J1.588
G1 Y-53.588
X-90
G2 X-91.588 Y-52 I0 J1.588
G1 Y-38.588
X-96
G2 X-97.588 Y-37 I0 J1.588
G1 Y-22
G2 X-96 Y-20.413 I1.588 J0
G1 X-91.588
Y-13.587
X-96
G2 X-97.588 Y-12 I0 J1.587
G1 Y13
G2 X-96 Y14.587 I1.588 J0
G1 X-91.588
Y21.413
X-96
G2 X-97.587 Y22.951 I0 J1.587
G3 X-97.914 Y23.258 I-0.317 J-0.01
G1 X-98.231 Y23.248
X-98.302 Y23.246 Z-2.392
X-98.369 Y23.244 Z-2.369
X-98.429 Y23.242 Z-2.331
X-98.479 Y23.24 Z-2.28
X-98.517 Y23.239 Z-2.22
X-98.541 Z-2.153
X-98.549 Y23.238 Z-2.083
G0 Z5
X-98.529 Y22.604
G1 Z-1 F133.3
Z-2.483
X-98.521 Z-2.553 F400
X-98.497 Y22.605 Z-2.62
X-98.46 Y22.606 Z-2.68
X-98.409 Y22.607 Z-2.731
X-98.349 Y22.609 Z-2.769
X-98.282 Y22.611 Z-2.792
X-98.212 Y22.613 Z-2.8
X-97.894 Y22.623
G3 X-97.587 Y22.951 I-0.01 J0.317
G1 X-97.588 Y23
Y38
G2 X-96 Y39.588 I1.588 J0
G1 X-91.588
Y58
G2 X-90 Y59.588 I1.588 J0
G1 X90
G2 X91.588 Y58 I0 J-1.588
G1 Y39.373
X96
G2 X97.588 Y37.786 I0 J-1.587
G1 Y22.944
G2 X96 Y21.356 I-1.588 J0
G1 X91.588
Y14.587
X96
G2 X97.588 Y13 I0 J-1.587
G1 Y-12
G2 X96 Y-13.587 I-1.588 J0
G1 X91.588
Y-20.413
X96
G2 X97.588 Y-22 I0 J-1.587
G1 Y-37
G2 X96 Y-38.588 I-1.588 J0
G1 X91.588
Y-52
G2 X90 Y-53.588 I-1.588 J0
G1 X76.588
Y-58
G2 X75 Y-59.588 I-1.588 J0
G1 X50
G2 X48.412 Y-58 I0 J1.588
G1 Y-53.588
X16.587
Y-58
G2 X15 Y-59.588 I-1.587 J0
G1 X-15
G2 X-16.587 Y-58 I0 J1.588
G1 Y-53.588
X-48.412
Y-58
G2 X-50 Y-59.588 I-1.588 J0
G1 X-75
G2 X-76.588 Y-58 I0 J1.588
G1 Y-53.588
X-90
G2 X-91.588 Y-52 I0 J1.588
G1 Y-38.588
X-96
G2 X-97.588 Y-37 I0 J1.588
G1 Y-22
G2 X-96 Y-20.413 I1.588 J0
G1 X-91.588
Y-13.587
X-96
G2 X-97.588 Y-12 I0 J1.587
G1 Y13
G2 X-96 Y14.587 I1.588 J0
G1 X-91.588
Y21.413
X-96
G2 X-97.587 Y22.951 I0 J1.587
G3 X-97.914 Y23.258 I-0.317 J-0.01
G1 X-98.231 Y23.248
X-98.302 Y23.246 Z-2.792
X-98.369 Y23.244 Z-2.769
X-98.429 Y23.242 Z-2.731
X-98.479 Y23.24 Z-2.68
X-98.517 Y23.239 Z-2.62
X-98.541 Z-2.553
X-98.549 Y23.238 Z-2.483
G0 Z5
X-98.529 Y22.604
G1 Z-1.4 F133.3
Z-2.883
X-98.521 Z-2.953 F400
X-98.497 Y22.605 Z-3.02
X-98.46 Y22.606 Z-3.08
X-98.409 Y22.607 Z-3.131
X-98.349 Y22.609 Z-3.169
X-98.282 Y22.611 Z-3.192
X-98.212 Y22.613 Z-3.2
X-97.894 Y22.623
G3 X-97.587 Y22.951 I-0.01 J0.317
G1 X-97.588 Y23
Y38
G2 X-96 Y39.588 I1.588 J0
G1 X-91.588
Y58
G2 X-90 Y59.588 I1.588 J0
G1 X90
G2 X91.588 Y58 I0 J-1.588
G1 Y39.373
X96
G2 X97.588 Y37.786 I0 J-1.587
G1 Y22.944
G2 X96 Y21.356 I-1.588 J0
G1 X91.588
Y14.587
X96
G2 X97.588 Y13 I0 J-1.587
G1 Y-12
G2 X96 Y-13.587 I-1.588 J0
G1 X91.588
Y-20.413
X96
G2 X97.588 Y-22 I0 J-1.587
G1 Y-37
G2 X96 Y-38.588 I-1.588 J0
G1 X91.588
Y-52
G2 X90 Y-53.588 I-1.588 J0
G1 X76.588
Y-58
G2 X75 Y-59.588 I-1.588 J0
G1 X50
G2 X48.412 Y-58 I0 J1.588
G1 Y-53.588
X16.587
Y-58
G2 X15 Y-59.588 I-1.587 J0
G1 X-15
G2 X-16.587 Y-58 I0 J1.588
G1 Y-53.588
X-48.412
Y-58
G2 X-50 Y-59.588 I-1.588 J0
G1 X-75
G2 X-76.588 Y-58 I0 J1.588
G1 Y-53.588
X-90
G2 X-91.588 Y-52 I0 J1.588
G1 Y-38.588
X-96
G2 X-97.588 Y-37 I0 J1.588
G1 Y-22
G2 X-96 Y-20.413 I1.588 J0
G1 X-91.588
Y-13.587
X-96
G2 X-97.588 Y-12 I0 J1.587
G1 Y13
G2 X-96 Y14.587 I1.588 J0
G1 X-91.588
Y21.413
X-96
G2 X-97.587 Y22.951 I0 J1.587
G3 X-97.914 Y23.258 I-0.317 J-0.01
G1 X-98.231 Y23.248
X-98.302 Y23.246 Z-3.192
X-98.369 Y23.244 Z-3.169
X-98.429 Y23.242 Z-3.131
X-98.479 Y23.24 Z-3.08
X-98.517 Y23.239 Z-3.02
X-98.541 Z-2.953
X-98.549 Y23.238 Z-2.883
G0 Z5
X-98.529 Y22.604
G1 Z-1.8 F133.3
Z-3.283
X-98.521 Z-3.353 F400
X-98.497 Y22.605 Z-3.42
X-98.46 Y22.606 Z-3.48
X-98.409 Y22.607 Z-3.531
X-98.349 Y22.609 Z-3.569
X-98.282 Y22.611 Z-3.592
X-98.212 Y22.613 Z-3.6
X-97.894 Y22.623
G3 X-97.587 Y22.951 I-0.01 J0.317
G1 X-97.588 Y23
Y38
G2 X-96 Y39.588 I1.588 J0
G1 X-91.588
Y58
G2 X-90 Y59.588 I1.588 J0
G1 X90
G2 X91.588 Y58 I0 J-1.588
G1 Y39.373
X96
G2 X97.588 Y37.786 I0 J-1.587
G1 Y22.944
G2 X96 Y21.356 I-1.588 J0
G1 X91.588
Y14.587
X96
G2 X97.588 Y13 I0 J-1.587
G1 Y-12
G2 X96 Y-13.587 I-1.588 J0
G1 X91.588
Y-20.413
X96
G2 X97.588 Y-22 I0 J-1.587
G1 Y-37
G2 X96 Y-38.588 I-1.588 J0
G1 X91.588
Y-52
G2 X90 Y-53.588 I-1.588 J0
G1 X76.588
Y-58
G2 X75 Y-59.588 I-1.588 J0
G1 X50
G2 X48.412 Y-58 I0 J1.588
G1 Y-53.588
X16.587
Y-58
G2 X15 Y-59.588 I-1.587 J0
G1 X-15
G2 X-16.587 Y-58 I0 J1.588
G1 Y-53.588
X-48.412
Y-58
G2 X-50 Y-59.588 I-1.588 J0
G1 X-75
G2 X-76.588 Y-58 I0 J1.588
G1 Y-53.588
X-90
G2 X-91.588 Y-52 I0 J1.588
G1 Y-38.588
X-96
G2 X-97.588 Y-37 I0 J1.588
G1 Y-22
G2 X-96 Y-20.413 I1.588 J0
G1 X-91.588
Y-13.587
X-96
G2 X-97.588 Y-12 I0 J1.587
G1 Y13
G2 X-96 Y14.587 I1.588 J0
G1 X-91.588
Y21.413
X-96
G2 X-97.587 Y22.951 I0 J1.587
G3 X-97.914 Y23.258 I-0.317 J-0.01
G1 X-98.231 Y23.248
X-98.302 Y23.246 Z-3.592
X-98.369 Y23.244 Z-3.569
X-98.429 Y23.242 Z-3.531
X-98.479 Y23.24 Z-3.48
X-98.517 Y23.239 Z-3.42
X-98.541 Z-3.353
X-98.549 Y23.238 Z-3.283
G0 Z5
X-98.529 Y22.604
G1 Z-2.2 F133.3
Z-3.683
X-98.521 Z-3.753 F400
X-98.497 Y22.605 Z-3.82
X-98.46 Y22.606 Z-3.88
X-98.409 Y22.607 Z-3.931
X-98.349 Y22.609 Z-3.969
X-98.282 Y22.611 Z-3.992
X-98.212 Y22.613 Z-4
X-97.894 Y22.623
G3 X-97.587 Y22.951 I-0.01 J0.317
G1 X-97.588 Y23
Y38
G2 X-96 Y39.588 I1.588 J0
G1 X-91.588
Y58
G2 X-90 Y59.588 I1.588 J0
G1 X90
G2 X91.588 Y58 I0 J-1.588
G1 Y39.373
X96
G2 X97.588 Y37.786 I0 J-1.587
G1 Y22.944
G2 X96 Y21.356 I-1.588 J0
G1 X91.588
Y14.587
X96
G2 X97.588 Y13 I0 J-1.587
G1 Y-12
G2 X96 Y-13.587 I-1.588 J0
G1 X91.588
Y-20.413
X96
G2 X97.588 Y-22 I0 J-1.587
G1 Y-37
G2 X96 Y-38.588 I-1.588 J0
G1 X91.588
Y-52
G2 X90 Y-53.588 I-1.588 J0
G1 X76.588
Y-58
G2 X75 Y-59.588 I-1.588 J0
G1 X50
G2 X48.412 Y-58 I0 J1.588
G1 Y-53.588
X16.587
Y-58
G2 X15 Y-59.588 I-1.587 J0
G1 X-15
G2 X-16.587 Y-58 I0 J1.588
G1 Y-53.588
X-48.412
Y-58
G2 X-50 Y-59.588 I-1.588 J0
G1 X-75
G2 X-76.588 Y-58 I0 J1.588
G1 Y-53.588
X-90
G2 X-91.588 Y-52 I0 J1.588
G1 Y-38.588
X-96
G2 X-97.588 Y-37 I0 J1.588
G1 Y-22
G2 X-96 Y-20.413 I1.588 J0
G1 X-91.588
Y-13.587
X-96
G2 X-97.588 Y-12 I0 J1.587
G1 Y13
G2 X-96 Y14.587 I1.588 J0
G1 X-91.588
Y21.413
X-96
G2 X-97.587 Y22.951 I0 J1.587
G3 X-97.914 Y23.258 I-0.317 J-0.01
G1 X-98.231 Y23.248
X-98.302 Y23.246 Z-3.992
X-98.369 Y23.244 Z-3.969
X-98.429 Y23.242 Z-3.931
X-98.479 Y23.24 Z-3.88
X-98.517 Y23.239 Z-3.82
X-98.541 Z-3.753
X-98.549 Y23.238 Z-3.683
G0 Z5
X-98.529 Y22.604
G1 Z-2.6 F133.3
Z-4.083
X-98.521 Z-4.153 F400
X-98.497 Y22.605 Z-4.22
X-98.46 Y22.606 Z-4.28
X-98.409 Y22.607 Z-4.331
X-98.349 Y22.609 Z-4.369
X-98.282 Y22.611 Z-4.392
X-98.212 Y22.613 Z-4.4
X-97.894 Y22.623
G3 X-97.587 Y22.951 I-0.01 J0.317
G1 X-97.588 Y23
Y38
G2 X-96 Y39.588 I1.588 J0
G1 X-91.588
Y58
G2 X-90 Y59.588 I1.588 J0
G1 X90
G2 X91.588 Y58 I0 J-1.588
G1 Y39.373
X96
G2 X97.588 Y37.786 I0 J-1.587
G1 Y22.944
G2 X96 Y21.356 I-1.588 J0
G1 X91.588
Y14.587
X96
G2 X97.588 Y13 I0 J-1.587
G1 Y-12
G2 X96 Y-13.587 I-1.588 J0
G1 X91.588
Y-20.413
X96
G2 X97.588 Y-22 I0 J-1.587
G1 Y-37
G2 X96 Y-38.588 I-1.588 J0
G1 X91.588
Y-52
G2 X90 Y-53.588 I-1.588 J0
G1 X76.588
Y-58
G2 X75 Y-59.588 I-1.588 J0
G1 X50
G2 X48.412 Y-58 I0 J1.588
G1 Y-53.588
X16.587
Y-58
G2 X15 Y-59.588 I-1.587 J0
G1 X-15
G2 X-16.587 Y-58 I0 J1.588
G1 Y-53.588
X-48.412
Y-58
G2 X-50 Y-59.588 I-1.588 J0
G1 X-75
G2 X-76.588 Y-58 I0 J1.588
G1 Y-53.588
X-90
G2 X-91.588 Y-52 I0 J1.588
G1 Y-38.588
X-96
G2 X-97.588 Y-37 I0 J1.588
G1 Y-22
G2 X-96 Y-20.413 I1.588 J0
G1 X-91.588
Y-13.587
X-96
G2 X-97.588 Y-12 I0 J1.587
G1 Y13
G2 X-96 Y14.587 I1.588 J0
G1 X-91.588
Y21.413
X-96
G2 X-97.587 Y22.951 I0 J1.587
G3 X-97.914 Y23.258 I-0.317 J-0.01
G1 X-98.231 Y23.248
X-98.302 Y23.246 Z-4.392
X-98.369 Y23.244 Z-4.369
X-98.429 Y23.242 Z-4.331
X-98.479 Y23.24 Z-4.28
X-98.517 Y23.239 Z-4.22
X-98.541 Z-4.153
X-98.549 Y23.238 Z-4.083
G0 Z5
X-98.529 Y22.604
G1 Z-3 F133.3
Z-4.483
X-98.521 Z-4.553 F400
X-98.497 Y22.605 Z-4.62
X-98.46 Y22.606 Z-4.68
X-98.409 Y22.607 Z-4.731
X-98.349 Y22.609 Z-4.769
X-98.282 Y22.611 Z-4.792
X-98.212 Y22.613 Z-4.8
X-97.894 Y22.623
G3 X-97.587 Y22.951 I-0.01 J0.317
G1 X-97.588 Y23
Y38
G2 X-96 Y39.588 I1.588 J0
G1 X-91.588
Y58
G2 X-90 Y59.588 I1.588 J0
G1 X90
G2 X91.588 Y58 I0 J-1.588
G1 Y39.373
X96
G2 X97.588 Y37.786 I0 J-1.587
G1 Y22.944
G2 X96 Y21.356 I-1.588 J0
G1 X91.588
Y14.587
X96
G2 X97.588 Y13 I0 J-1.587
G1 Y-12
G2 X96 Y-13.587 I-1.588 J0
G1 X91.588
Y-20.413
X96
G2 X97.588 Y-22 I0 J-1.587
G1 Y-37
G2 X96 Y-38.588 I-1.588 J0
G1 X91.588
Y-52
G2 X90 Y-53.588 I-1.588 J0
G1 X76.588
Y-58
G2 X75 Y-59.588 I-1.588 J0
G1 X50
G2 X48.412 Y-58 I0 J1.588
G1 Y-53.588
X16.587
Y-58
G2 X15 Y-59.588 I-1.587 J0
G1 X-15
G2 X-16.587 Y-58 I0 J1.588
G1 Y-53.588
X-48.412
Y-58
G2 X-50 Y-59.588 I-1.588 J0
G1 X-75
G2 X-76.588 Y-58 I0 J1.588
G1 Y-53.588
X-90
G2 X-91.588 Y-52 I0 J1.588
G1 Y-38.588
X-96
G2 X-97.588 Y-37 I0 J1.588
G1 Y-22
G2 X-96 Y-20.413 I1.588 J0
G1 X-91.588
Y-13.587
X-96
G2 X-97.588 Y-12 I0 J1.587
G1 Y13
G2 X-96 Y14.587 I1.588 J0
G1 X-91.588
Y21.413
X-96
G2 X-97.587 Y22.951 I0 J1.587
G3 X-97.914 Y23.258 I-0.317 J-0.01
G1 X-98.231 Y23.248
X-98.302 Y23.246 Z-4.792
X-98.369 Y23.244 Z-4.769
X-98.429 Y23.242 Z-4.731
X-98.479 Y23.24 Z-4.68
X-98.517 Y23.239 Z-4.62
X-98.541 Z-4.553
X-98.549 Y23.238 Z-4.483
G0 Z5
X-98.529 Y22.604
G1 Z-3.4 F133.3
Z-4.883
X-98.521 Z-4.953 F400
X-98.497 Y22.605 Z-5.02
X-98.46 Y22.606 Z-5.08
X-98.409 Y22.607 Z-5.131
X-98.349 Y22.609 Z-5.169
X-98.282 Y22.611 Z-5.192
X-98.212 Y22.613 Z-5.2
X-97.894 Y22.623
G3 X-97.587 Y22.951 I-0.01 J0.317
G1 X-97.588 Y23
Y38
G2 X-96 Y39.588 I1.588 J0
G1 X-91.588
Y58
G2 X-90 Y59.588 I1.588 J0
G1 X90
G2 X91.588 Y58 I0 J-1.588
G1 Y39.373
X96
G2 X97.588 Y37.786 I0 J-1.587
G1 Y22.944
G2 X96 Y21.356 I-1.588 J0
G1 X91.588
Y14.587
X96
G2 X97.588 Y13 I0 J-1.587
G1 Y-12
G2 X96 Y-13.587 I-1.588 J0
G1 X91.588
Y-20.413
X96
G2 X97.588 Y-22 I0 J-1.587
G1 Y-37
G2 X96 Y-38.588 I-1.588 J0
G1 X91.588
Y-52
G2 X90 Y-53.588 I-1.588 J0
G1 X76.588
Y-58
G2 X75 Y-59.588 I-1.588 J0
G1 X50
G2 X48.412 Y-58 I0 J1.588
G1 Y-53.588
X16.587
Y-58
G2 X15 Y-59.588 I-1.587 J0
G1 X-15
G2 X-16.587 Y-58 I0 J1.588
G1 Y-53.588
X-48.412
Y-58
G2 X-50 Y-59.588 I-1.588 J0
G1 X-75
G2 X-76.588 Y-58 I0 J1.588
G1 Y-53.588
X-90
G2 X-91.588 Y-52 I0 J1.588
G1 Y-38.588
X-96
G2 X-97.588 Y-37 I0 J1.588
G1 Y-22
G2 X-96 Y-20.413 I1.588 J0
G1 X-91.588
Y-13.587
X-96
G2 X-97.588 Y-12 I0 J1.587
G1 Y13
G2 X-96 Y14.587 I1.588 J0
G1 X-91.588
Y21.413
X-96
G2 X-97.587 Y22.951 I0 J1.587
G3 X-97.914 Y23.258 I-0.317 J-0.01
G1 X-98.231 Y23.248
X-98.302 Y23.246 Z-5.192
X-98.369 Y23.244 Z-5.169
X-98.429 Y23.242 Z-5.131
X-98.479 Y23.24 Z-5.08
X-98.517 Y23.239 Z-5.02
X-98.541 Z-4.953
X-98.549 Y23.238 Z-4.883
G0 Z5
X-98.529 Y22.604
G1 Z-3.8 F133.3
Z-5.283
X-98.521 Z-5.353 F400
X-98.497 Y22.605 Z-5.42
X-98.46 Y22.606 Z-5.48
X-98.409 Y22.607 Z-5.531
X-98.349 Y22.609 Z-5.569
X-98.282 Y22.611 Z-5.592
X-98.212 Y22.613 Z-5.6
X-97.894 Y22.623
G3 X-97.587 Y22.951 I-0.01 J0.317
G1 X-97.588 Y23
Y38
G2 X-96 Y39.588 I1.588 J0
G1 X-91.588
Y58
G2 X-90 Y59.588 I1.588 J0
G1 X90
G2 X91.588 Y58 I0 J-1.588
G1 Y39.373
X96
G2 X97.588 Y37.786 I0 J-1.587
G1 Y22.944
G2 X96 Y21.356 I-1.588 J0
G1 X91.588
Y14.587
X96
G2 X97.588 Y13 I0 J-1.587
G1 Y-12
G2 X96 Y-13.587 I-1.588 J0
G1 X91.588
Y-20.413
X96
G2 X97.588 Y-22 I0 J-1.587
G1 Y-37
G2 X96 Y-38.588 I-1.588 J0
G1 X91.588
Y-52
G2 X90 Y-53.588 I-1.588 J0
G1 X76.588
Y-58
G2 X75 Y-59.588 I-1.588 J0
G1 X50
G2 X48.412 Y-58 I0 J1.588
G1 Y-53.588
X16.587
Y-58
G2 X15 Y-59.588 I-1.587 J0
G1 X-15
G2 X-16.587 Y-58 I0 J1.588
G1 Y-53.588
X-48.412
Y-58
G2 X-50 Y-59.588 I-1.588 J0
G1 X-75
G2 X-76.588 Y-58 I0 J1.588
G1 Y-53.588
X-90
G2 X-91.588 Y-52 I0 J1.588
G1 Y-38.588
X-96
G2 X-97.588 Y-37 I0 J1.588
G1 Y-22
G2 X-96 Y-20.413 I1.588 J0
G1 X-91.588
Y-13.587
X-96
G2 X-97.588 Y-12 I0 J1.587
G1 Y13
G2 X-96 Y14.587 I1.588 J0
G1 X-91.588
Y21.413
X-96
G2 X-97.587 Y22.951 I0 J1.587
G3 X-97.914 Y23.258 I-0.317 J-0.01
G1 X-98.231 Y23.248
X-98.302 Y23.246 Z-5.592
X-98.369 Y23.244 Z-5.569
X-98.429 Y23.242 Z-5.531
X-98.479 Y23.24 Z-5.48
X-98.517 Y23.239 Z-5.42
X-98.541 Z-5.353
X-98.549 Y23.238 Z-5.283
G0 Z5
X-98.529 Y22.604
G1 Z-4.2 F133.3
Z-5.683
X-98.521 Z-5.753 F400
X-98.497 Y22.605 Z-5.82
X-98.46 Y22.606 Z-5.88
X-98.409 Y22.607 Z-5.931
X-98.349 Y22.609 Z-5.969
X-98.282 Y22.611 Z-5.992
X-98.212 Y22.613 Z-6
X-97.894 Y22.623
G3 X-97.587 Y22.951 I-0.01 J0.317
G1 X-97.588 Y23
Y38
G2 X-96 Y39.588 I1.588 J0
G1 X-91.588
Y58
G2 X-90 Y59.588 I1.588 J0
G1 X90
G2 X91.588 Y58 I0 J-1.588
G1 Y39.373
X96
G2 X97.588 Y37.786 I0 J-1.587
G1 Y22.944
G2 X96 Y21.356 I-1.588 J0
G1 X91.588
Y14.587
X96
G2 X97.588 Y13 I0 J-1.587
G1 Y-12
G2 X96 Y-13.587 I-1.588 J0
G1 X91.588
Y-20.413
X96
G2 X97.588 Y-22 I0 J-1.587
G1 Y-37
G2 X96 Y-38.588 I-1.588 J0
G1 X91.588
Y-52
G2 X90 Y-53.588 I-1.588 J0
G1 X76.588
Y-58
G2 X75 Y-59.588 I-1.588 J0
G1 X50
G2 X48.412 Y-58 I0 J1.588
G1 Y-53.588
X16.587
Y-58
G2 X15 Y-59.588 I-1.587 J0
G1 X-15
G2 X-16.587 Y-58 I0 J1.588
G1 Y-53.588
X-48.412
Y-58
G2 X-50 Y-59.588 I-1.588 J0
G1 X-75
G2 X-76.588 Y-58 I0 J1.588
G1 Y-53.588
X-90
G2 X-91.588 Y-52 I0 J1.588
G1 Y-38.588
X-96
G2 X-97.588 Y-37 I0 J1.588
G1 Y-22
G2 X-96 Y-20.413 I1.588 J0
G1 X-91.588
Y-13.587
X-96
G2 X-97.588 Y-12 I0 J1.587
G1 Y13
G2 X-96 Y14.587 I1.588 J0
G1 X-91.588
Y21.413
X-96
G2 X-97.587 Y22.951 I0 J1.587
G3 X-97.914 Y23.258 I-0.317 J-0.01
G1 X-98.231 Y23.248
X-98.302 Y23.246 Z-5.992
X-98.369 Y23.244 Z-5.969
X-98.429 Y23.242 Z-5.931
X-98.479 Y23.24 Z-5.88
X-98.517 Y23.239 Z-5.82
X-98.541 Z-5.753
X-98.549 Y23.238 Z-5.683
G0 Z15
G28 G91 Z0
G90
G28 G91 X0 Y0
G90
M5
M30
