(bottom_plate_edge)
(T2 D=3.175 CR=0 - ZMIN=-5 - flat end mill)
G90 G94
G17
G21
G28 G91 Z0
G90

(Ramp1)
T2
S5000 M3
G54
M8
G0 X-92.571 Y55.492
Z15
G0 Z1.314
G1 Z-0.683 F400
X-92.564 Y55.488 Z-0.753
X-92.543 Y55.478 Z-0.82
X-92.509 Y55.462 Z-0.88
X-92.464 Y55.44 Z-0.931
X-92.409 Y55.414 Z-0.969
X-92.349 Y55.385 Z-0.992
X-92.285 Y55.355 Z-1
X-91.856 Y55.15
G3 X-91.433 Y55.299 I0.137 J0.286
G1 X-91.432 Y55.301
X-91.427 Y55.31
X-91.409 Y55.346
X-91.379 Y55.401
X-91.347 Y55.456
X-91.326 Y55.488
X-91.276 Y55.559
X-91.221 Y55.63
X-91.204 Y55.65
X-91.149 Y55.711
X-91.087 Y55.773
X-91.062 Y55.796
X-90.991 Y55.856
X-90.919 Y55.91
X-90.912 Y55.915
X-90.777 Y56
X-90.664 Y56.057
X-90.635 Y56.071
X-90.492 Y56.125
X-90.35 Y56.164
X-90.207 Y56.189
X-90.104 Y56.2
X-90.065 Y56.202
X-89.923 Y56.203
X89.923
X90.065 Y56.202
X90.104 Y56.2
X90.207 Y56.189
X90.35 Y56.164
X90.492 Y56.125
X90.635 Y56.071
X90.664 Y56.057
X90.777 Y56
X90.912 Y55.915
X90.919 Y55.91
X90.991 Y55.856
X91.062 Y55.796
X91.087 Y55.773
X91.149 Y55.711
X91.204 Y55.65
X91.221 Y55.63
X91.276 Y55.559
X91.326 Y55.488
X91.347 Y55.456
X91.379 Y55.401
X91.409 Y55.346
X91.427 Y55.31
X91.432 Y55.301
X91.433 Y55.299
G3 X91.943 Y55.211 I0.286 J0.137
G1 X92.2 Y55.467
X92.251 Y55.516 Z-0.992
X92.298 Y55.564 Z-0.969
X92.341 Y55.606 Z-0.931
X92.377 Y55.641 Z-0.88
X92.403 Y55.668 Z-0.82
X92.42 Y55.685 Z-0.753
X92.426 Y55.69 Z-0.683
G0 Z5
X-92.631 Y56.375
Z0.316
G1 Z-1.683 F400
X-92.624 Y56.372 Z-1.753
X-92.603 Y56.362 Z-1.82
X-92.569 Y56.345 Z-1.88
X-92.523 Y56.323 Z-1.931
X-92.469 Y56.297 Z-1.969
X-92.409 Y56.268 Z-1.992
X-92.345 Y56.237 Z-2
X-91.857 Y55.999
G3 X-91.432 Y56.146 I0.139 J0.286
G1 X-91.424 Y56.164
X-91.406 Y56.2
X-91.347 Y56.302
X-91.321 Y56.342
X-91.271 Y56.413
X-91.214 Y56.484
X-91.204 Y56.496
X-91.145 Y56.561
X-91.079 Y56.626
X-91.062 Y56.642
X-90.991 Y56.702
X-90.919 Y56.756
X-90.901 Y56.769
X-90.777 Y56.846
X-90.648 Y56.911
X-90.635 Y56.917
X-90.492 Y56.971
X-90.35 Y57.01
X-90.207 Y57.035
X-90.065 Y57.048
X-89.923 Y57.049
X89.923
X90.065 Y57.048
X90.207 Y57.035
X90.35 Y57.01
X90.492 Y56.971
X90.635 Y56.917
X90.648 Y56.911
X90.777 Y56.846
X90.901 Y56.769
X90.919 Y56.756
X90.991 Y56.702
X91.062 Y56.642
X91.079 Y56.626
X91.145 Y56.561
X91.204 Y56.496
X91.214 Y56.484
X91.271 Y56.413
X91.321 Y56.342
X91.347 Y56.302
X91.406 Y56.2
X91.424 Y56.164
X91.432 Y56.146
G3 X91.943 Y56.061 I0.286 J0.139
G1 X92.234 Y56.354
X92.284 Y56.404 Z-1.992
X92.331 Y56.452 Z-1.969
X92.374 Y56.495 Z-1.931
X92.409 Y56.53 Z-1.88
X92.436 Y56.557 Z-1.82
X92.452 Y56.574 Z-1.753
X92.458 Y56.58 Z-1.683
G0 Z5
X-92.635 Y57.217
Z-0.684
G1 Z-2.682 F400
X-92.628 Y57.213 Z-2.753
X-92.607 Y57.203 Z-2.82
X-92.573 Y57.186 Z-2.88
X-92.528 Y57.165 Z-2.931
X-92.473 Y57.139 Z-2.969
X-92.413 Y57.11 Z-2.992
X-92.349 Y57.079 Z-3
X-91.857 Y56.842
G3 X-91.433 Y56.991 I0.138 J0.286
G1 X-91.429 Y57
X-91.42 Y57.018
X-91.402 Y57.053
X-91.347 Y57.149
X-91.316 Y57.195
X-91.265 Y57.267
X-91.208 Y57.338
X-91.204 Y57.342
X-91.141 Y57.411
X-91.07 Y57.48
X-91.062 Y57.488
X-90.991 Y57.548
X-90.919 Y57.602
X-90.89 Y57.622
X-90.777 Y57.692
X-90.635 Y57.763
X-90.631 Y57.765
X-90.492 Y57.817
X-90.35 Y57.856
X-90.207 Y57.882
X-90.065 Y57.894
X-89.923 Y57.895
X89.923
X90.065 Y57.894
X90.207 Y57.882
X90.35 Y57.856
X90.492 Y57.817
X90.631 Y57.765
X90.635 Y57.763
X90.777 Y57.692
X90.89 Y57.622
X90.919 Y57.602
X90.991 Y57.548
X91.062 Y57.488
X91.07 Y57.48
X91.141 Y57.411
X91.204 Y57.342
X91.208 Y57.338
X91.265 Y57.267
X91.316 Y57.195
X91.347 Y57.149
X91.402 Y57.053
X91.42 Y57.018
X91.429 Y57
X91.433 Y56.991
G3 X91.943 Y56.904 I0.286 J0.138
G1 X92.238 Y57.197
X92.288 Y57.247 Z-2.992
X92.336 Y57.295 Z-2.969
X92.378 Y57.337 Z-2.931
X92.414 Y57.373 Z-2.88
X92.441 Y57.399 Z-2.82
X92.457 Y57.416 Z-2.753
X92.463 Y57.422 Z-2.682
G0 Z5
X-92.635 Y58.063
Z-1.684
G1 Z-3.682 F400
X-92.628 Y58.06 Z-3.753
X-92.607 Y58.05 Z-3.82
X-92.572 Y58.033 Z-3.88
X-92.527 Y58.012 Z-3.931
X-92.473 Y57.985 Z-3.969
X-92.412 Y57.956 Z-3.992
X-92.349 Y57.926 Z-4
X-91.856 Y57.689
G3 X-91.433 Y57.838 I0.137 J0.286
G1 X-91.429 Y57.845
X-91.425 Y57.853
X-91.416 Y57.871
X-91.398 Y57.907
X-91.347 Y57.995
X-91.311 Y58.049
X-91.261 Y58.119
X-91.204 Y58.188
X-91.202 Y58.191
X-91.136 Y58.263
X-91.062 Y58.334
X-90.991 Y58.394
X-90.919 Y58.448
X-90.879 Y58.476
X-90.777 Y58.538
X-90.635 Y58.609
X-90.613 Y58.618
X-90.492 Y58.663
X-90.35 Y58.702
X-90.207 Y58.728
X-90.065 Y58.74
X-89.923 Y58.741
X89.923
X90.065 Y58.74
X90.207 Y58.728
X90.35 Y58.702
X90.492 Y58.663
X90.613 Y58.618
X90.635 Y58.609
X90.777 Y58.538
X90.879 Y58.476
X90.919 Y58.448
X90.991 Y58.394
X91.062 Y58.334
X91.136 Y58.263
X91.202 Y58.191
X91.204 Y58.188
X91.261 Y58.119
X91.311 Y58.049
X91.347 Y57.995
X91.398 Y57.907
X91.416 Y57.871
X91.425 Y57.853
X91.429 Y57.845
X91.433 Y57.838
G3 X91.943 Y57.75 I0.286 J0.137
G1 X92.238 Y58.044
X92.288 Y58.094 Z-3.992
X92.335 Y58.141 Z-3.969
X92.378 Y58.184 Z-3.931
X92.414 Y58.219 Z-3.88
X92.44 Y58.246 Z-3.82
X92.457 Y58.263 Z-3.753
X92.463 Y58.268 Z-3.682
G0 Z5
X-92.637 Y58.909
Z-2.686
G1 Z-4.682 F400
X-92.63 Y58.905 Z-4.753
X-92.609 Y58.895 Z-4.82
X-92.575 Y58.879 Z-4.88
X-92.529 Y58.857 Z-4.931
X-92.475 Y58.831 Z-4.969
X-92.415 Y58.801 Z-4.992
X-92.351 Y58.771 Z-5
X-91.856 Y58.532
G3 X-91.432 Y58.68 I0.138 J0.286
G1 X-91.428 Y58.689
X-91.391 Y58.761
X-91.347 Y58.837
X-91.303 Y58.903
X-91.256 Y58.967
X-91.204 Y59.03
X-91.191 Y59.045
X-91.13 Y59.111
X-91.062 Y59.176
X-91.049 Y59.187
X-90.984 Y59.241
X-90.919 Y59.29
X-90.861 Y59.33
X-90.777 Y59.38
X-90.635 Y59.451
X-90.584 Y59.472
X-90.492 Y59.505
X-90.35 Y59.544
X-90.207 Y59.57
X-90.065 Y59.582
X-89.923 Y59.583
X89.923
X90.065 Y59.582
X90.207 Y59.57
X90.35 Y59.544
X90.492 Y59.505
X90.584 Y59.472
X90.635 Y59.451
X90.777 Y59.38
X90.861 Y59.33
X90.919 Y59.29
X90.984 Y59.241
X91.049 Y59.187
X91.062 Y59.176
X91.13 Y59.111
X91.191 Y59.045
X91.204 Y59.03
X91.256 Y58.967
X91.303 Y58.903
X91.347 Y58.837
X91.391 Y58.761
X91.428 Y58.689
X91.432 Y58.68
G3 X91.943 Y58.594 I0.286 J0.138
G1 X92.239 Y58.89
X92.289 Y58.94 Z-4.992
X92.337 Y58.987 Z-4.969
X92.379 Y59.03 Z-4.931
X92.415 Y59.065 Z-4.88
X92.442 Y59.092 Z-4.82
X92.458 Y59.109 Z-4.753
X92.464 Y59.114 Z-4.682
G0 Z15
M9
G28 G91 Z0
G90
G28 G91 X0 Y0
G90
M5
M30
