(bottom_plate_cutout)
(T2 D=3.175 CR=0 - ZMIN=-7 - flat end mill)
G90 G94
G17
G21
G28 G91 Z0
G90

(2D Contour2)
T2
S5000 M3
G54
M8
G0 X-98.529 Y22.604
Z15
G0 Z5
G1 Z1 F100
Z-6.683
X-98.521 Z-6.753 F300
X-98.497 Y22.605 Z-6.82
X-98.46 Y22.606 Z-6.88
X-98.409 Y22.607 Z-6.931
X-98.349 Y22.609 Z-6.969
X-98.282 Y22.611 Z-6.992
X-98.212 Y22.613 Z-7
X-97.894 Y22.623
G3 X-97.587 Y22.951 I-0.01 J0.317
G1 X-97.588 Y23
Y38
G2 X-96 Y39.588 I1.588 J0
G1 X-93.493
Z-6.206
X-91.588
Y44.098
Z-7 F100
Y58 F300
G2 X-90 Y59.588 I1.588 J0
G1 X-57.329
Z-6.206
X-50.979
Z-7 F100
X-4.406 F300
Z-6.206
X1.944
Z-7 F100
X48.517 F300
Z-6.206
X54.867
Z-7 F100
X90 F300
G2 X91.588 Y58 I0 J-1.588
G1 Y46.56
Z-6.206
Y40.21
Z-7 F100
Y39.373 F300
X96
G2 X97.588 Y37.786 I0 J-1.587
G1 Y22.944
G2 X96 Y21.356 I-1.588 J0
G1 X91.588
Y14.587
X96
G2 X97.588 Y13 I0 J-1.587
G1 Y11.637
Z-6.206
Y5.287
Z-7 F100
Y-12 F300
G2 X96 Y-13.587 I-1.588 J0
G1 X91.588
Y-20.413
X96
G2 X97.588 Y-22 I0 J-1.587
G1 Y-29.287
Z-6.206
Y-35.637
Z-7 F100
Y-37 F300
G2 X96 Y-38.588 I-1.588 J0
G1 X91.588
Y-52
G2 X90 Y-53.588 I-1.588 J0
G1 X76.588
Y-58
G2 X75 Y-59.588 I-1.588 J0
G1 X71.79
Z-6.206
X65.44
Z-7 F100
X50 F300
G2 X48.412 Y-58 I0 J1.588
G1 Y-53.588
X24.867
Z-6.206
X18.517
Z-7 F100
X16.587 F300
Y-58
G2 X15 Y-59.588 I-1.587 J0
G1 X-15
G2 X-16.587 Y-58 I0 J1.588
G1 Y-55.493
Z-6.206
Y-53.588
X-22.406
Z-7 F100
X-48.412 F300
Y-58
G2 X-50 Y-59.588 I-1.588 J0
G1 X-62.979
Z-6.206
X-69.329
Z-7 F100
X-75 F300
G2 X-76.588 Y-58 I0 J1.588
G1 Y-53.588
X-90
G2 X-91.588 Y-52 I0 J1.588
G1 Y-38.588
X-96
G2 X-97.146 Y-38.098 I0 J1.588
G1 Z-6.206
G2 X-97.588 Y-37 I1.146 J1.098
G1 Y-31.748
Z-7 F100
Y-22 F300
G2 X-96 Y-20.413 I1.588 J0
G1 X-91.588
Y-13.587
X-96
G2 X-97.588 Y-12 I0 J1.587
G1 Y2.825
Z-6.206
Y9.175
Z-7 F100
Y13 F300
G2 X-96 Y14.587 I1.588 J0
G1 X-91.588
Y21.413
X-96
G2 X-97.587 Y22.951 I0 J1.587
G3 X-97.914 Y23.258 I-0.317 J-0.01
G1 X-98.231 Y23.248
X-98.302 Y23.246 Z-6.992
X-98.369 Y23.244 Z-6.969
X-98.429 Y23.242 Z-6.931
X-98.479 Y23.24 Z-6.88
X-98.517 Y23.239 Z-6.82
X-98.541 Z-6.753
X-98.549 Y23.238 Z-6.683
G0 Z15
M9
G28 G91 Z0
G90
G28 G91 X0 Y0
G90
M5
M30
