(front_panel_holes)
(T2 D=3.175 CR=0 - ZMIN=-6.5 - flat end mill)
G90 G94
G17
G21
G28 G91 Z0
G90

(2D Contour3)
T2
S5000 M3
G54
G0 X17.46 Y7.182
Z15
G0 Z5
G1 Z1.2 F70
Z0.117
G18 G2 X17.778 Z-0.2 I0.318 K0 F400
G1 X18.095
G17 G3 X18.413 Y7.5 I0 J0.318
G1 Y58.412
X-83.412
Y-68.412
X18.413
Y7.5
G3 X18.095 Y7.818 I-0.318 J0
G1 X17.778
G18 G3 X17.46 Z0.117 I0 K0.318
G0 Z5
Y7.182
G1 Z1 F70
Z-0.083
G2 X17.778 Z-0.4 I0.318 K0 F400
G1 X18.095
G17 G3 X18.413 Y7.5 I0 J0.318
G1 Y58.412
X-83.412
Y-68.412
X18.413
Y7.5
G3 X18.095 Y7.818 I-0.318 J0
G1 X17.778
G18 G3 X17.46 Z-0.083 I0 K0.318
G0 Z5
Y7.182
G1 Z0.8 F70
Z-0.283
G2 X17.778 Z-0.6 I0.318 K0 F400
G1 X18.095
G17 G3 X18.413 Y7.5 I0 J0.318
G1 Y58.412
X-83.412
Y-68.412
X18.413
Y7.5
G3 X18.095 Y7.818 I-0.318 J0
G1 X17.778
G18 G3 X17.46 Z-0.283 I0 K0.318
G0 Z5
Y7.182
G1 Z0.6 F70
Z-0.483
G2 X17.778 Z-0.8 I0.318 K0 F400
G1 X18.095
G17 G3 X18.413 Y7.5 I0 J0.318
G1 Y58.412
X-83.412
Y-68.412
X18.413
Y7.5
G3 X18.095 Y7.818 I-0.318 J0
G1 X17.778
G18 G3 X17.46 Z-0.483 I0 K0.318
G0 Z5
Y7.182
G1 Z0.4 F70
Z-0.683
G2 X17.778 Z-1 I0.318 K0 F400
G1 X18.095
G17 G3 X18.413 Y7.5 I0 J0.318
G1 Y58.412
X-83.412
Y-68.412
X18.413
Y7.5
G3 X18.095 Y7.818 I-0.318 J0
G1 X17.778
G18 G3 X17.46 Z-0.683 I0 K0.317
G0 Z5
Y7.182
G1 Z0.2 F70
Z-0.883
G2 X17.778 Z-1.2 I0.318 K0 F400
G1 X18.095
G17 G3 X18.413 Y7.5 I0 J0.318
G1 Y58.412
X-83.412
Y-68.412
X18.413
Y7.5
G3 X18.095 Y7.818 I-0.318 J0
G1 X17.778
G18 G3 X17.46 Z-0.883 I0 K0.318
G0 Z5
Y7.182
G1 Z0 F70
Z-1.083
G2 X17.778 Z-1.4 I0.318 K0 F400
G1 X18.095
G17 G3 X18.413 Y7.5 I0 J0.318
G1 Y58.412
X-83.412
Y-68.412
X18.413
Y7.5
G3 X18.095 Y7.818 I-0.318 J0
G1 X17.778
G18 G3 X17.46 Z-1.083 I0 K0.317
G0 Z5
Y7.182
G1 Z-0.2 F70
Z-1.283
G2 X17.778 Z-1.6 I0.318 K0 F400
G1 X18.095
G17 G3 X18.413 Y7.5 I0 J0.318
G1 Y58.412
X-83.412
Y-68.412
X18.413
Y7.5
G3 X18.095 Y7.818 I-0.318 J0
G1 X17.778
G18 G3 X17.46 Z-1.283 I0 K0.317
G0 Z5
Y7.182
G1 Z-0.4 F70
Z-1.483
G2 X17.778 Z-1.8 I0.318 K0 F400
G1 X18.095
G17 G3 X18.413 Y7.5 I0 J0.318
G1 Y58.412
X-83.412
Y-68.412
X18.413
Y7.5
G3 X18.095 Y7.818 I-0.318 J0
G1 X17.778
G18 G3 X17.46 Z-1.483 I0 K0.317
G0 Z5
Y7.182
G1 Z-0.6 F70
Z-1.683
G2 X17.778 Z-2 I0.318 K0 F400
G1 X18.095
G17 G3 X18.413 Y7.5 I0 J0.318
G1 Y58.412
X-83.412
Y-68.412
X18.413
Y7.5
G3 X18.095 Y7.818 I-0.318 J0
G1 X17.778
G18 G3 X17.46 Z-1.683 I0 K0.317
G0 Z5
Y7.182
G1 Z-0.8 F70
Z-1.883
G2 X17.778 Z-2.2 I0.318 K0 F400
G1 X18.095
G17 G3 X18.413 Y7.5 I0 J0.318
G1 Y58.412
X-83.412
Y-68.412
X18.413
Y7.5
G3 X18.095 Y7.818 I-0.318 J0
G1 X17.778
G18 G3 X17.46 Z-1.883 I0 K0.317
G0 Z5
Y7.182
G1 Z-1 F70
Z-2.083
G2 X17.778 Z-2.4 I0.318 K0 F400
G1 X18.095
G17 G3 X18.413 Y7.5 I0 J0.318
G1 Y58.412
X-83.412
Y-68.412
X18.413
Y7.5
G3 X18.095 Y7.818 I-0.318 J0
G1 X17.778
G18 G3 X17.46 Z-2.083 I0 K0.318
G0 Z5
Y7.182
G1 Z-1.2 F70
Z-2.283
G2 X17.778 Z-2.6 I0.318 K0 F400
G1 X18.095
G17 G3 X18.413 Y7.5 I0 J0.318
G1 Y58.412
X-83.412
Y-68.412
X18.413
Y7.5
G3 X18.095 Y7.818 I-0.318 J0
G1 X17.778
G18 G3 X17.46 Z-2.283 I0 K0.317
G0 Z5
Y7.182
G1 Z-1.4 F70
Z-2.483
G2 X17.778 Z-2.8 I0.318 K0 F400
G1 X18.095
G17 G3 X18.413 Y7.5 I0 J0.318
G1 Y58.412
X-83.412
Y-68.412
X18.413
Y7.5
G3 X18.095 Y7.818 I-0.318 J0
G1 X17.778
G18 G3 X17.46 Z-2.483 I0 K0.317
G0 Z5
Y7.182
G1 Z-1.6 F70
Z-2.683
G2 X17.778 Z-3 I0.318 K0 F400
G1 X18.095
G17 G3 X18.413 Y7.5 I0 J0.318
G1 Y58.412
X-83.412
Y-68.412
X18.413
Y7.5
G3 X18.095 Y7.818 I-0.318 J0
G1 X17.778
G18 G3 X17.46 Z-2.683 I0 K0.318
G0 Z5
Y7.182
G1 Z-1.8 F70
Z-2.883
G2 X17.778 Z-3.2 I0.318 K0 F400
G1 X18.095
G17 G3 X18.413 Y7.5 I0 J0.318
G1 Y58.412
X-83.412
Y-68.412
X18.413
Y7.5
G3 X18.095 Y7.818 I-0.318 J0
G1 X17.778
G18 G3 X17.46 Z-2.883 I0 K0.318
G0 Z5
Y7.182
G1 Z-2 F70
Z-3.083
G2 X17.778 Z-3.4 I0.318 K0 F400
G1 X18.095
G17 G3 X18.413 Y7.5 I0 J0.318
G1 Y58.412
X-83.412
Y-68.412
X18.413
Y7.5
G3 X18.095 Y7.818 I-0.318 J0
G1 X17.778
G18 G3 X17.46 Z-3.083 I0 K0.318
G0 Z5
Y7.182
G1 Z-2.2 F70
Z-3.283
G2 X17.778 Z-3.6 I0.318 K0 F400
G1 X18.095
G17 G3 X18.413 Y7.5 I0 J0.318
G1 Y58.412
X-83.412
Y-68.412
X18.413
Y7.5
G3 X18.095 Y7.818 I-0.318 J0
G1 X17.778
G18 G3 X17.46 Z-3.283 I0 K0.317
G0 Z5
Y7.182
G1 Z-2.4 F70
Z-3.483
G2 X17.778 Z-3.8 I0.318 K0 F400
G1 X18.095
G17 G3 X18.413 Y7.5 I0 J0.318
G1 Y58.412
X-83.412
Y-68.412
X18.413
Y7.5
G3 X18.095 Y7.818 I-0.318 J0
G1 X17.778
G18 G3 X17.46 Z-3.483 I0 K0.317
G0 Z5
Y7.182
G1 Z-2.6 F70
Z-3.683
G2 X17.778 Z-4 I0.318 K0 F400
G1 X18.095
G17 G3 X18.413 Y7.5 I0 J0.318
G1 Y58.412
X-83.412
Y-68.412
X18.413
Y7.5
G3 X18.095 Y7.818 I-0.318 J0
G1 X17.778
G18 G3 X17.46 Z-3.683 I0 K0.318
G0 Z5
Y7.182
G1 Z-2.8 F70
Z-3.883
G2 X17.778 Z-4.2 I0.318 K0 F400
G1 X18.095
G17 G3 X18.413 Y7.5 I0 J0.318
G1 Y58.412
X-83.412
Y-68.412
X18.413
Y7.5
G3 X18.095 Y7.818 I-0.318 J0
G1 X17.778
G18 G3 X17.46 Z-3.883 I0 K0.317
G0 Z5
Y7.182
G1 Z-3 F70
Z-4.083
G2 X17.778 Z-4.4 I0.318 K0 F400
G1 X18.095
G17 G3 X18.413 Y7.5 I0 J0.318
G1 Y58.412
X-83.412
Y-68.412
X18.413
Y7.5
G3 X18.095 Y7.818 I-0.318 J0
G1 X17.778
G18 G3 X17.46 Z-4.083 I0 K0.318
G0 Z5
Y7.182
G1 Z-3.2 F70
Z-4.283
G2 X17.778 Z-4.6 I0.318 K0 F400
G1 X18.095
G17 G3 X18.413 Y7.5 I0 J0.318
G1 Y58.412
X-83.412
Y-68.412
X18.413
Y7.5
G3 X18.095 Y7.818 I-0.318 J0
G1 X17.778
G18 G3 X17.46 Z-4.283 I0 K0.318
G0 Z5
Y7.182
G1 Z-3.4 F70
Z-4.483
G2 X17.778 Z-4.8 I0.318 K0 F400
G1 X18.095
G17 G3 X18.413 Y7.5 I0 J0.318
G1 Y58.412
X-83.412
Y-68.412
X18.413
Y7.5
G3 X18.095 Y7.818 I-0.318 J0
G1 X17.778
G18 G3 X17.46 Z-4.483 I0 K0.318
G0 Z5
Y7.182
G1 Z-3.6 F70
Z-4.683
G2 X17.778 Z-5 I0.318 K0 F400
G1 X18.095
G17 G3 X18.413 Y7.5 I0 J0.318
G1 Y58.412
X-83.412
Y-68.412
X18.413
Y7.5
G3 X18.095 Y7.818 I-0.318 J0
G1 X17.778
G18 G3 X17.46 Z-4.683 I0 K0.318
G0 Z5
Y7.182
G1 Z-3.8 F70
Z-4.883
G2 X17.778 Z-5.2 I0.318 K0 F400
G1 X18.095
G17 G3 X18.413 Y7.5 I0 J0.318
G1 Y58.412
X-83.412
Y-68.412
X18.413
Y7.5
G3 X18.095 Y7.818 I-0.318 J0
G1 X17.778
G18 G3 X17.46 Z-4.883 I0 K0.317
G0 Z5
Y7.182
G1 Z-4 F70
Z-5.083
G2 X17.778 Z-5.4 I0.318 K0 F400
G1 X18.095
G17 G3 X18.413 Y7.5 I0 J0.318
G1 Y58.412
X-83.412
Y-68.412
X18.413
Y7.5
G3 X18.095 Y7.818 I-0.318 J0
G1 X17.778
G18 G3 X17.46 Z-5.083 I0 K0.318
G0 Z5
Y7.182
G1 Z-4.2 F70
Z-5.283
G2 X17.778 Z-5.6 I0.318 K0 F400
G1 X18.095
G17 G3 X18.413 Y7.5 I0 J0.318
G1 Y58.412
X-83.412
Y-68.412
X18.413
Y7.5
G3 X18.095 Y7.818 I-0.318 J0
G1 X17.778
G18 G3 X17.46 Z-5.283 I0 K0.318
G0 Z5
Y7.182
G1 Z-4.4 F70
Z-5.483
G2 X17.778 Z-5.8 I0.318 K0 F400
G1 X18.095
G17 G3 X18.413 Y7.5 I0 J0.318
G1 Y58.412
X-83.412
Y-68.412
X18.413
Y7.5
G3 X18.095 Y7.818 I-0.318 J0
G1 X17.778
G18 G3 X17.46 Z-5.483 I0 K0.318
G0 Z5
Y7.182
G1 Z-4.6 F70
Z-5.683
G2 X17.778 Z-6 I0.318 K0 F400
G1 X18.095
G17 G3 X18.413 Y7.5 I0 J0.318
G1 Y58.412
X-83.412
Y-68.412
X18.413
Y7.5
G3 X18.095 Y7.818 I-0.318 J0
G1 X17.778
G18 G3 X17.46 Z-5.683 I0 K0.318
G0 Z5
Y7.182
G1 Z-4.8 F70
Z-5.883
G2 X17.778 Z-6.2 I0.318 K0 F400
G1 X18.095
G17 G3 X18.413 Y7.5 I0 J0.318
G1 Y58.412
X-83.412
Y-68.412
X18.413
Y7.5
G3 X18.095 Y7.818 I-0.318 J0
G1 X17.778
G18 G3 X17.46 Z-5.883 I0 K0.317
G0 Z5
Y7.182
G1 Z-5 F70
Z-6.083
G2 X17.778 Z-6.4 I0.318 K0 F400
G1 X18.095
G17 G3 X18.413 Y7.5 I0 J0.318
G1 Y58.412
X-83.412
Y-68.412
X18.413
Y7.5
G3 X18.095 Y7.818 I-0.318 J0
G1 X17.778
G18 G3 X17.46 Z-6.083 I0 K0.318
G0 Z5
Y7.182
G1 Z-5.2 F70
Z-6.183
G2 X17.778 Z-6.5 I0.318 K0 F400
G1 X18.095
G17 G3 X18.413 Y7.5 I0 J0.318
G1 Y58.412
X-83.412
Y-68.412
X18.413
Y7.5
G3 X18.095 Y7.818 I-0.318 J0
G1 X17.778
G18 G3 X17.46 Z-6.183 I0 K0.318
G0 Z5
X77.46 Y42.182
G1 Z1.2 F70
Z0.117
G2 X77.777 Z-0.2 I0.317 K0 F400
G1 X78.095
G17 G3 X78.412 Y42.5 I0 J0.318
G1 Y58.412
X46.588
Y11.587
X78.412
Y42.5
G3 X78.095 Y42.818 I-0.317 J0
G1 X77.777
G18 G3 X77.46 Z0.117 I0 K0.318
G0 Z5
Y42.182
G1 Z1 F70
Z-0.083
G2 X77.777 Z-0.4 I0.317 K0 F400
G1 X78.095
G17 G3 X78.412 Y42.5 I0 J0.318
G1 Y58.412
X46.588
Y11.587
X78.412
Y42.5
G3 X78.095 Y42.818 I-0.317 J0
G1 X77.777
G18 G3 X77.46 Z-0.083 I0 K0.318
G0 Z5
Y42.182
G1 Z0.8 F70
Z-0.283
G2 X77.777 Z-0.6 I0.317 K0 F400
G1 X78.095
G17 G3 X78.412 Y42.5 I0 J0.318
G1 Y58.412
X46.588
Y11.587
X78.412
Y42.5
G3 X78.095 Y42.818 I-0.317 J0
G1 X77.777
G18 G3 X77.46 Z-0.283 I0 K0.318
G0 Z5
Y42.182
G1 Z0.6 F70
Z-0.483
G2 X77.777 Z-0.8 I0.317 K0 F400
G1 X78.095
G17 G3 X78.412 Y42.5 I0 J0.318
G1 Y58.412
X46.588
Y11.587
X78.412
Y42.5
G3 X78.095 Y42.818 I-0.317 J0
G1 X77.777
G18 G3 X77.46 Z-0.483 I0 K0.318
G0 Z5
Y42.182
G1 Z0.4 F70
Z-0.683
G2 X77.777 Z-1 I0.317 K0 F400
G1 X78.095
G17 G3 X78.412 Y42.5 I0 J0.318
G1 Y58.412
X46.588
Y11.587
X78.412
Y42.5
G3 X78.095 Y42.818 I-0.317 J0
G1 X77.777
G18 G3 X77.46 Z-0.683 I0 K0.317
G0 Z5
Y42.182
G1 Z0.2 F70
Z-0.883
G2 X77.777 Z-1.2 I0.317 K0 F400
G1 X78.095
G17 G3 X78.412 Y42.5 I0 J0.318
G1 Y58.412
X46.588
Y11.587
X78.412
Y42.5
G3 X78.095 Y42.818 I-0.317 J0
G1 X77.777
G18 G3 X77.46 Z-0.883 I0 K0.318
G0 Z5
Y42.182
G1 Z0 F70
Z-1.083
G2 X77.777 Z-1.4 I0.317 K0 F400
G1 X78.095
G17 G3 X78.412 Y42.5 I0 J0.318
G1 Y58.412
X46.588
Y11.587
X78.412
Y42.5
G3 X78.095 Y42.818 I-0.317 J0
G1 X77.777
G18 G3 X77.46 Z-1.083 I0 K0.317
G0 Z5
Y42.182
G1 Z-0.2 F70
Z-1.283
G2 X77.777 Z-1.6 I0.317 K0 F400
G1 X78.095
G17 G3 X78.412 Y42.5 I0 J0.318
G1 Y58.412
X46.588
Y11.587
X78.412
Y42.5
G3 X78.095 Y42.818 I-0.317 J0
G1 X77.777
G18 G3 X77.46 Z-1.283 I0 K0.317
G0 Z5
Y42.182
G1 Z-0.4 F70
Z-1.483
G2 X77.777 Z-1.8 I0.317 K0 F400
G1 X78.095
G17 G3 X78.412 Y42.5 I0 J0.318
G1 Y58.412
X46.588
Y11.587
X78.412
Y42.5
G3 X78.095 Y42.818 I-0.317 J0
G1 X77.777
G18 G3 X77.46 Z-1.483 I0 K0.317
G0 Z5
Y42.182
G1 Z-0.6 F70
Z-1.683
G2 X77.777 Z-2 I0.317 K0 F400
G1 X78.095
G17 G3 X78.412 Y42.5 I0 J0.318
G1 Y58.412
X46.588
Y11.587
X78.412
Y42.5
G3 X78.095 Y42.818 I-0.317 J0
G1 X77.777
G18 G3 X77.46 Z-1.683 I0 K0.317
G0 Z5
Y42.182
G1 Z-0.8 F70
Z-1.883
G2 X77.777 Z-2.2 I0.317 K0 F400
G1 X78.095
G17 G3 X78.412 Y42.5 I0 J0.318
G1 Y58.412
X46.588
Y11.587
X78.412
Y42.5
G3 X78.095 Y42.818 I-0.317 J0
G1 X77.777
G18 G3 X77.46 Z-1.883 I0 K0.317
G0 Z5
Y42.182
G1 Z-1 F70
Z-2.083
G2 X77.777 Z-2.4 I0.317 K0 F400
G1 X78.095
G17 G3 X78.412 Y42.5 I0 J0.318
G1 Y58.412
X46.588
Y11.587
X78.412
Y42.5
G3 X78.095 Y42.818 I-0.317 J0
G1 X77.777
G18 G3 X77.46 Z-2.083 I0 K0.318
G0 Z5
Y42.182
G1 Z-1.2 F70
Z-2.283
G2 X77.777 Z-2.6 I0.317 K0 F400
G1 X78.095
G17 G3 X78.412 Y42.5 I0 J0.318
G1 Y58.412
X46.588
Y11.587
X78.412
Y42.5
G3 X78.095 Y42.818 I-0.317 J0
G1 X77.777
G18 G3 X77.46 Z-2.283 I0 K0.317
G0 Z5
Y42.182
G1 Z-1.4 F70
Z-2.483
G2 X77.777 Z-2.8 I0.317 K0 F400
G1 X78.095
G17 G3 X78.412 Y42.5 I0 J0.318
G1 Y58.412
X46.588
Y11.587
X78.412
Y42.5
G3 X78.095 Y42.818 I-0.317 J0
G1 X77.777
G18 G3 X77.46 Z-2.483 I0 K0.317
G0 Z5
Y42.182
G1 Z-1.6 F70
Z-2.683
G2 X77.777 Z-3 I0.317 K0 F400
G1 X78.095
G17 G3 X78.412 Y42.5 I0 J0.318
G1 Y58.412
X46.588
Y11.587
X78.412
Y42.5
G3 X78.095 Y42.818 I-0.317 J0
G1 X77.777
G18 G3 X77.46 Z-2.683 I0 K0.318
G0 Z5
Y42.182
G1 Z-1.8 F70
Z-2.883
G2 X77.777 Z-3.2 I0.317 K0 F400
G1 X78.095
G17 G3 X78.412 Y42.5 I0 J0.318
G1 Y58.412
X46.588
Y11.587
X78.412
Y42.5
G3 X78.095 Y42.818 I-0.317 J0
G1 X77.777
G18 G3 X77.46 Z-2.883 I0 K0.318
G0 Z5
Y42.182
G1 Z-2 F70
Z-3.083
G2 X77.777 Z-3.4 I0.317 K0 F400
G1 X78.095
G17 G3 X78.412 Y42.5 I0 J0.318
G1 Y58.412
X46.588
Y11.587
X78.412
Y42.5
G3 X78.095 Y42.818 I-0.317 J0
G1 X77.777
G18 G3 X77.46 Z-3.083 I0 K0.318
G0 Z5
Y42.182
G1 Z-2.2 F70
Z-3.283
G2 X77.777 Z-3.6 I0.317 K0 F400
G1 X78.095
G17 G3 X78.412 Y42.5 I0 J0.318
G1 Y58.412
X46.588
Y11.587
X78.412
Y42.5
G3 X78.095 Y42.818 I-0.317 J0
G1 X77.777
G18 G3 X77.46 Z-3.283 I0 K0.317
G0 Z5
Y42.182
G1 Z-2.4 F70
Z-3.483
G2 X77.777 Z-3.8 I0.317 K0 F400
G1 X78.095
G17 G3 X78.412 Y42.5 I0 J0.318
G1 Y58.412
X46.588
Y11.587
X78.412
Y42.5
G3 X78.095 Y42.818 I-0.317 J0
G1 X77.777
G18 G3 X77.46 Z-3.483 I0 K0.317
G0 Z5
Y42.182
G1 Z-2.6 F70
Z-3.683
G2 X77.777 Z-4 I0.317 K0 F400
G1 X78.095
G17 G3 X78.412 Y42.5 I0 J0.318
G1 Y58.412
X46.588
Y11.587
X78.412
Y42.5
G3 X78.095 Y42.818 I-0.317 J0
G1 X77.777
G18 G3 X77.46 Z-3.683 I0 K0.318
G0 Z5
Y42.182
G1 Z-2.8 F70
Z-3.883
G2 X77.777 Z-4.2 I0.317 K0 F400
G1 X78.095
G17 G3 X78.412 Y42.5 I0 J0.318
G1 Y58.412
X46.588
Y11.587
X78.412
Y42.5
G3 X78.095 Y42.818 I-0.317 J0
G1 X77.777
G18 G3 X77.46 Z-3.883 I0 K0.317
G0 Z5
Y42.182
G1 Z-3 F70
Z-4.083
G2 X77.777 Z-4.4 I0.317 K0 F400
G1 X78.095
G17 G3 X78.412 Y42.5 I0 J0.318
G1 Y58.412
X46.588
Y11.587
X78.412
Y42.5
G3 X78.095 Y42.818 I-0.317 J0
G1 X77.777
G18 G3 X77.46 Z-4.083 I0 K0.318
G0 Z5
Y42.182
G1 Z-3.2 F70
Z-4.283
G2 X77.777 Z-4.6 I0.317 K0 F400
G1 X78.095
G17 G3 X78.412 Y42.5 I0 J0.318
G1 Y58.412
X46.588
Y11.587
X78.412
Y42.5
G3 X78.095 Y42.818 I-0.317 J0
G1 X77.777
G18 G3 X77.46 Z-4.283 I0 K0.318
G0 Z5
Y42.182
G1 Z-3.4 F70
Z-4.483
G2 X77.777 Z-4.8 I0.317 K0 F400
G1 X78.095
G17 G3 X78.412 Y42.5 I0 J0.318
G1 Y58.412
X46.588
Y11.587
X78.412
Y42.5
G3 X78.095 Y42.818 I-0.317 J0
G1 X77.777
G18 G3 X77.46 Z-4.483 I0 K0.318
G0 Z5
Y42.182
G1 Z-3.6 F70
Z-4.683
G2 X77.777 Z-5 I0.317 K0 F400
G1 X78.095
G17 G3 X78.412 Y42.5 I0 J0.318
G1 Y58.412
X46.588
Y11.587
X78.412
Y42.5
G3 X78.095 Y42.818 I-0.317 J0
G1 X77.777
G18 G3 X77.46 Z-4.683 I0 K0.318
G0 Z5
Y42.182
G1 Z-3.8 F70
Z-4.883
G2 X77.777 Z-5.2 I0.317 K0 F400
G1 X78.095
G17 G3 X78.412 Y42.5 I0 J0.318
G1 Y58.412
X46.588
Y11.587
X78.412
Y42.5
G3 X78.095 Y42.818 I-0.317 J0
G1 X77.777
G18 G3 X77.46 Z-4.883 I0 K0.317
G0 Z5
Y42.182
G1 Z-4 F70
Z-5.083
G2 X77.777 Z-5.4 I0.317 K0 F400
G1 X78.095
G17 G3 X78.412 Y42.5 I0 J0.318
G1 Y58.412
X46.588
Y11.587
X78.412
Y42.5
G3 X78.095 Y42.818 I-0.317 J0
G1 X77.777
G18 G3 X77.46 Z-5.083 I0 K0.318
G0 Z5
Y42.182
G1 Z-4.2 F70
Z-5.283
G2 X77.777 Z-5.6 I0.317 K0 F400
G1 X78.095
G17 G3 X78.412 Y42.5 I0 J0.318
G1 Y58.412
X46.588
Y11.587
X78.412
Y42.5
G3 X78.095 Y42.818 I-0.317 J0
G1 X77.777
G18 G3 X77.46 Z-5.283 I0 K0.318
G0 Z5
Y42.182
G1 Z-4.4 F70
Z-5.483
G2 X77.777 Z-5.8 I0.317 K0 F400
G1 X78.095
G17 G3 X78.412 Y42.5 I0 J0.318
G1 Y58.412
X46.588
Y11.587
X78.412
Y42.5
G3 X78.095 Y42.818 I-0.317 J0
G1 X77.777
G18 G3 X77.46 Z-5.483 I0 K0.318
G0 Z5
Y42.182
G1 Z-4.6 F70
Z-5.683
G2 X77.777 Z-6 I0.317 K0 F400
G1 X78.095
G17 G3 X78.412 Y42.5 I0 J0.318
G1 Y58.412
X46.588
Y11.587
X78.412
Y42.5
G3 X78.095 Y42.818 I-0.317 J0
G1 X77.777
G18 G3 X77.46 Z-5.683 I0 K0.318
G0 Z5
Y42.182
G1 Z-4.8 F70
Z-5.883
G2 X77.777 Z-6.2 I0.317 K0 F400
G1 X78.095
G17 G3 X78.412 Y42.5 I0 J0.318
G1 Y58.412
X46.588
Y11.587
X78.412
Y42.5
G3 X78.095 Y42.818 I-0.317 J0
G1 X77.777
G18 G3 X77.46 Z-5.883 I0 K0.317
G0 Z5
Y42.182
G1 Z-5 F70
Z-6.083
G2 X77.777 Z-6.4 I0.317 K0 F400
G1 X78.095
G17 G3 X78.412 Y42.5 I0 J0.318
G1 Y58.412
X46.588
Y11.587
X78.412
Y42.5
G3 X78.095 Y42.818 I-0.317 J0
G1 X77.777
G18 G3 X77.46 Z-6.083 I0 K0.318
G0 Z5
Y42.182
G1 Z-5.2 F70
Z-6.183
G2 X77.777 Z-6.5 I0.317 K0 F400
G1 X78.095
G17 G3 X78.412 Y42.5 I0 J0.318
G1 Y58.412
X46.588
Y11.587
X78.412
Y42.5
G3 X78.095 Y42.818 I-0.317 J0
G1 X77.777
G18 G3 X77.46 Z-6.183 I0 K0.318
G0 Z5
X72.46 Y-30.317
G1 Z1.2 F70
Z0.117
G2 X72.777 Z-0.2 I0.317 K0 F400
G1 X73.095
G17 G3 X73.412 Y-30 I0 J0.317
G1 Y-21.587
X56.588
Y-38.412
X73.412
Y-30
G3 X73.095 Y-29.683 I-0.317 J0
G1 X72.777
G18 G3 X72.46 Z0.117 I0 K0.318
G0 Z5
Y-30.317
G1 Z1 F70
Z-0.083
G2 X72.777 Z-0.4 I0.317 K0 F400
G1 X73.095
G17 G3 X73.412 Y-30 I0 J0.317
G1 Y-21.587
X56.588
Y-38.412
X73.412
Y-30
G3 X73.095 Y-29.683 I-0.317 J0
G1 X72.777
G18 G3 X72.46 Z-0.083 I0 K0.318
G0 Z5
Y-30.317
G1 Z0.8 F70
Z-0.283
G2 X72.777 Z-0.6 I0.317 K0 F400
G1 X73.095
G17 G3 X73.412 Y-30 I0 J0.317
G1 Y-21.587
X56.588
Y-38.412
X73.412
Y-30
G3 X73.095 Y-29.683 I-0.317 J0
G1 X72.777
G18 G3 X72.46 Z-0.283 I0 K0.318
G0 Z5
Y-30.317
G1 Z0.6 F70
Z-0.483
G2 X72.777 Z-0.8 I0.317 K0 F400
G1 X73.095
G17 G3 X73.412 Y-30 I0 J0.317
G1 Y-21.587
X56.588
Y-38.412
X73.412
Y-30
G3 X73.095 Y-29.683 I-0.317 J0
G1 X72.777
G18 G3 X72.46 Z-0.483 I0 K0.318
G0 Z5
Y-30.317
G1 Z0.4 F70
Z-0.683
G2 X72.777 Z-1 I0.317 K0 F400
G1 X73.095
G17 G3 X73.412 Y-30 I0 J0.317
G1 Y-21.587
X56.588
Y-38.412
X73.412
Y-30
G3 X73.095 Y-29.683 I-0.317 J0
G1 X72.777
G18 G3 X72.46 Z-0.683 I0 K0.317
G0 Z5
Y-30.317
G1 Z0.2 F70
Z-0.883
G2 X72.777 Z-1.2 I0.317 K0 F400
G1 X73.095
G17 G3 X73.412 Y-30 I0 J0.317
G1 Y-21.587
X56.588
Y-38.412
X73.412
Y-30
G3 X73.095 Y-29.683 I-0.317 J0
G1 X72.777
G18 G3 X72.46 Z-0.883 I0 K0.318
G0 Z5
Y-30.317
G1 Z0 F70
Z-1.083
G2 X72.777 Z-1.4 I0.317 K0 F400
G1 X73.095
G17 G3 X73.412 Y-30 I0 J0.317
G1 Y-21.587
X56.588
Y-38.412
X73.412
Y-30
G3 X73.095 Y-29.683 I-0.317 J0
G1 X72.777
G18 G3 X72.46 Z-1.083 I0 K0.317
G0 Z5
Y-30.317
G1 Z-0.2 F70
Z-1.283
G2 X72.777 Z-1.6 I0.317 K0 F400
G1 X73.095
G17 G3 X73.412 Y-30 I0 J0.317
G1 Y-21.587
X56.588
Y-38.412
X73.412
Y-30
G3 X73.095 Y-29.683 I-0.317 J0
G1 X72.777
G18 G3 X72.46 Z-1.283 I0 K0.317
G0 Z5
Y-30.317
G1 Z-0.4 F70
Z-1.483
G2 X72.777 Z-1.8 I0.317 K0 F400
G1 X73.095
G17 G3 X73.412 Y-30 I0 J0.317
G1 Y-21.587
X56.588
Y-38.412
X73.412
Y-30
G3 X73.095 Y-29.683 I-0.317 J0
G1 X72.777
G18 G3 X72.46 Z-1.483 I0 K0.317
G0 Z5
Y-30.317
G1 Z-0.6 F70
Z-1.683
G2 X72.777 Z-2 I0.317 K0 F400
G1 X73.095
G17 G3 X73.412 Y-30 I0 J0.317
G1 Y-21.587
X56.588
Y-38.412
X73.412
Y-30
G3 X73.095 Y-29.683 I-0.317 J0
G1 X72.777
G18 G3 X72.46 Z-1.683 I0 K0.317
G0 Z5
Y-30.317
G1 Z-0.8 F70
Z-1.883
G2 X72.777 Z-2.2 I0.317 K0 F400
G1 X73.095
G17 G3 X73.412 Y-30 I0 J0.317
G1 Y-21.587
X56.588
Y-38.412
X73.412
Y-30
G3 X73.095 Y-29.683 I-0.317 J0
G1 X72.777
G18 G3 X72.46 Z-1.883 I0 K0.317
G0 Z5
Y-30.317
G1 Z-1 F70
Z-2.083
G2 X72.777 Z-2.4 I0.317 K0 F400
G1 X73.095
G17 G3 X73.412 Y-30 I0 J0.317
G1 Y-21.587
X56.588
Y-38.412
X73.412
Y-30
G3 X73.095 Y-29.683 I-0.317 J0
G1 X72.777
G18 G3 X72.46 Z-2.083 I0 K0.318
G0 Z5
Y-30.317
G1 Z-1.2 F70
Z-2.283
G2 X72.777 Z-2.6 I0.317 K0 F400
G1 X73.095
G17 G3 X73.412 Y-30 I0 J0.317
G1 Y-21.587
X56.588
Y-38.412
X73.412
Y-30
G3 X73.095 Y-29.683 I-0.317 J0
G1 X72.777
G18 G3 X72.46 Z-2.283 I0 K0.317
G0 Z5
Y-30.317
G1 Z-1.4 F70
Z-2.483
G2 X72.777 Z-2.8 I0.317 K0 F400
G1 X73.095
G17 G3 X73.412 Y-30 I0 J0.317
G1 Y-21.587
X56.588
Y-38.412
X73.412
Y-30
G3 X73.095 Y-29.683 I-0.317 J0
G1 X72.777
G18 G3 X72.46 Z-2.483 I0 K0.317
G0 Z5
Y-30.317
G1 Z-1.6 F70
Z-2.683
G2 X72.777 Z-3 I0.317 K0 F400
G1 X73.095
G17 G3 X73.412 Y-30 I0 J0.317
G1 Y-21.587
X56.588
Y-38.412
X73.412
Y-30
G3 X73.095 Y-29.683 I-0.317 J0
G1 X72.777
G18 G3 X72.46 Z-2.683 I0 K0.318
G0 Z5
Y-30.317
G1 Z-1.8 F70
Z-2.883
G2 X72.777 Z-3.2 I0.317 K0 F400
G1 X73.095
G17 G3 X73.412 Y-30 I0 J0.317
G1 Y-21.587
X56.588
Y-38.412
X73.412
Y-30
G3 X73.095 Y-29.683 I-0.317 J0
G1 X72.777
G18 G3 X72.46 Z-2.883 I0 K0.318
G0 Z5
Y-30.317
G1 Z-2 F70
Z-3.083
G2 X72.777 Z-3.4 I0.317 K0 F400
G1 X73.095
G17 G3 X73.412 Y-30 I0 J0.317
G1 Y-21.587
X56.588
Y-38.412
X73.412
Y-30
G3 X73.095 Y-29.683 I-0.317 J0
G1 X72.777
G18 G3 X72.46 Z-3.083 I0 K0.318
G0 Z5
Y-30.317
G1 Z-2.2 F70
Z-3.283
G2 X72.777 Z-3.6 I0.317 K0 F400
G1 X73.095
G17 G3 X73.412 Y-30 I0 J0.317
G1 Y-21.587
X56.588
Y-38.412
X73.412
Y-30
G3 X73.095 Y-29.683 I-0.317 J0
G1 X72.777
G18 G3 X72.46 Z-3.283 I0 K0.317
G0 Z5
Y-30.317
G1 Z-2.4 F70
Z-3.483
G2 X72.777 Z-3.8 I0.317 K0 F400
G1 X73.095
G17 G3 X73.412 Y-30 I0 J0.317
G1 Y-21.587
X56.588
Y-38.412
X73.412
Y-30
G3 X73.095 Y-29.683 I-0.317 J0
G1 X72.777
G18 G3 X72.46 Z-3.483 I0 K0.317
G0 Z5
Y-30.317
G1 Z-2.6 F70
Z-3.683
G2 X72.777 Z-4 I0.317 K0 F400
G1 X73.095
G17 G3 X73.412 Y-30 I0 J0.317
G1 Y-21.587
X56.588
Y-38.412
X73.412
Y-30
G3 X73.095 Y-29.683 I-0.317 J0
G1 X72.777
G18 G3 X72.46 Z-3.683 I0 K0.318
G0 Z5
Y-30.317
G1 Z-2.8 F70
Z-3.883
G2 X72.777 Z-4.2 I0.317 K0 F400
G1 X73.095
G17 G3 X73.412 Y-30 I0 J0.317
G1 Y-21.587
X56.588
Y-38.412
X73.412
Y-30
G3 X73.095 Y-29.683 I-0.317 J0
G1 X72.777
G18 G3 X72.46 Z-3.883 I0 K0.317
G0 Z5
Y-30.317
G1 Z-3 F70
Z-4.083
G2 X72.777 Z-4.4 I0.317 K0 F400
G1 X73.095
G17 G3 X73.412 Y-30 I0 J0.317
G1 Y-21.587
X56.588
Y-38.412
X73.412
Y-30
G3 X73.095 Y-29.683 I-0.317 J0
G1 X72.777
G18 G3 X72.46 Z-4.083 I0 K0.318
G0 Z5
Y-30.317
G1 Z-3.2 F70
Z-4.283
G2 X72.777 Z-4.6 I0.317 K0 F400
G1 X73.095
G17 G3 X73.412 Y-30 I0 J0.317
G1 Y-21.587
X56.588
Y-38.412
X73.412
Y-30
G3 X73.095 Y-29.683 I-0.317 J0
G1 X72.777
G18 G3 X72.46 Z-4.283 I0 K0.318
G0 Z5
Y-30.317
G1 Z-3.4 F70
Z-4.483
G2 X72.777 Z-4.8 I0.317 K0 F400
G1 X73.095
G17 G3 X73.412 Y-30 I0 J0.317
G1 Y-21.587
X56.588
Y-38.412
X73.412
Y-30
G3 X73.095 Y-29.683 I-0.317 J0
G1 X72.777
G18 G3 X72.46 Z-4.483 I0 K0.318
G0 Z5
Y-30.317
G1 Z-3.6 F70
Z-4.683
G2 X72.777 Z-5 I0.317 K0 F400
G1 X73.095
G17 G3 X73.412 Y-30 I0 J0.317
G1 Y-21.587
X56.588
Y-38.412
X73.412
Y-30
G3 X73.095 Y-29.683 I-0.317 J0
G1 X72.777
G18 G3 X72.46 Z-4.683 I0 K0.318
G0 Z5
Y-30.317
G1 Z-3.8 F70
Z-4.883
G2 X72.777 Z-5.2 I0.317 K0 F400
G1 X73.095
G17 G3 X73.412 Y-30 I0 J0.317
G1 Y-21.587
X56.588
Y-38.412
X73.412
Y-30
G3 X73.095 Y-29.683 I-0.317 J0
G1 X72.777
G18 G3 X72.46 Z-4.883 I0 K0.317
G0 Z5
Y-30.317
G1 Z-4 F70
Z-5.083
G2 X72.777 Z-5.4 I0.317 K0 F400
G1 X73.095
G17 G3 X73.412 Y-30 I0 J0.317
G1 Y-21.587
X56.588
Y-38.412
X73.412
Y-30
G3 X73.095 Y-29.683 I-0.317 J0
G1 X72.777
G18 G3 X72.46 Z-5.083 I0 K0.318
G0 Z5
Y-30.317
G1 Z-4.2 F70
Z-5.283
G2 X72.777 Z-5.6 I0.317 K0 F400
G1 X73.095
G17 G3 X73.412 Y-30 I0 J0.317
G1 Y-21.587
X56.588
Y-38.412
X73.412
Y-30
G3 X73.095 Y-29.683 I-0.317 J0
G1 X72.777
G18 G3 X72.46 Z-5.283 I0 K0.318
G0 Z5
Y-30.317
G1 Z-4.4 F70
Z-5.483
G2 X72.777 Z-5.8 I0.317 K0 F400
G1 X73.095
G17 G3 X73.412 Y-30 I0 J0.317
G1 Y-21.587
X56.588
Y-38.412
X73.412
Y-30
G3 X73.095 Y-29.683 I-0.317 J0
G1 X72.777
G18 G3 X72.46 Z-5.483 I0 K0.318
G0 Z5
Y-30.317
G1 Z-4.6 F70
Z-5.683
G2 X72.777 Z-6 I0.317 K0 F400
G1 X73.095
G17 G3 X73.412 Y-30 I0 J0.317
G1 Y-21.587
X56.588
Y-38.412
X73.412
Y-30
G3 X73.095 Y-29.683 I-0.317 J0
G1 X72.777
G18 G3 X72.46 Z-5.683 I0 K0.318
G0 Z5
Y-30.317
G1 Z-4.8 F70
Z-5.883
G2 X72.777 Z-6.2 I0.317 K0 F400
G1 X73.095
G17 G3 X73.412 Y-30 I0 J0.317
G1 Y-21.587
X56.588
Y-38.412
X73.412
Y-30
G3 X73.095 Y-29.683 I-0.317 J0
G1 X72.777
G18 G3 X72.46 Z-5.883 I0 K0.317
G0 Z5
Y-30.317
G1 Z-5 F70
Z-6.083
G2 X72.777 Z-6.4 I0.317 K0 F400
G1 X73.095
G17 G3 X73.412 Y-30 I0 J0.317
G1 Y-21.587
X56.588
Y-38.412
X73.412
Y-30
G3 X73.095 Y-29.683 I-0.317 J0
G1 X72.777
G18 G3 X72.46 Z-6.083 I0 K0.318
G0 Z5
Y-30.317
G1 Z-5.2 F70
Z-6.183
G2 X72.777 Z-6.5 I0.317 K0 F400
G1 X73.095
G17 G3 X73.412 Y-30 I0 J0.317
G1 Y-21.587
X56.588
Y-38.412
X73.412
Y-30
G3 X73.095 Y-29.683 I-0.317 J0
G1 X72.777
G18 G3 X72.46 Z-6.183 I0 K0.318
G0 Z15
G17
G28 G91 Z0
G90
G28 G91 X0 Y0
G90
M5
M30
