(side_plate_v2)
(T2 D=3.175 CR=0 - ZMIN=-6.5 - flat end mill)
G90 G94
G17
G21
G28 G91 Z0
G90

(2D Contour5)
T2
S5000 M3
G54
G0 X-22.06 Y-54.808
Z15
G0 Z5
G1 Z1.2 F133.3
Z0.117
G18 G2 X-21.742 Z-0.2 I0.318 K0 F400
G1 X-21.425
G17 G3 X-21.107 Y-54.49 I0 J0.318
G1 Y-53.588
X-22.913
Y-58
G2 X-24.5 Y-59.588 I-1.587 J0
G1 X-29.52
G2 X-31.107 Y-58 I0 J1.588
G1 Y-53.588
X-32.912
Y-58
G2 X-34.5 Y-59.588 I-1.588 J0
G1 X-39.52
G2 X-41.107 Y-58 I0 J1.588
G1 Y-53.588
X-42.912
Y-58
G2 X-44.5 Y-59.588 I-1.588 J0
G1 X-49.52
G2 X-51.107 Y-58 I0 J1.588
G1 Y-53.588
X-52.912
Y-58
G2 X-54.5 Y-59.588 I-1.588 J0
G1 X-59.52
G2 X-61.107 Y-58 I0 J1.588
G1 Y-53.588
X-65.5
G2 X-67.088 Y-52 I0 J1.588
G1 Y-37
G2 X-65.5 Y-35.412 I1.588 J0
G1 X-61.088
Y-23.587
X-65.5
G2 X-67.088 Y-22 I0 J1.587
G1 Y-12
G2 X-65.5 Y-10.413 I1.588 J0
G1 X-61.088
Y11.413
X-65.5
G2 X-67.088 Y13 I0 J1.587
G1 Y23
G2 X-65.5 Y24.587 I1.588 J0
G1 X-61.088
Y36.412
X-65.5
G2 X-67.088 Y38 I0 J1.588
G1 Y58
G2 X-65.5 Y59.588 I1.588 J0
G1 X-64.5
G2 X-63.475 Y59.212 I0 J-1.588
G1 X66.525 Y-50.788
G2 X66.62 Y-53.125 I-1.025 J-1.212
G1 X61.601 Y-58.125
G2 X58.893 Y-57 I-1.12 J1.125
G1 Y-53.588
X57.088
Y-58
G2 X55.5 Y-59.588 I-1.588 J0
G1 X50.48
G2 X48.893 Y-58 I0 J1.588
G1 Y-53.588
X47.088
Y-58
G2 X45.5 Y-59.588 I-1.588 J0
G1 X40.48
G2 X38.893 Y-58 I0 J1.588
G1 Y-53.588
X37.088
Y-58
G2 X35.5 Y-59.588 I-1.588 J0
G1 X30.48
G2 X28.893 Y-58 I0 J1.588
G1 Y-53.588
X27.087
Y-58
G2 X25.5 Y-59.588 I-1.587 J0
G1 X20.48
G2 X18.893 Y-58 I0 J1.588
G1 Y-53.588
X17.087
Y-58
G2 X15.5 Y-59.588 I-1.587 J0
G1 X10.48
G2 X8.893 Y-58 I0 J1.588
G1 Y-53.588
X7.088
Y-58
G2 X5.5 Y-59.588 I-1.588 J0
G1 X0.48
G2 X-1.107 Y-58 I0 J1.588
G1 Y-53.588
X-2.912
Y-58
G2 X-4.5 Y-59.588 I-1.588 J0
G1 X-9.52
G2 X-11.107 Y-58 I0 J1.588
G1 Y-53.588
X-12.913
Y-58
G2 X-14.5 Y-59.588 I-1.587 J0
G1 X-19.52
G2 X-21.107 Y-58 I0 J1.588
G1 Y-54.49
G3 X-21.425 Y-54.173 I-0.318 J0
G1 X-21.742
G18 G3 X-22.06 Z0.117 I0 K0.318
G0 Z5
Y-54.808
G1 Z1 F133.3
Z-0.083
G2 X-21.742 Z-0.4 I0.318 K0 F400
G1 X-21.425
G17 G3 X-21.107 Y-54.49 I0 J0.318
G1 Y-53.588
X-22.913
Y-58
G2 X-24.5 Y-59.588 I-1.587 J0
G1 X-29.52
G2 X-31.107 Y-58 I0 J1.588
G1 Y-53.588
X-32.912
Y-58
G2 X-34.5 Y-59.588 I-1.588 J0
G1 X-39.52
G2 X-41.107 Y-58 I0 J1.588
G1 Y-53.588
X-42.912
Y-58
G2 X-44.5 Y-59.588 I-1.588 J0
G1 X-49.52
G2 X-51.107 Y-58 I0 J1.588
G1 Y-53.588
X-52.912
Y-58
G2 X-54.5 Y-59.588 I-1.588 J0
G1 X-59.52
G2 X-61.107 Y-58 I0 J1.588
G1 Y-53.588
X-65.5
G2 X-67.088 Y-52 I0 J1.588
G1 Y-37
G2 X-65.5 Y-35.412 I1.588 J0
G1 X-61.088
Y-23.587
X-65.5
G2 X-67.088 Y-22 I0 J1.587
G1 Y-12
G2 X-65.5 Y-10.413 I1.588 J0
G1 X-61.088
Y11.413
X-65.5
G2 X-67.088 Y13 I0 J1.587
G1 Y23
G2 X-65.5 Y24.587 I1.588 J0
G1 X-61.088
Y36.412
X-65.5
G2 X-67.088 Y38 I0 J1.588
G1 Y58
G2 X-65.5 Y59.588 I1.588 J0
G1 X-64.5
G2 X-63.475 Y59.212 I0 J-1.588
G1 X66.525 Y-50.788
G2 X66.62 Y-53.125 I-1.025 J-1.212
G1 X61.601 Y-58.125
G2 X58.893 Y-57 I-1.12 J1.125
G1 Y-53.588
X57.088
Y-58
G2 X55.5 Y-59.588 I-1.588 J0
G1 X50.48
G2 X48.893 Y-58 I0 J1.588
G1 Y-53.588
X47.088
Y-58
G2 X45.5 Y-59.588 I-1.588 J0
G1 X40.48
G2 X38.893 Y-58 I0 J1.588
G1 Y-53.588
X37.088
Y-58
G2 X35.5 Y-59.588 I-1.588 J0
G1 X30.48
G2 X28.893 Y-58 I0 J1.588
G1 Y-53.588
X27.087
Y-58
G2 X25.5 Y-59.588 I-1.587 J0
G1 X20.48
G2 X18.893 Y-58 I0 J1.588
G1 Y-53.588
X17.087
Y-58
G2 X15.5 Y-59.588 I-1.587 J0
G1 X10.48
G2 X8.893 Y-58 I0 J1.588
G1 Y-53.588
X7.088
Y-58
G2 X5.5 Y-59.588 I-1.588 J0
G1 X0.48
G2 X-1.107 Y-58 I0 J1.588
G1 Y-53.588
X-2.912
Y-58
G2 X-4.5 Y-59.588 I-1.588 J0
G1 X-9.52
G2 X-11.107 Y-58 I0 J1.588
G1 Y-53.588
X-12.913
Y-58
G2 X-14.5 Y-59.588 I-1.587 J0
G1 X-19.52
G2 X-21.107 Y-58 I0 J1.588
G1 Y-54.49
G3 X-21.425 Y-54.173 I-0.318 J0
G1 X-21.742
G18 G3 X-22.06 Z-0.083 I0 K0.318
G0 Z5
Y-54.808
G1 Z0.8 F133.3
Z-0.283
G2 X-21.742 Z-0.6 I0.318 K0 F400
G1 X-21.425
G17 G3 X-21.107 Y-54.49 I0 J0.318
G1 Y-53.588
X-22.913
Y-58
G2 X-24.5 Y-59.588 I-1.587 J0
G1 X-29.52
G2 X-31.107 Y-58 I0 J1.588
G1 Y-53.588
X-32.912
Y-58
G2 X-34.5 Y-59.588 I-1.588 J0
G1 X-39.52
G2 X-41.107 Y-58 I0 J1.588
G1 Y-53.588
X-42.912
Y-58
G2 X-44.5 Y-59.588 I-1.588 J0
G1 X-49.52
G2 X-51.107 Y-58 I0 J1.588
G1 Y-53.588
X-52.912
Y-58
G2 X-54.5 Y-59.588 I-1.588 J0
G1 X-59.52
G2 X-61.107 Y-58 I0 J1.588
G1 Y-53.588
X-65.5
G2 X-67.088 Y-52 I0 J1.588
G1 Y-37
G2 X-65.5 Y-35.412 I1.588 J0
G1 X-61.088
Y-23.587
X-65.5
G2 X-67.088 Y-22 I0 J1.587
G1 Y-12
G2 X-65.5 Y-10.413 I1.588 J0
G1 X-61.088
Y11.413
X-65.5
G2 X-67.088 Y13 I0 J1.587
G1 Y23
G2 X-65.5 Y24.587 I1.588 J0
G1 X-61.088
Y36.412
X-65.5
G2 X-67.088 Y38 I0 J1.588
G1 Y58
G2 X-65.5 Y59.588 I1.588 J0
G1 X-64.5
G2 X-63.475 Y59.212 I0 J-1.588
G1 X66.525 Y-50.788
G2 X66.62 Y-53.125 I-1.025 J-1.212
G1 X61.601 Y-58.125
G2 X58.893 Y-57 I-1.12 J1.125
G1 Y-53.588
X57.088
Y-58
G2 X55.5 Y-59.588 I-1.588 J0
G1 X50.48
G2 X48.893 Y-58 I0 J1.588
G1 Y-53.588
X47.088
Y-58
G2 X45.5 Y-59.588 I-1.588 J0
G1 X40.48
G2 X38.893 Y-58 I0 J1.588
G1 Y-53.588
X37.088
Y-58
G2 X35.5 Y-59.588 I-1.588 J0
G1 X30.48
G2 X28.893 Y-58 I0 J1.588
G1 Y-53.588
X27.087
Y-58
G2 X25.5 Y-59.588 I-1.587 J0
G1 X20.48
G2 X18.893 Y-58 I0 J1.588
G1 Y-53.588
X17.087
Y-58
G2 X15.5 Y-59.588 I-1.587 J0
G1 X10.48
G2 X8.893 Y-58 I0 J1.588
G1 Y-53.588
X7.088
Y-58
G2 X5.5 Y-59.588 I-1.588 J0
G1 X0.48
G2 X-1.107 Y-58 I0 J1.588
G1 Y-53.588
X-2.912
Y-58
G2 X-4.5 Y-59.588 I-1.588 J0
G1 X-9.52
G2 X-11.107 Y-58 I0 J1.588
G1 Y-53.588
X-12.913
Y-58
G2 X-14.5 Y-59.588 I-1.587 J0
G1 X-19.52
G2 X-21.107 Y-58 I0 J1.588
G1 Y-54.49
G3 X-21.425 Y-54.173 I-0.318 J0
G1 X-21.742
G18 G3 X-22.06 Z-0.283 I0 K0.318
G0 Z5
Y-54.808
G1 Z0.6 F133.3
Z-0.483
G2 X-21.742 Z-0.8 I0.318 K0 F400
G1 X-21.425
G17 G3 X-21.107 Y-54.49 I0 J0.318
G1 Y-53.588
X-22.913
Y-58
G2 X-24.5 Y-59.588 I-1.587 J0
G1 X-29.52
G2 X-31.107 Y-58 I0 J1.588
G1 Y-53.588
X-32.912
Y-58
G2 X-34.5 Y-59.588 I-1.588 J0
G1 X-39.52
G2 X-41.107 Y-58 I0 J1.588
G1 Y-53.588
X-42.912
Y-58
G2 X-44.5 Y-59.588 I-1.588 J0
G1 X-49.52
G2 X-51.107 Y-58 I0 J1.588
G1 Y-53.588
X-52.912
Y-58
G2 X-54.5 Y-59.588 I-1.588 J0
G1 X-59.52
G2 X-61.107 Y-58 I0 J1.588
G1 Y-53.588
X-65.5
G2 X-67.088 Y-52 I0 J1.588
G1 Y-37
G2 X-65.5 Y-35.412 I1.588 J0
G1 X-61.088
Y-23.587
X-65.5
G2 X-67.088 Y-22 I0 J1.587
G1 Y-12
G2 X-65.5 Y-10.413 I1.588 J0
G1 X-61.088
Y11.413
X-65.5
G2 X-67.088 Y13 I0 J1.587
G1 Y23
G2 X-65.5 Y24.587 I1.588 J0
G1 X-61.088
Y36.412
X-65.5
G2 X-67.088 Y38 I0 J1.588
G1 Y58
G2 X-65.5 Y59.588 I1.588 J0
G1 X-64.5
G2 X-63.475 Y59.212 I0 J-1.588
G1 X66.525 Y-50.788
G2 X66.62 Y-53.125 I-1.025 J-1.212
G1 X61.601 Y-58.125
G2 X58.893 Y-57 I-1.12 J1.125
G1 Y-53.588
X57.088
Y-58
G2 X55.5 Y-59.588 I-1.588 J0
G1 X50.48
G2 X48.893 Y-58 I0 J1.588
G1 Y-53.588
X47.088
Y-58
G2 X45.5 Y-59.588 I-1.588 J0
G1 X40.48
G2 X38.893 Y-58 I0 J1.588
G1 Y-53.588
X37.088
Y-58
G2 X35.5 Y-59.588 I-1.588 J0
G1 X30.48
G2 X28.893 Y-58 I0 J1.588
G1 Y-53.588
X27.087
Y-58
G2 X25.5 Y-59.588 I-1.587 J0
G1 X20.48
G2 X18.893 Y-58 I0 J1.588
G1 Y-53.588
X17.087
Y-58
G2 X15.5 Y-59.588 I-1.587 J0
G1 X10.48
G2 X8.893 Y-58 I0 J1.588
G1 Y-53.588
X7.088
Y-58
G2 X5.5 Y-59.588 I-1.588 J0
G1 X0.48
G2 X-1.107 Y-58 I0 J1.588
G1 Y-53.588
X-2.912
Y-58
G2 X-4.5 Y-59.588 I-1.588 J0
G1 X-9.52
G2 X-11.107 Y-58 I0 J1.588
G1 Y-53.588
X-12.913
Y-58
G2 X-14.5 Y-59.588 I-1.587 J0
G1 X-19.52
G2 X-21.107 Y-58 I0 J1.588
G1 Y-54.49
G3 X-21.425 Y-54.173 I-0.318 J0
G1 X-21.742
G18 G3 X-22.06 Z-0.483 I0 K0.318
G0 Z5
Y-54.808
G1 Z0.4 F133.3
Z-0.683
G2 X-21.742 Z-1 I0.318 K0 F400
G1 X-21.425
G17 G3 X-21.107 Y-54.49 I0 J0.318
G1 Y-53.588
X-22.913
Y-58
G2 X-24.5 Y-59.588 I-1.587 J0
G1 X-29.52
G2 X-31.107 Y-58 I0 J1.588
G1 Y-53.588
X-32.912
Y-58
G2 X-34.5 Y-59.588 I-1.588 J0
G1 X-39.52
G2 X-41.107 Y-58 I0 J1.588
G1 Y-53.588
X-42.912
Y-58
G2 X-44.5 Y-59.588 I-1.588 J0
G1 X-49.52
G2 X-51.107 Y-58 I0 J1.588
G1 Y-53.588
X-52.912
Y-58
G2 X-54.5 Y-59.588 I-1.588 J0
G1 X-59.52
G2 X-61.107 Y-58 I0 J1.588
G1 Y-53.588
X-65.5
G2 X-67.088 Y-52 I0 J1.588
G1 Y-37
G2 X-65.5 Y-35.412 I1.588 J0
G1 X-61.088
Y-23.587
X-65.5
G2 X-67.088 Y-22 I0 J1.587
G1 Y-12
G2 X-65.5 Y-10.413 I1.588 J0
G1 X-61.088
Y11.413
X-65.5
G2 X-67.088 Y13 I0 J1.587
G1 Y23
G2 X-65.5 Y24.587 I1.588 J0
G1 X-61.088
Y36.412
X-65.5
G2 X-67.088 Y38 I0 J1.588
G1 Y58
G2 X-65.5 Y59.588 I1.588 J0
G1 X-64.5
G2 X-63.475 Y59.212 I0 J-1.588
G1 X66.525 Y-50.788
G2 X66.62 Y-53.125 I-1.025 J-1.212
G1 X61.601 Y-58.125
G2 X58.893 Y-57 I-1.12 J1.125
G1 Y-53.588
X57.088
Y-58
G2 X55.5 Y-59.588 I-1.588 J0
G1 X50.48
G2 X48.893 Y-58 I0 J1.588
G1 Y-53.588
X47.088
Y-58
G2 X45.5 Y-59.588 I-1.588 J0
G1 X40.48
G2 X38.893 Y-58 I0 J1.588
G1 Y-53.588
X37.088
Y-58
G2 X35.5 Y-59.588 I-1.588 J0
G1 X30.48
G2 X28.893 Y-58 I0 J1.588
G1 Y-53.588
X27.087
Y-58
G2 X25.5 Y-59.588 I-1.587 J0
G1 X20.48
G2 X18.893 Y-58 I0 J1.588
G1 Y-53.588
X17.087
Y-58
G2 X15.5 Y-59.588 I-1.587 J0
G1 X10.48
G2 X8.893 Y-58 I0 J1.588
G1 Y-53.588
X7.088
Y-58
G2 X5.5 Y-59.588 I-1.588 J0
G1 X0.48
G2 X-1.107 Y-58 I0 J1.588
G1 Y-53.588
X-2.912
Y-58
G2 X-4.5 Y-59.588 I-1.588 J0
G1 X-9.52
G2 X-11.107 Y-58 I0 J1.588
G1 Y-53.588
X-12.913
Y-58
G2 X-14.5 Y-59.588 I-1.587 J0
G1 X-19.52
G2 X-21.107 Y-58 I0 J1.588
G1 Y-54.49
G3 X-21.425 Y-54.173 I-0.318 J0
G1 X-21.742
G18 G3 X-22.06 Z-0.683 I0 K0.317
G0 Z5
Y-54.808
G1 Z0.2 F133.3
Z-0.883
G2 X-21.742 Z-1.2 I0.318 K0 F400
G1 X-21.425
G17 G3 X-21.107 Y-54.49 I0 J0.318
G1 Y-53.588
X-22.913
Y-58
G2 X-24.5 Y-59.588 I-1.587 J0
G1 X-29.52
G2 X-31.107 Y-58 I0 J1.588
G1 Y-53.588
X-32.912
Y-58
G2 X-34.5 Y-59.588 I-1.588 J0
G1 X-39.52
G2 X-41.107 Y-58 I0 J1.588
G1 Y-53.588
X-42.912
Y-58
G2 X-44.5 Y-59.588 I-1.588 J0
G1 X-49.52
G2 X-51.107 Y-58 I0 J1.588
G1 Y-53.588
X-52.912
Y-58
G2 X-54.5 Y-59.588 I-1.588 J0
G1 X-59.52
G2 X-61.107 Y-58 I0 J1.588
G1 Y-53.588
X-65.5
G2 X-67.088 Y-52 I0 J1.588
G1 Y-37
G2 X-65.5 Y-35.412 I1.588 J0
G1 X-61.088
Y-23.587
X-65.5
G2 X-67.088 Y-22 I0 J1.587
G1 Y-12
G2 X-65.5 Y-10.413 I1.588 J0
G1 X-61.088
Y11.413
X-65.5
G2 X-67.088 Y13 I0 J1.587
G1 Y23
G2 X-65.5 Y24.587 I1.588 J0
G1 X-61.088
Y36.412
X-65.5
G2 X-67.088 Y38 I0 J1.588
G1 Y58
G2 X-65.5 Y59.588 I1.588 J0
G1 X-64.5
G2 X-63.475 Y59.212 I0 J-1.588
G1 X66.525 Y-50.788
G2 X66.62 Y-53.125 I-1.025 J-1.212
G1 X61.601 Y-58.125
G2 X58.893 Y-57 I-1.12 J1.125
G1 Y-53.588
X57.088
Y-58
G2 X55.5 Y-59.588 I-1.588 J0
G1 X50.48
G2 X48.893 Y-58 I0 J1.588
G1 Y-53.588
X47.088
Y-58
G2 X45.5 Y-59.588 I-1.588 J0
G1 X40.48
G2 X38.893 Y-58 I0 J1.588
G1 Y-53.588
X37.088
Y-58
G2 X35.5 Y-59.588 I-1.588 J0
G1 X30.48
G2 X28.893 Y-58 I0 J1.588
G1 Y-53.588
X27.087
Y-58
G2 X25.5 Y-59.588 I-1.587 J0
G1 X20.48
G2 X18.893 Y-58 I0 J1.588
G1 Y-53.588
X17.087
Y-58
G2 X15.5 Y-59.588 I-1.587 J0
G1 X10.48
G2 X8.893 Y-58 I0 J1.588
G1 Y-53.588
X7.088
Y-58
G2 X5.5 Y-59.588 I-1.588 J0
G1 X0.48
G2 X-1.107 Y-58 I0 J1.588
G1 Y-53.588
X-2.912
Y-58
G2 X-4.5 Y-59.588 I-1.588 J0
G1 X-9.52
G2 X-11.107 Y-58 I0 J1.588
G1 Y-53.588
X-12.913
Y-58
G2 X-14.5 Y-59.588 I-1.587 J0
G1 X-19.52
G2 X-21.107 Y-58 I0 J1.588
G1 Y-54.49
G3 X-21.425 Y-54.173 I-0.318 J0
G1 X-21.742
G18 G3 X-22.06 Z-0.883 I0 K0.318
G0 Z5
Y-54.808
G1 Z0 F133.3
Z-1.083
G2 X-21.742 Z-1.4 I0.318 K0 F400
G1 X-21.425
G17 G3 X-21.107 Y-54.49 I0 J0.318
G1 Y-53.588
X-22.913
Y-58
G2 X-24.5 Y-59.588 I-1.587 J0
G1 X-29.52
G2 X-31.107 Y-58 I0 J1.588
G1 Y-53.588
X-32.912
Y-58
G2 X-34.5 Y-59.588 I-1.588 J0
G1 X-39.52
G2 X-41.107 Y-58 I0 J1.588
G1 Y-53.588
X-42.912
Y-58
G2 X-44.5 Y-59.588 I-1.588 J0
G1 X-49.52
G2 X-51.107 Y-58 I0 J1.588
G1 Y-53.588
X-52.912
Y-58
G2 X-54.5 Y-59.588 I-1.588 J0
G1 X-59.52
G2 X-61.107 Y-58 I0 J1.588
G1 Y-53.588
X-65.5
G2 X-67.088 Y-52 I0 J1.588
G1 Y-37
G2 X-65.5 Y-35.412 I1.588 J0
G1 X-61.088
Y-23.587
X-65.5
G2 X-67.088 Y-22 I0 J1.587
G1 Y-12
G2 X-65.5 Y-10.413 I1.588 J0
G1 X-61.088
Y11.413
X-65.5
G2 X-67.088 Y13 I0 J1.587
G1 Y23
G2 X-65.5 Y24.587 I1.588 J0
G1 X-61.088
Y36.412
X-65.5
G2 X-67.088 Y38 I0 J1.588
G1 Y58
G2 X-65.5 Y59.588 I1.588 J0
G1 X-64.5
G2 X-63.475 Y59.212 I0 J-1.588
G1 X66.525 Y-50.788
G2 X66.62 Y-53.125 I-1.025 J-1.212
G1 X61.601 Y-58.125
G2 X58.893 Y-57 I-1.12 J1.125
G1 Y-53.588
X57.088
Y-58
G2 X55.5 Y-59.588 I-1.588 J0
G1 X50.48
G2 X48.893 Y-58 I0 J1.588
G1 Y-53.588
X47.088
Y-58
G2 X45.5 Y-59.588 I-1.588 J0
G1 X40.48
G2 X38.893 Y-58 I0 J1.588
G1 Y-53.588
X37.088
Y-58
G2 X35.5 Y-59.588 I-1.588 J0
G1 X30.48
G2 X28.893 Y-58 I0 J1.588
G1 Y-53.588
X27.087
Y-58
G2 X25.5 Y-59.588 I-1.587 J0
G1 X20.48
G2 X18.893 Y-58 I0 J1.588
G1 Y-53.588
X17.087
Y-58
G2 X15.5 Y-59.588 I-1.587 J0
G1 X10.48
G2 X8.893 Y-58 I0 J1.588
G1 Y-53.588
X7.088
Y-58
G2 X5.5 Y-59.588 I-1.588 J0
G1 X0.48
G2 X-1.107 Y-58 I0 J1.588
G1 Y-53.588
X-2.912
Y-58
G2 X-4.5 Y-59.588 I-1.588 J0
G1 X-9.52
G2 X-11.107 Y-58 I0 J1.588
G1 Y-53.588
X-12.913
Y-58
G2 X-14.5 Y-59.588 I-1.587 J0
G1 X-19.52
G2 X-21.107 Y-58 I0 J1.588
G1 Y-54.49
G3 X-21.425 Y-54.173 I-0.318 J0
G1 X-21.742
G18 G3 X-22.06 Z-1.083 I0 K0.317
G0 Z5
Y-54.808
G1 Z-0.2 F133.3
Z-1.283
G2 X-21.742 Z-1.6 I0.318 K0 F400
G1 X-21.425
G17 G3 X-21.107 Y-54.49 I0 J0.318
G1 Y-53.588
X-22.913
Y-58
G2 X-24.5 Y-59.588 I-1.587 J0
G1 X-29.52
G2 X-31.107 Y-58 I0 J1.588
G1 Y-53.588
X-32.912
Y-58
G2 X-34.5 Y-59.588 I-1.588 J0
G1 X-39.52
G2 X-41.107 Y-58 I0 J1.588
G1 Y-53.588
X-42.912
Y-58
G2 X-44.5 Y-59.588 I-1.588 J0
G1 X-49.52
G2 X-51.107 Y-58 I0 J1.588
G1 Y-53.588
X-52.912
Y-58
G2 X-54.5 Y-59.588 I-1.588 J0
G1 X-59.52
G2 X-61.107 Y-58 I0 J1.588
G1 Y-53.588
X-65.5
G2 X-67.088 Y-52 I0 J1.588
G1 Y-37
G2 X-65.5 Y-35.412 I1.588 J0
G1 X-61.088
Y-23.587
X-65.5
G2 X-67.088 Y-22 I0 J1.587
G1 Y-12
G2 X-65.5 Y-10.413 I1.588 J0
G1 X-61.088
Y11.413
X-65.5
G2 X-67.088 Y13 I0 J1.587
G1 Y23
G2 X-65.5 Y24.587 I1.588 J0
G1 X-61.088
Y36.412
X-65.5
G2 X-67.088 Y38 I0 J1.588
G1 Y58
G2 X-65.5 Y59.588 I1.588 J0
G1 X-64.5
G2 X-63.475 Y59.212 I0 J-1.588
G1 X66.525 Y-50.788
G2 X66.62 Y-53.125 I-1.025 J-1.212
G1 X61.601 Y-58.125
G2 X58.893 Y-57 I-1.12 J1.125
G1 Y-53.588
X57.088
Y-58
G2 X55.5 Y-59.588 I-1.588 J0
G1 X50.48
G2 X48.893 Y-58 I0 J1.588
G1 Y-53.588
X47.088
Y-58
G2 X45.5 Y-59.588 I-1.588 J0
G1 X40.48
G2 X38.893 Y-58 I0 J1.588
G1 Y-53.588
X37.088
Y-58
G2 X35.5 Y-59.588 I-1.588 J0
G1 X30.48
G2 X28.893 Y-58 I0 J1.588
G1 Y-53.588
X27.087
Y-58
G2 X25.5 Y-59.588 I-1.587 J0
G1 X20.48
G2 X18.893 Y-58 I0 J1.588
G1 Y-53.588
X17.087
Y-58
G2 X15.5 Y-59.588 I-1.587 J0
G1 X10.48
G2 X8.893 Y-58 I0 J1.588
G1 Y-53.588
X7.088
Y-58
G2 X5.5 Y-59.588 I-1.588 J0
G1 X0.48
G2 X-1.107 Y-58 I0 J1.588
G1 Y-53.588
X-2.912
Y-58
G2 X-4.5 Y-59.588 I-1.588 J0
G1 X-9.52
G2 X-11.107 Y-58 I0 J1.588
G1 Y-53.588
X-12.913
Y-58
G2 X-14.5 Y-59.588 I-1.587 J0
G1 X-19.52
G2 X-21.107 Y-58 I0 J1.588
G1 Y-54.49
G3 X-21.425 Y-54.173 I-0.318 J0
G1 X-21.742
G18 G3 X-22.06 Z-1.283 I0 K0.317
G0 Z5
Y-54.808
G1 Z-0.4 F133.3
Z-1.483
G2 X-21.742 Z-1.8 I0.318 K0 F400
G1 X-21.425
G17 G3 X-21.107 Y-54.49 I0 J0.318
G1 Y-53.588
X-22.913
Y-58
G2 X-24.5 Y-59.588 I-1.587 J0
G1 X-29.52
G2 X-31.107 Y-58 I0 J1.588
G1 Y-53.588
X-32.912
Y-58
G2 X-34.5 Y-59.588 I-1.588 J0
G1 X-39.52
G2 X-41.107 Y-58 I0 J1.588
G1 Y-53.588
X-42.912
Y-58
G2 X-44.5 Y-59.588 I-1.588 J0
G1 X-49.52
G2 X-51.107 Y-58 I0 J1.588
G1 Y-53.588
X-52.912
Y-58
G2 X-54.5 Y-59.588 I-1.588 J0
G1 X-59.52
G2 X-61.107 Y-58 I0 J1.588
G1 Y-53.588
X-65.5
G2 X-67.088 Y-52 I0 J1.588
G1 Y-37
G2 X-65.5 Y-35.412 I1.588 J0
G1 X-61.088
Y-23.587
X-65.5
G2 X-67.088 Y-22 I0 J1.587
G1 Y-12
G2 X-65.5 Y-10.413 I1.588 J0
G1 X-61.088
Y11.413
X-65.5
G2 X-67.088 Y13 I0 J1.587
G1 Y23
G2 X-65.5 Y24.587 I1.588 J0
G1 X-61.088
Y36.412
X-65.5
G2 X-67.088 Y38 I0 J1.588
G1 Y58
G2 X-65.5 Y59.588 I1.588 J0
G1 X-64.5
G2 X-63.475 Y59.212 I0 J-1.588
G1 X66.525 Y-50.788
G2 X66.62 Y-53.125 I-1.025 J-1.212
G1 X61.601 Y-58.125
G2 X58.893 Y-57 I-1.12 J1.125
G1 Y-53.588
X57.088
Y-58
G2 X55.5 Y-59.588 I-1.588 J0
G1 X50.48
G2 X48.893 Y-58 I0 J1.588
G1 Y-53.588
X47.088
Y-58
G2 X45.5 Y-59.588 I-1.588 J0
G1 X40.48
G2 X38.893 Y-58 I0 J1.588
G1 Y-53.588
X37.088
Y-58
G2 X35.5 Y-59.588 I-1.588 J0
G1 X30.48
G2 X28.893 Y-58 I0 J1.588
G1 Y-53.588
X27.087
Y-58
G2 X25.5 Y-59.588 I-1.587 J0
G1 X20.48
G2 X18.893 Y-58 I0 J1.588
G1 Y-53.588
X17.087
Y-58
G2 X15.5 Y-59.588 I-1.587 J0
G1 X10.48
G2 X8.893 Y-58 I0 J1.588
G1 Y-53.588
X7.088
Y-58
G2 X5.5 Y-59.588 I-1.588 J0
G1 X0.48
G2 X-1.107 Y-58 I0 J1.588
G1 Y-53.588
X-2.912
Y-58
G2 X-4.5 Y-59.588 I-1.588 J0
G1 X-9.52
G2 X-11.107 Y-58 I0 J1.588
G1 Y-53.588
X-12.913
Y-58
G2 X-14.5 Y-59.588 I-1.587 J0
G1 X-19.52
G2 X-21.107 Y-58 I0 J1.588
G1 Y-54.49
G3 X-21.425 Y-54.173 I-0.318 J0
G1 X-21.742
G18 G3 X-22.06 Z-1.483 I0 K0.317
G0 Z5
Y-54.808
G1 Z-0.6 F133.3
Z-1.683
G2 X-21.742 Z-2 I0.318 K0 F400
G1 X-21.425
G17 G3 X-21.107 Y-54.49 I0 J0.318
G1 Y-53.588
X-22.913
Y-58
G2 X-24.5 Y-59.588 I-1.587 J0
G1 X-29.52
G2 X-31.107 Y-58 I0 J1.588
G1 Y-53.588
X-32.912
Y-58
G2 X-34.5 Y-59.588 I-1.588 J0
G1 X-39.52
G2 X-41.107 Y-58 I0 J1.588
G1 Y-53.588
X-42.912
Y-58
G2 X-44.5 Y-59.588 I-1.588 J0
G1 X-49.52
G2 X-51.107 Y-58 I0 J1.588
G1 Y-53.588
X-52.912
Y-58
G2 X-54.5 Y-59.588 I-1.588 J0
G1 X-59.52
G2 X-61.107 Y-58 I0 J1.588
G1 Y-53.588
X-65.5
G2 X-67.088 Y-52 I0 J1.588
G1 Y-37
G2 X-65.5 Y-35.412 I1.588 J0
G1 X-61.088
Y-23.587
X-65.5
G2 X-67.088 Y-22 I0 J1.587
G1 Y-12
G2 X-65.5 Y-10.413 I1.588 J0
G1 X-61.088
Y11.413
X-65.5
G2 X-67.088 Y13 I0 J1.587
G1 Y23
G2 X-65.5 Y24.587 I1.588 J0
G1 X-61.088
Y36.412
X-65.5
G2 X-67.088 Y38 I0 J1.588
G1 Y58
G2 X-65.5 Y59.588 I1.588 J0
G1 X-64.5
G2 X-63.475 Y59.212 I0 J-1.588
G1 X66.525 Y-50.788
G2 X66.62 Y-53.125 I-1.025 J-1.212
G1 X61.601 Y-58.125
G2 X58.893 Y-57 I-1.12 J1.125
G1 Y-53.588
X57.088
Y-58
G2 X55.5 Y-59.588 I-1.588 J0
G1 X50.48
G2 X48.893 Y-58 I0 J1.588
G1 Y-53.588
X47.088
Y-58
G2 X45.5 Y-59.588 I-1.588 J0
G1 X40.48
G2 X38.893 Y-58 I0 J1.588
G1 Y-53.588
X37.088
Y-58
G2 X35.5 Y-59.588 I-1.588 J0
G1 X30.48
G2 X28.893 Y-58 I0 J1.588
G1 Y-53.588
X27.087
Y-58
G2 X25.5 Y-59.588 I-1.587 J0
G1 X20.48
G2 X18.893 Y-58 I0 J1.588
G1 Y-53.588
X17.087
Y-58
G2 X15.5 Y-59.588 I-1.587 J0
G1 X10.48
G2 X8.893 Y-58 I0 J1.588
G1 Y-53.588
X7.088
Y-58
G2 X5.5 Y-59.588 I-1.588 J0
G1 X0.48
G2 X-1.107 Y-58 I0 J1.588
G1 Y-53.588
X-2.912
Y-58
G2 X-4.5 Y-59.588 I-1.588 J0
G1 X-9.52
G2 X-11.107 Y-58 I0 J1.588
G1 Y-53.588
X-12.913
Y-58
G2 X-14.5 Y-59.588 I-1.587 J0
G1 X-19.52
G2 X-21.107 Y-58 I0 J1.588
G1 Y-54.49
G3 X-21.425 Y-54.173 I-0.318 J0
G1 X-21.742
G18 G3 X-22.06 Z-1.683 I0 K0.317
G0 Z5
Y-54.808
G1 Z-0.8 F133.3
Z-1.883
G2 X-21.742 Z-2.2 I0.318 K0 F400
G1 X-21.425
G17 G3 X-21.107 Y-54.49 I0 J0.318
G1 Y-53.588
X-22.913
Y-58
G2 X-24.5 Y-59.588 I-1.587 J0
G1 X-29.52
G2 X-31.107 Y-58 I0 J1.588
G1 Y-53.588
X-32.912
Y-58
G2 X-34.5 Y-59.588 I-1.588 J0
G1 X-39.52
G2 X-41.107 Y-58 I0 J1.588
G1 Y-53.588
X-42.912
Y-58
G2 X-44.5 Y-59.588 I-1.588 J0
G1 X-49.52
G2 X-51.107 Y-58 I0 J1.588
G1 Y-53.588
X-52.912
Y-58
G2 X-54.5 Y-59.588 I-1.588 J0
G1 X-59.52
G2 X-61.107 Y-58 I0 J1.588
G1 Y-53.588
X-65.5
G2 X-67.088 Y-52 I0 J1.588
G1 Y-37
G2 X-65.5 Y-35.412 I1.588 J0
G1 X-61.088
Y-23.587
X-65.5
G2 X-67.088 Y-22 I0 J1.587
G1 Y-12
G2 X-65.5 Y-10.413 I1.588 J0
G1 X-61.088
Y11.413
X-65.5
G2 X-67.088 Y13 I0 J1.587
G1 Y23
G2 X-65.5 Y24.587 I1.588 J0
G1 X-61.088
Y36.412
X-65.5
G2 X-67.088 Y38 I0 J1.588
G1 Y58
G2 X-65.5 Y59.588 I1.588 J0
G1 X-64.5
G2 X-63.475 Y59.212 I0 J-1.588
G1 X66.525 Y-50.788
G2 X66.62 Y-53.125 I-1.025 J-1.212
G1 X61.601 Y-58.125
G2 X58.893 Y-57 I-1.12 J1.125
G1 Y-53.588
X57.088
Y-58
G2 X55.5 Y-59.588 I-1.588 J0
G1 X50.48
G2 X48.893 Y-58 I0 J1.588
G1 Y-53.588
X47.088
Y-58
G2 X45.5 Y-59.588 I-1.588 J0
G1 X40.48
G2 X38.893 Y-58 I0 J1.588
G1 Y-53.588
X37.088
Y-58
G2 X35.5 Y-59.588 I-1.588 J0
G1 X30.48
G2 X28.893 Y-58 I0 J1.588
G1 Y-53.588
X27.087
Y-58
G2 X25.5 Y-59.588 I-1.587 J0
G1 X20.48
G2 X18.893 Y-58 I0 J1.588
G1 Y-53.588
X17.087
Y-58
G2 X15.5 Y-59.588 I-1.587 J0
G1 X10.48
G2 X8.893 Y-58 I0 J1.588
G1 Y-53.588
X7.088
Y-58
G2 X5.5 Y-59.588 I-1.588 J0
G1 X0.48
G2 X-1.107 Y-58 I0 J1.588
G1 Y-53.588
X-2.912
Y-58
G2 X-4.5 Y-59.588 I-1.588 J0
G1 X-9.52
G2 X-11.107 Y-58 I0 J1.588
G1 Y-53.588
X-12.913
Y-58
G2 X-14.5 Y-59.588 I-1.587 J0
G1 X-19.52
G2 X-21.107 Y-58 I0 J1.588
G1 Y-54.49
G3 X-21.425 Y-54.173 I-0.318 J0
G1 X-21.742
G18 G3 X-22.06 Z-1.883 I0 K0.317
G0 Z5
Y-54.808
G1 Z-1 F133.3
Z-2.083
G2 X-21.742 Z-2.4 I0.318 K0 F400
G1 X-21.425
G17 G3 X-21.107 Y-54.49 I0 J0.318
G1 Y-53.588
X-22.913
Y-58
G2 X-24.5 Y-59.588 I-1.587 J0
G1 X-29.52
G2 X-31.107 Y-58 I0 J1.588
G1 Y-53.588
X-32.912
Y-58
G2 X-34.5 Y-59.588 I-1.588 J0
G1 X-39.52
G2 X-41.107 Y-58 I0 J1.588
G1 Y-53.588
X-42.912
Y-58
G2 X-44.5 Y-59.588 I-1.588 J0
G1 X-49.52
G2 X-51.107 Y-58 I0 J1.588
G1 Y-53.588
X-52.912
Y-58
G2 X-54.5 Y-59.588 I-1.588 J0
G1 X-59.52
G2 X-61.107 Y-58 I0 J1.588
G1 Y-53.588
X-65.5
G2 X-67.088 Y-52 I0 J1.588
G1 Y-37
G2 X-65.5 Y-35.412 I1.588 J0
G1 X-61.088
Y-23.587
X-65.5
G2 X-67.088 Y-22 I0 J1.587
G1 Y-12
G2 X-65.5 Y-10.413 I1.588 J0
G1 X-61.088
Y11.413
X-65.5
G2 X-67.088 Y13 I0 J1.587
G1 Y23
G2 X-65.5 Y24.587 I1.588 J0
G1 X-61.088
Y36.412
X-65.5
G2 X-67.088 Y38 I0 J1.588
G1 Y58
G2 X-65.5 Y59.588 I1.588 J0
G1 X-64.5
G2 X-63.475 Y59.212 I0 J-1.588
G1 X66.525 Y-50.788
G2 X66.62 Y-53.125 I-1.025 J-1.212
G1 X61.601 Y-58.125
G2 X58.893 Y-57 I-1.12 J1.125
G1 Y-53.588
X57.088
Y-58
G2 X55.5 Y-59.588 I-1.588 J0
G1 X50.48
G2 X48.893 Y-58 I0 J1.588
G1 Y-53.588
X47.088
Y-58
G2 X45.5 Y-59.588 I-1.588 J0
G1 X40.48
G2 X38.893 Y-58 I0 J1.588
G1 Y-53.588
X37.088
Y-58
G2 X35.5 Y-59.588 I-1.588 J0
G1 X30.48
G2 X28.893 Y-58 I0 J1.588
G1 Y-53.588
X27.087
Y-58
G2 X25.5 Y-59.588 I-1.587 J0
G1 X20.48
G2 X18.893 Y-58 I0 J1.588
G1 Y-53.588
X17.087
Y-58
G2 X15.5 Y-59.588 I-1.587 J0
G1 X10.48
G2 X8.893 Y-58 I0 J1.588
G1 Y-53.588
X7.088
Y-58
G2 X5.5 Y-59.588 I-1.588 J0
G1 X0.48
G2 X-1.107 Y-58 I0 J1.588
G1 Y-53.588
X-2.912
Y-58
G2 X-4.5 Y-59.588 I-1.588 J0
G1 X-9.52
G2 X-11.107 Y-58 I0 J1.588
G1 Y-53.588
X-12.913
Y-58
G2 X-14.5 Y-59.588 I-1.587 J0
G1 X-19.52
G2 X-21.107 Y-58 I0 J1.588
G1 Y-54.49
G3 X-21.425 Y-54.173 I-0.318 J0
G1 X-21.742
G18 G3 X-22.06 Z-2.083 I0 K0.318
G0 Z5
Y-54.808
G1 Z-1.2 F133.3
Z-2.283
G2 X-21.742 Z-2.6 I0.318 K0 F400
G1 X-21.425
G17 G3 X-21.107 Y-54.49 I0 J0.318
G1 Y-53.588
X-22.913
Y-58
G2 X-24.5 Y-59.588 I-1.587 J0
G1 X-29.52
G2 X-31.107 Y-58 I0 J1.588
G1 Y-53.588
X-32.912
Y-58
G2 X-34.5 Y-59.588 I-1.588 J0
G1 X-39.52
G2 X-41.107 Y-58 I0 J1.588
G1 Y-53.588
X-42.912
Y-58
G2 X-44.5 Y-59.588 I-1.588 J0
G1 X-49.52
G2 X-51.107 Y-58 I0 J1.588
G1 Y-53.588
X-52.912
Y-58
G2 X-54.5 Y-59.588 I-1.588 J0
G1 X-59.52
G2 X-61.107 Y-58 I0 J1.588
G1 Y-53.588
X-65.5
G2 X-67.088 Y-52 I0 J1.588
G1 Y-37
G2 X-65.5 Y-35.412 I1.588 J0
G1 X-61.088
Y-23.587
X-65.5
G2 X-67.088 Y-22 I0 J1.587
G1 Y-12
G2 X-65.5 Y-10.413 I1.588 J0
G1 X-61.088
Y11.413
X-65.5
G2 X-67.088 Y13 I0 J1.587
G1 Y23
G2 X-65.5 Y24.587 I1.588 J0
G1 X-61.088
Y36.412
X-65.5
G2 X-67.088 Y38 I0 J1.588
G1 Y58
G2 X-65.5 Y59.588 I1.588 J0
G1 X-64.5
G2 X-63.475 Y59.212 I0 J-1.588
G1 X66.525 Y-50.788
G2 X66.62 Y-53.125 I-1.025 J-1.212
G1 X61.601 Y-58.125
G2 X58.893 Y-57 I-1.12 J1.125
G1 Y-53.588
X57.088
Y-58
G2 X55.5 Y-59.588 I-1.588 J0
G1 X50.48
G2 X48.893 Y-58 I0 J1.588
G1 Y-53.588
X47.088
Y-58
G2 X45.5 Y-59.588 I-1.588 J0
G1 X40.48
G2 X38.893 Y-58 I0 J1.588
G1 Y-53.588
X37.088
Y-58
G2 X35.5 Y-59.588 I-1.588 J0
G1 X30.48
G2 X28.893 Y-58 I0 J1.588
G1 Y-53.588
X27.087
Y-58
G2 X25.5 Y-59.588 I-1.587 J0
G1 X20.48
G2 X18.893 Y-58 I0 J1.588
G1 Y-53.588
X17.087
Y-58
G2 X15.5 Y-59.588 I-1.587 J0
G1 X10.48
G2 X8.893 Y-58 I0 J1.588
G1 Y-53.588
X7.088
Y-58
G2 X5.5 Y-59.588 I-1.588 J0
G1 X0.48
G2 X-1.107 Y-58 I0 J1.588
G1 Y-53.588
X-2.912
Y-58
G2 X-4.5 Y-59.588 I-1.588 J0
G1 X-9.52
G2 X-11.107 Y-58 I0 J1.588
G1 Y-53.588
X-12.913
Y-58
G2 X-14.5 Y-59.588 I-1.587 J0
G1 X-19.52
G2 X-21.107 Y-58 I0 J1.588
G1 Y-54.49
G3 X-21.425 Y-54.173 I-0.318 J0
G1 X-21.742
G18 G3 X-22.06 Z-2.283 I0 K0.317
G0 Z5
Y-54.808
G1 Z-1.4 F133.3
Z-2.483
G2 X-21.742 Z-2.8 I0.318 K0 F400
G1 X-21.425
G17 G3 X-21.107 Y-54.49 I0 J0.318
G1 Y-53.588
X-22.913
Y-58
G2 X-24.5 Y-59.588 I-1.587 J0
G1 X-29.52
G2 X-31.107 Y-58 I0 J1.588
G1 Y-53.588
X-32.912
Y-58
G2 X-34.5 Y-59.588 I-1.588 J0
G1 X-39.52
G2 X-41.107 Y-58 I0 J1.588
G1 Y-53.588
X-42.912
Y-58
G2 X-44.5 Y-59.588 I-1.588 J0
G1 X-49.52
G2 X-51.107 Y-58 I0 J1.588
G1 Y-53.588
X-52.912
Y-58
G2 X-54.5 Y-59.588 I-1.588 J0
G1 X-59.52
G2 X-61.107 Y-58 I0 J1.588
G1 Y-53.588
X-65.5
G2 X-67.088 Y-52 I0 J1.588
G1 Y-37
G2 X-65.5 Y-35.412 I1.588 J0
G1 X-61.088
Y-23.587
X-65.5
G2 X-67.088 Y-22 I0 J1.587
G1 Y-12
G2 X-65.5 Y-10.413 I1.588 J0
G1 X-61.088
Y11.413
X-65.5
G2 X-67.088 Y13 I0 J1.587
G1 Y23
G2 X-65.5 Y24.587 I1.588 J0
G1 X-61.088
Y36.412
X-65.5
G2 X-67.088 Y38 I0 J1.588
G1 Y58
G2 X-65.5 Y59.588 I1.588 J0
G1 X-64.5
G2 X-63.475 Y59.212 I0 J-1.588
G1 X66.525 Y-50.788
G2 X66.62 Y-53.125 I-1.025 J-1.212
G1 X61.601 Y-58.125
G2 X58.893 Y-57 I-1.12 J1.125
G1 Y-53.588
X57.088
Y-58
G2 X55.5 Y-59.588 I-1.588 J0
G1 X50.48
G2 X48.893 Y-58 I0 J1.588
G1 Y-53.588
X47.088
Y-58
G2 X45.5 Y-59.588 I-1.588 J0
G1 X40.48
G2 X38.893 Y-58 I0 J1.588
G1 Y-53.588
X37.088
Y-58
G2 X35.5 Y-59.588 I-1.588 J0
G1 X30.48
G2 X28.893 Y-58 I0 J1.588
G1 Y-53.588
X27.087
Y-58
G2 X25.5 Y-59.588 I-1.587 J0
G1 X20.48
G2 X18.893 Y-58 I0 J1.588
G1 Y-53.588
X17.087
Y-58
G2 X15.5 Y-59.588 I-1.587 J0
G1 X10.48
G2 X8.893 Y-58 I0 J1.588
G1 Y-53.588
X7.088
Y-58
G2 X5.5 Y-59.588 I-1.588 J0
G1 X0.48
G2 X-1.107 Y-58 I0 J1.588
G1 Y-53.588
X-2.912
Y-58
G2 X-4.5 Y-59.588 I-1.588 J0
G1 X-9.52
G2 X-11.107 Y-58 I0 J1.588
G1 Y-53.588
X-12.913
Y-58
G2 X-14.5 Y-59.588 I-1.587 J0
G1 X-19.52
G2 X-21.107 Y-58 I0 J1.588
G1 Y-54.49
G3 X-21.425 Y-54.173 I-0.318 J0
G1 X-21.742
G18 G3 X-22.06 Z-2.483 I0 K0.317
G0 Z5
Y-54.808
G1 Z-1.6 F133.3
Z-2.683
G2 X-21.742 Z-3 I0.318 K0 F400
G1 X-21.425
G17 G3 X-21.107 Y-54.49 I0 J0.318
G1 Y-53.588
X-22.913
Y-58
G2 X-24.5 Y-59.588 I-1.587 J0
G1 X-29.52
G2 X-31.107 Y-58 I0 J1.588
G1 Y-53.588
X-32.912
Y-58
G2 X-34.5 Y-59.588 I-1.588 J0
G1 X-39.52
G2 X-41.107 Y-58 I0 J1.588
G1 Y-53.588
X-42.912
Y-58
G2 X-44.5 Y-59.588 I-1.588 J0
G1 X-49.52
G2 X-51.107 Y-58 I0 J1.588
G1 Y-53.588
X-52.912
Y-58
G2 X-54.5 Y-59.588 I-1.588 J0
G1 X-59.52
G2 X-61.107 Y-58 I0 J1.588
G1 Y-53.588
X-65.5
G2 X-67.088 Y-52 I0 J1.588
G1 Y-37
G2 X-65.5 Y-35.412 I1.588 J0
G1 X-61.088
Y-23.587
X-65.5
G2 X-67.088 Y-22 I0 J1.587
G1 Y-12
G2 X-65.5 Y-10.413 I1.588 J0
G1 X-61.088
Y11.413
X-65.5
G2 X-67.088 Y13 I0 J1.587
G1 Y23
G2 X-65.5 Y24.587 I1.588 J0
G1 X-61.088
Y36.412
X-65.5
G2 X-67.088 Y38 I0 J1.588
G1 Y58
G2 X-65.5 Y59.588 I1.588 J0
G1 X-64.5
G2 X-63.475 Y59.212 I0 J-1.588
G1 X66.525 Y-50.788
G2 X66.62 Y-53.125 I-1.025 J-1.212
G1 X61.601 Y-58.125
G2 X58.893 Y-57 I-1.12 J1.125
G1 Y-53.588
X57.088
Y-58
G2 X55.5 Y-59.588 I-1.588 J0
G1 X50.48
G2 X48.893 Y-58 I0 J1.588
G1 Y-53.588
X47.088
Y-58
G2 X45.5 Y-59.588 I-1.588 J0
G1 X40.48
G2 X38.893 Y-58 I0 J1.588
G1 Y-53.588
X37.088
Y-58
G2 X35.5 Y-59.588 I-1.588 J0
G1 X30.48
G2 X28.893 Y-58 I0 J1.588
G1 Y-53.588
X27.087
Y-58
G2 X25.5 Y-59.588 I-1.587 J0
G1 X20.48
G2 X18.893 Y-58 I0 J1.588
G1 Y-53.588
X17.087
Y-58
G2 X15.5 Y-59.588 I-1.587 J0
G1 X10.48
G2 X8.893 Y-58 I0 J1.588
G1 Y-53.588
X7.088
Y-58
G2 X5.5 Y-59.588 I-1.588 J0
G1 X0.48
G2 X-1.107 Y-58 I0 J1.588
G1 Y-53.588
X-2.912
Y-58
G2 X-4.5 Y-59.588 I-1.588 J0
G1 X-9.52
G2 X-11.107 Y-58 I0 J1.588
G1 Y-53.588
X-12.913
Y-58
G2 X-14.5 Y-59.588 I-1.587 J0
G1 X-19.52
G2 X-21.107 Y-58 I0 J1.588
G1 Y-54.49
G3 X-21.425 Y-54.173 I-0.318 J0
G1 X-21.742
G18 G3 X-22.06 Z-2.683 I0 K0.318
G0 Z5
Y-54.808
G1 Z-1.8 F133.3
Z-2.883
G2 X-21.742 Z-3.2 I0.318 K0 F400
G1 X-21.425
G17 G3 X-21.107 Y-54.49 I0 J0.318
G1 Y-53.588
X-22.913
Y-58
G2 X-24.5 Y-59.588 I-1.587 J0
G1 X-29.52
G2 X-31.107 Y-58 I0 J1.588
G1 Y-53.588
X-32.912
Y-58
G2 X-34.5 Y-59.588 I-1.588 J0
G1 X-39.52
G2 X-41.107 Y-58 I0 J1.588
G1 Y-53.588
X-42.912
Y-58
G2 X-44.5 Y-59.588 I-1.588 J0
G1 X-49.52
G2 X-51.107 Y-58 I0 J1.588
G1 Y-53.588
X-52.912
Y-58
G2 X-54.5 Y-59.588 I-1.588 J0
G1 X-59.52
G2 X-61.107 Y-58 I0 J1.588
G1 Y-53.588
X-65.5
G2 X-67.088 Y-52 I0 J1.588
G1 Y-37
G2 X-65.5 Y-35.412 I1.588 J0
G1 X-61.088
Y-23.587
X-65.5
G2 X-67.088 Y-22 I0 J1.587
G1 Y-12
G2 X-65.5 Y-10.413 I1.588 J0
G1 X-61.088
Y11.413
X-65.5
G2 X-67.088 Y13 I0 J1.587
G1 Y23
G2 X-65.5 Y24.587 I1.588 J0
G1 X-61.088
Y36.412
X-65.5
G2 X-67.088 Y38 I0 J1.588
G1 Y58
G2 X-65.5 Y59.588 I1.588 J0
G1 X-64.5
G2 X-63.475 Y59.212 I0 J-1.588
G1 X66.525 Y-50.788
G2 X66.62 Y-53.125 I-1.025 J-1.212
G1 X61.601 Y-58.125
G2 X58.893 Y-57 I-1.12 J1.125
G1 Y-53.588
X57.088
Y-58
G2 X55.5 Y-59.588 I-1.588 J0
G1 X50.48
G2 X48.893 Y-58 I0 J1.588
G1 Y-53.588
X47.088
Y-58
G2 X45.5 Y-59.588 I-1.588 J0
G1 X40.48
G2 X38.893 Y-58 I0 J1.588
G1 Y-53.588
X37.088
Y-58
G2 X35.5 Y-59.588 I-1.588 J0
G1 X30.48
G2 X28.893 Y-58 I0 J1.588
G1 Y-53.588
X27.087
Y-58
G2 X25.5 Y-59.588 I-1.587 J0
G1 X20.48
G2 X18.893 Y-58 I0 J1.588
G1 Y-53.588
X17.087
Y-58
G2 X15.5 Y-59.588 I-1.587 J0
G1 X10.48
G2 X8.893 Y-58 I0 J1.588
G1 Y-53.588
X7.088
Y-58
G2 X5.5 Y-59.588 I-1.588 J0
G1 X0.48
G2 X-1.107 Y-58 I0 J1.588
G1 Y-53.588
X-2.912
Y-58
G2 X-4.5 Y-59.588 I-1.588 J0
G1 X-9.52
G2 X-11.107 Y-58 I0 J1.588
G1 Y-53.588
X-12.913
Y-58
G2 X-14.5 Y-59.588 I-1.587 J0
G1 X-19.52
G2 X-21.107 Y-58 I0 J1.588
G1 Y-54.49
G3 X-21.425 Y-54.173 I-0.318 J0
G1 X-21.742
G18 G3 X-22.06 Z-2.883 I0 K0.318
G0 Z5
Y-54.808
G1 Z-2 F133.3
Z-3.083
G2 X-21.742 Z-3.4 I0.318 K0 F400
G1 X-21.425
G17 G3 X-21.107 Y-54.49 I0 J0.318
G1 Y-53.588
X-22.913
Y-58
G2 X-24.5 Y-59.588 I-1.587 J0
G1 X-29.52
G2 X-31.107 Y-58 I0 J1.588
G1 Y-53.588
X-32.912
Y-58
G2 X-34.5 Y-59.588 I-1.588 J0
G1 X-39.52
G2 X-41.107 Y-58 I0 J1.588
G1 Y-53.588
X-42.912
Y-58
G2 X-44.5 Y-59.588 I-1.588 J0
G1 X-49.52
G2 X-51.107 Y-58 I0 J1.588
G1 Y-53.588
X-52.912
Y-58
G2 X-54.5 Y-59.588 I-1.588 J0
G1 X-59.52
G2 X-61.107 Y-58 I0 J1.588
G1 Y-53.588
X-65.5
G2 X-67.088 Y-52 I0 J1.588
G1 Y-37
G2 X-65.5 Y-35.412 I1.588 J0
G1 X-61.088
Y-23.587
X-65.5
G2 X-67.088 Y-22 I0 J1.587
G1 Y-12
G2 X-65.5 Y-10.413 I1.588 J0
G1 X-61.088
Y11.413
X-65.5
G2 X-67.088 Y13 I0 J1.587
G1 Y23
G2 X-65.5 Y24.587 I1.588 J0
G1 X-61.088
Y36.412
X-65.5
G2 X-67.088 Y38 I0 J1.588
G1 Y58
G2 X-65.5 Y59.588 I1.588 J0
G1 X-64.5
G2 X-63.475 Y59.212 I0 J-1.588
G1 X66.525 Y-50.788
G2 X66.62 Y-53.125 I-1.025 J-1.212
G1 X61.601 Y-58.125
G2 X58.893 Y-57 I-1.12 J1.125
G1 Y-53.588
X57.088
Y-58
G2 X55.5 Y-59.588 I-1.588 J0
G1 X50.48
G2 X48.893 Y-58 I0 J1.588
G1 Y-53.588
X47.088
Y-58
G2 X45.5 Y-59.588 I-1.588 J0
G1 X40.48
G2 X38.893 Y-58 I0 J1.588
G1 Y-53.588
X37.088
Y-58
G2 X35.5 Y-59.588 I-1.588 J0
G1 X30.48
G2 X28.893 Y-58 I0 J1.588
G1 Y-53.588
X27.087
Y-58
G2 X25.5 Y-59.588 I-1.587 J0
G1 X20.48
G2 X18.893 Y-58 I0 J1.588
G1 Y-53.588
X17.087
Y-58
G2 X15.5 Y-59.588 I-1.587 J0
G1 X10.48
G2 X8.893 Y-58 I0 J1.588
G1 Y-53.588
X7.088
Y-58
G2 X5.5 Y-59.588 I-1.588 J0
G1 X0.48
G2 X-1.107 Y-58 I0 J1.588
G1 Y-53.588
X-2.912
Y-58
G2 X-4.5 Y-59.588 I-1.588 J0
G1 X-9.52
G2 X-11.107 Y-58 I0 J1.588
G1 Y-53.588
X-12.913
Y-58
G2 X-14.5 Y-59.588 I-1.587 J0
G1 X-19.52
G2 X-21.107 Y-58 I0 J1.588
G1 Y-54.49
G3 X-21.425 Y-54.173 I-0.318 J0
G1 X-21.742
G18 G3 X-22.06 Z-3.083 I0 K0.318
G0 Z5
Y-54.808
G1 Z-2.2 F133.3
Z-3.283
G2 X-21.742 Z-3.6 I0.318 K0 F400
G1 X-21.425
G17 G3 X-21.107 Y-54.49 I0 J0.318
G1 Y-53.588
X-22.913
Y-58
G2 X-24.5 Y-59.588 I-1.587 J0
G1 X-29.52
G2 X-31.107 Y-58 I0 J1.588
G1 Y-53.588
X-32.912
Y-58
G2 X-34.5 Y-59.588 I-1.588 J0
G1 X-39.52
G2 X-41.107 Y-58 I0 J1.588
G1 Y-53.588
X-42.912
Y-58
G2 X-44.5 Y-59.588 I-1.588 J0
G1 X-49.52
G2 X-51.107 Y-58 I0 J1.588
G1 Y-53.588
X-52.912
Y-58
G2 X-54.5 Y-59.588 I-1.588 J0
G1 X-59.52
G2 X-61.107 Y-58 I0 J1.588
G1 Y-53.588
X-65.5
G2 X-67.088 Y-52 I0 J1.588
G1 Y-37
G2 X-65.5 Y-35.412 I1.588 J0
G1 X-61.088
Y-23.587
X-65.5
G2 X-67.088 Y-22 I0 J1.587
G1 Y-12
G2 X-65.5 Y-10.413 I1.588 J0
G1 X-61.088
Y11.413
X-65.5
G2 X-67.088 Y13 I0 J1.587
G1 Y23
G2 X-65.5 Y24.587 I1.588 J0
G1 X-61.088
Y36.412
X-65.5
G2 X-67.088 Y38 I0 J1.588
G1 Y58
G2 X-65.5 Y59.588 I1.588 J0
G1 X-64.5
G2 X-63.475 Y59.212 I0 J-1.588
G1 X66.525 Y-50.788
G2 X66.62 Y-53.125 I-1.025 J-1.212
G1 X61.601 Y-58.125
G2 X58.893 Y-57 I-1.12 J1.125
G1 Y-53.588
X57.088
Y-58
G2 X55.5 Y-59.588 I-1.588 J0
G1 X50.48
G2 X48.893 Y-58 I0 J1.588
G1 Y-53.588
X47.088
Y-58
G2 X45.5 Y-59.588 I-1.588 J0
G1 X40.48
G2 X38.893 Y-58 I0 J1.588
G1 Y-53.588
X37.088
Y-58
G2 X35.5 Y-59.588 I-1.588 J0
G1 X30.48
G2 X28.893 Y-58 I0 J1.588
G1 Y-53.588
X27.087
Y-58
G2 X25.5 Y-59.588 I-1.587 J0
G1 X20.48
G2 X18.893 Y-58 I0 J1.588
G1 Y-53.588
X17.087
Y-58
G2 X15.5 Y-59.588 I-1.587 J0
G1 X10.48
G2 X8.893 Y-58 I0 J1.588
G1 Y-53.588
X7.088
Y-58
G2 X5.5 Y-59.588 I-1.588 J0
G1 X0.48
G2 X-1.107 Y-58 I0 J1.588
G1 Y-53.588
X-2.912
Y-58
G2 X-4.5 Y-59.588 I-1.588 J0
G1 X-9.52
G2 X-11.107 Y-58 I0 J1.588
G1 Y-53.588
X-12.913
Y-58
G2 X-14.5 Y-59.588 I-1.587 J0
G1 X-19.52
G2 X-21.107 Y-58 I0 J1.588
G1 Y-54.49
G3 X-21.425 Y-54.173 I-0.318 J0
G1 X-21.742
G18 G3 X-22.06 Z-3.283 I0 K0.317
G0 Z5
Y-54.808
G1 Z-2.4 F133.3
Z-3.483
G2 X-21.742 Z-3.8 I0.318 K0 F400
G1 X-21.425
G17 G3 X-21.107 Y-54.49 I0 J0.318
G1 Y-53.588
X-22.913
Y-58
G2 X-24.5 Y-59.588 I-1.587 J0
G1 X-29.52
G2 X-31.107 Y-58 I0 J1.588
G1 Y-53.588
X-32.912
Y-58
G2 X-34.5 Y-59.588 I-1.588 J0
G1 X-39.52
G2 X-41.107 Y-58 I0 J1.588
G1 Y-53.588
X-42.912
Y-58
G2 X-44.5 Y-59.588 I-1.588 J0
G1 X-49.52
G2 X-51.107 Y-58 I0 J1.588
G1 Y-53.588
X-52.912
Y-58
G2 X-54.5 Y-59.588 I-1.588 J0
G1 X-59.52
G2 X-61.107 Y-58 I0 J1.588
G1 Y-53.588
X-65.5
G2 X-67.088 Y-52 I0 J1.588
G1 Y-37
G2 X-65.5 Y-35.412 I1.588 J0
G1 X-61.088
Y-23.587
X-65.5
G2 X-67.088 Y-22 I0 J1.587
G1 Y-12
G2 X-65.5 Y-10.413 I1.588 J0
G1 X-61.088
Y11.413
X-65.5
G2 X-67.088 Y13 I0 J1.587
G1 Y23
G2 X-65.5 Y24.587 I1.588 J0
G1 X-61.088
Y36.412
X-65.5
G2 X-67.088 Y38 I0 J1.588
G1 Y58
G2 X-65.5 Y59.588 I1.588 J0
G1 X-64.5
G2 X-63.475 Y59.212 I0 J-1.588
G1 X66.525 Y-50.788
G2 X66.62 Y-53.125 I-1.025 J-1.212
G1 X61.601 Y-58.125
G2 X58.893 Y-57 I-1.12 J1.125
G1 Y-53.588
X57.088
Y-58
G2 X55.5 Y-59.588 I-1.588 J0
G1 X50.48
G2 X48.893 Y-58 I0 J1.588
G1 Y-53.588
X47.088
Y-58
G2 X45.5 Y-59.588 I-1.588 J0
G1 X40.48
G2 X38.893 Y-58 I0 J1.588
G1 Y-53.588
X37.088
Y-58
G2 X35.5 Y-59.588 I-1.588 J0
G1 X30.48
G2 X28.893 Y-58 I0 J1.588
G1 Y-53.588
X27.087
Y-58
G2 X25.5 Y-59.588 I-1.587 J0
G1 X20.48
G2 X18.893 Y-58 I0 J1.588
G1 Y-53.588
X17.087
Y-58
G2 X15.5 Y-59.588 I-1.587 J0
G1 X10.48
G2 X8.893 Y-58 I0 J1.588
G1 Y-53.588
X7.088
Y-58
G2 X5.5 Y-59.588 I-1.588 J0
G1 X0.48
G2 X-1.107 Y-58 I0 J1.588
G1 Y-53.588
X-2.912
Y-58
G2 X-4.5 Y-59.588 I-1.588 J0
G1 X-9.52
G2 X-11.107 Y-58 I0 J1.588
G1 Y-53.588
X-12.913
Y-58
G2 X-14.5 Y-59.588 I-1.587 J0
G1 X-19.52
G2 X-21.107 Y-58 I0 J1.588
G1 Y-54.49
G3 X-21.425 Y-54.173 I-0.318 J0
G1 X-21.742
G18 G3 X-22.06 Z-3.483 I0 K0.317
G0 Z5
Y-54.808
G1 Z-2.6 F133.3
Z-3.683
G2 X-21.742 Z-4 I0.318 K0 F400
G1 X-21.425
G17 G3 X-21.107 Y-54.49 I0 J0.318
G1 Y-53.588
X-22.913
Y-58
G2 X-24.5 Y-59.588 I-1.587 J0
G1 X-29.52
G2 X-31.107 Y-58 I0 J1.588
G1 Y-53.588
X-32.912
Y-58
G2 X-34.5 Y-59.588 I-1.588 J0
G1 X-39.52
G2 X-41.107 Y-58 I0 J1.588
G1 Y-53.588
X-42.912
Y-58
G2 X-44.5 Y-59.588 I-1.588 J0
G1 X-49.52
G2 X-51.107 Y-58 I0 J1.588
G1 Y-53.588
X-52.912
Y-58
G2 X-54.5 Y-59.588 I-1.588 J0
G1 X-59.52
G2 X-61.107 Y-58 I0 J1.588
G1 Y-53.588
X-65.5
G2 X-67.088 Y-52 I0 J1.588
G1 Y-37
G2 X-65.5 Y-35.412 I1.588 J0
G1 X-61.088
Y-23.587
X-65.5
G2 X-67.088 Y-22 I0 J1.587
G1 Y-12
G2 X-65.5 Y-10.413 I1.588 J0
G1 X-61.088
Y11.413
X-65.5
G2 X-67.088 Y13 I0 J1.587
G1 Y23
G2 X-65.5 Y24.587 I1.588 J0
G1 X-61.088
Y36.412
X-65.5
G2 X-67.088 Y38 I0 J1.588
G1 Y58
G2 X-65.5 Y59.588 I1.588 J0
G1 X-64.5
G2 X-63.475 Y59.212 I0 J-1.588
G1 X66.525 Y-50.788
G2 X66.62 Y-53.125 I-1.025 J-1.212
G1 X61.601 Y-58.125
G2 X58.893 Y-57 I-1.12 J1.125
G1 Y-53.588
X57.088
Y-58
G2 X55.5 Y-59.588 I-1.588 J0
G1 X50.48
G2 X48.893 Y-58 I0 J1.588
G1 Y-53.588
X47.088
Y-58
G2 X45.5 Y-59.588 I-1.588 J0
G1 X40.48
G2 X38.893 Y-58 I0 J1.588
G1 Y-53.588
X37.088
Y-58
G2 X35.5 Y-59.588 I-1.588 J0
G1 X30.48
G2 X28.893 Y-58 I0 J1.588
G1 Y-53.588
X27.087
Y-58
G2 X25.5 Y-59.588 I-1.587 J0
G1 X20.48
G2 X18.893 Y-58 I0 J1.588
G1 Y-53.588
X17.087
Y-58
G2 X15.5 Y-59.588 I-1.587 J0
G1 X10.48
G2 X8.893 Y-58 I0 J1.588
G1 Y-53.588
X7.088
Y-58
G2 X5.5 Y-59.588 I-1.588 J0
G1 X0.48
G2 X-1.107 Y-58 I0 J1.588
G1 Y-53.588
X-2.912
Y-58
G2 X-4.5 Y-59.588 I-1.588 J0
G1 X-9.52
G2 X-11.107 Y-58 I0 J1.588
G1 Y-53.588
X-12.913
Y-58
G2 X-14.5 Y-59.588 I-1.587 J0
G1 X-19.52
G2 X-21.107 Y-58 I0 J1.588
G1 Y-54.49
G3 X-21.425 Y-54.173 I-0.318 J0
G1 X-21.742
G18 G3 X-22.06 Z-3.683 I0 K0.318
G0 Z5
Y-54.808
G1 Z-2.8 F133.3
Z-3.883
G2 X-21.742 Z-4.2 I0.318 K0 F400
G1 X-21.425
G17 G3 X-21.107 Y-54.49 I0 J0.318
G1 Y-53.588
X-22.913
Y-58
G2 X-24.5 Y-59.588 I-1.587 J0
G1 X-29.52
G2 X-31.107 Y-58 I0 J1.588
G1 Y-53.588
X-32.912
Y-58
G2 X-34.5 Y-59.588 I-1.588 J0
G1 X-39.52
G2 X-41.107 Y-58 I0 J1.588
G1 Y-53.588
X-42.912
Y-58
G2 X-44.5 Y-59.588 I-1.588 J0
G1 X-49.52
G2 X-51.107 Y-58 I0 J1.588
G1 Y-53.588
X-52.912
Y-58
G2 X-54.5 Y-59.588 I-1.588 J0
G1 X-59.52
G2 X-61.107 Y-58 I0 J1.588
G1 Y-53.588
X-65.5
G2 X-67.088 Y-52 I0 J1.588
G1 Y-37
G2 X-65.5 Y-35.412 I1.588 J0
G1 X-61.088
Y-23.587
X-65.5
G2 X-67.088 Y-22 I0 J1.587
G1 Y-12
G2 X-65.5 Y-10.413 I1.588 J0
G1 X-61.088
Y11.413
X-65.5
G2 X-67.088 Y13 I0 J1.587
G1 Y23
G2 X-65.5 Y24.587 I1.588 J0
G1 X-61.088
Y36.412
X-65.5
G2 X-67.088 Y38 I0 J1.588
G1 Y58
G2 X-65.5 Y59.588 I1.588 J0
G1 X-64.5
G2 X-63.475 Y59.212 I0 J-1.588
G1 X66.525 Y-50.788
G2 X66.62 Y-53.125 I-1.025 J-1.212
G1 X61.601 Y-58.125
G2 X58.893 Y-57 I-1.12 J1.125
G1 Y-53.588
X57.088
Y-58
G2 X55.5 Y-59.588 I-1.588 J0
G1 X50.48
G2 X48.893 Y-58 I0 J1.588
G1 Y-53.588
X47.088
Y-58
G2 X45.5 Y-59.588 I-1.588 J0
G1 X40.48
G2 X38.893 Y-58 I0 J1.588
G1 Y-53.588
X37.088
Y-58
G2 X35.5 Y-59.588 I-1.588 J0
G1 X30.48
G2 X28.893 Y-58 I0 J1.588
G1 Y-53.588
X27.087
Y-58
G2 X25.5 Y-59.588 I-1.587 J0
G1 X20.48
G2 X18.893 Y-58 I0 J1.588
G1 Y-53.588
X17.087
Y-58
G2 X15.5 Y-59.588 I-1.587 J0
G1 X10.48
G2 X8.893 Y-58 I0 J1.588
G1 Y-53.588
X7.088
Y-58
G2 X5.5 Y-59.588 I-1.588 J0
G1 X0.48
G2 X-1.107 Y-58 I0 J1.588
G1 Y-53.588
X-2.912
Y-58
G2 X-4.5 Y-59.588 I-1.588 J0
G1 X-9.52
G2 X-11.107 Y-58 I0 J1.588
G1 Y-53.588
X-12.913
Y-58
G2 X-14.5 Y-59.588 I-1.587 J0
G1 X-19.52
G2 X-21.107 Y-58 I0 J1.588
G1 Y-54.49
G3 X-21.425 Y-54.173 I-0.318 J0
G1 X-21.742
G18 G3 X-22.06 Z-3.883 I0 K0.317
G0 Z5
Y-54.808
G1 Z-3 F133.3
Z-4.083
G2 X-21.742 Z-4.4 I0.318 K0 F400
G1 X-21.425
G17 G3 X-21.107 Y-54.49 I0 J0.318
G1 Y-53.588
X-22.913
Y-58
G2 X-24.5 Y-59.588 I-1.587 J0
G1 X-29.52
G2 X-31.107 Y-58 I0 J1.588
G1 Y-53.588
X-32.912
Y-58
G2 X-34.5 Y-59.588 I-1.588 J0
G1 X-39.52
G2 X-41.107 Y-58 I0 J1.588
G1 Y-53.588
X-42.912
Y-58
G2 X-44.5 Y-59.588 I-1.588 J0
G1 X-49.52
G2 X-51.107 Y-58 I0 J1.588
G1 Y-53.588
X-52.912
Y-58
G2 X-54.5 Y-59.588 I-1.588 J0
G1 X-59.52
G2 X-61.107 Y-58 I0 J1.588
G1 Y-53.588
X-65.5
G2 X-67.088 Y-52 I0 J1.588
G1 Y-37
G2 X-65.5 Y-35.412 I1.588 J0
G1 X-61.088
Y-23.587
X-65.5
G2 X-67.088 Y-22 I0 J1.587
G1 Y-12
G2 X-65.5 Y-10.413 I1.588 J0
G1 X-61.088
Y11.413
X-65.5
G2 X-67.088 Y13 I0 J1.587
G1 Y23
G2 X-65.5 Y24.587 I1.588 J0
G1 X-61.088
Y36.412
X-65.5
G2 X-67.088 Y38 I0 J1.588
G1 Y58
G2 X-65.5 Y59.588 I1.588 J0
G1 X-64.5
G2 X-63.475 Y59.212 I0 J-1.588
G1 X66.525 Y-50.788
G2 X66.62 Y-53.125 I-1.025 J-1.212
G1 X61.601 Y-58.125
G2 X58.893 Y-57 I-1.12 J1.125
G1 Y-53.588
X57.088
Y-58
G2 X55.5 Y-59.588 I-1.588 J0
G1 X50.48
G2 X48.893 Y-58 I0 J1.588
G1 Y-53.588
X47.088
Y-58
G2 X45.5 Y-59.588 I-1.588 J0
G1 X40.48
G2 X38.893 Y-58 I0 J1.588
G1 Y-53.588
X37.088
Y-58
G2 X35.5 Y-59.588 I-1.588 J0
G1 X30.48
G2 X28.893 Y-58 I0 J1.588
G1 Y-53.588
X27.087
Y-58
G2 X25.5 Y-59.588 I-1.587 J0
G1 X20.48
G2 X18.893 Y-58 I0 J1.588
G1 Y-53.588
X17.087
Y-58
G2 X15.5 Y-59.588 I-1.587 J0
G1 X10.48
G2 X8.893 Y-58 I0 J1.588
G1 Y-53.588
X7.088
Y-58
G2 X5.5 Y-59.588 I-1.588 J0
G1 X0.48
G2 X-1.107 Y-58 I0 J1.588
G1 Y-53.588
X-2.912
Y-58
G2 X-4.5 Y-59.588 I-1.588 J0
G1 X-9.52
G2 X-11.107 Y-58 I0 J1.588
G1 Y-53.588
X-12.913
Y-58
G2 X-14.5 Y-59.588 I-1.587 J0
G1 X-19.52
G2 X-21.107 Y-58 I0 J1.588
G1 Y-54.49
G3 X-21.425 Y-54.173 I-0.318 J0
G1 X-21.742
G18 G3 X-22.06 Z-4.083 I0 K0.318
G0 Z5
Y-54.808
G1 Z-3.2 F133.3
Z-4.283
G2 X-21.742 Z-4.6 I0.318 K0 F400
G1 X-21.425
G17 G3 X-21.107 Y-54.49 I0 J0.318
G1 Y-53.588
X-22.913
Y-58
G2 X-24.5 Y-59.588 I-1.587 J0
G1 X-29.52
G2 X-31.107 Y-58 I0 J1.588
G1 Y-53.588
X-32.912
Y-58
G2 X-34.5 Y-59.588 I-1.588 J0
G1 X-39.52
G2 X-41.107 Y-58 I0 J1.588
G1 Y-53.588
X-42.912
Y-58
G2 X-44.5 Y-59.588 I-1.588 J0
G1 X-49.52
G2 X-51.107 Y-58 I0 J1.588
G1 Y-53.588
X-52.912
Y-58
G2 X-54.5 Y-59.588 I-1.588 J0
G1 X-59.52
G2 X-61.107 Y-58 I0 J1.588
G1 Y-53.588
X-65.5
G2 X-67.088 Y-52 I0 J1.588
G1 Y-37
G2 X-65.5 Y-35.412 I1.588 J0
G1 X-61.088
Y-23.587
X-65.5
G2 X-67.088 Y-22 I0 J1.587
G1 Y-12
G2 X-65.5 Y-10.413 I1.588 J0
G1 X-61.088
Y11.413
X-65.5
G2 X-67.088 Y13 I0 J1.587
G1 Y23
G2 X-65.5 Y24.587 I1.588 J0
G1 X-61.088
Y36.412
X-65.5
G2 X-67.088 Y38 I0 J1.588
G1 Y58
G2 X-65.5 Y59.588 I1.588 J0
G1 X-64.5
G2 X-63.475 Y59.212 I0 J-1.588
G1 X66.525 Y-50.788
G2 X66.62 Y-53.125 I-1.025 J-1.212
G1 X61.601 Y-58.125
G2 X58.893 Y-57 I-1.12 J1.125
G1 Y-53.588
X57.088
Y-58
G2 X55.5 Y-59.588 I-1.588 J0
G1 X50.48
G2 X48.893 Y-58 I0 J1.588
G1 Y-53.588
X47.088
Y-58
G2 X45.5 Y-59.588 I-1.588 J0
G1 X40.48
G2 X38.893 Y-58 I0 J1.588
G1 Y-53.588
X37.088
Y-58
G2 X35.5 Y-59.588 I-1.588 J0
G1 X30.48
G2 X28.893 Y-58 I0 J1.588
G1 Y-53.588
X27.087
Y-58
G2 X25.5 Y-59.588 I-1.587 J0
G1 X20.48
G2 X18.893 Y-58 I0 J1.588
G1 Y-53.588
X17.087
Y-58
G2 X15.5 Y-59.588 I-1.587 J0
G1 X10.48
G2 X8.893 Y-58 I0 J1.588
G1 Y-53.588
X7.088
Y-58
G2 X5.5 Y-59.588 I-1.588 J0
G1 X0.48
G2 X-1.107 Y-58 I0 J1.588
G1 Y-53.588
X-2.912
Y-58
G2 X-4.5 Y-59.588 I-1.588 J0
G1 X-9.52
G2 X-11.107 Y-58 I0 J1.588
G1 Y-53.588
X-12.913
Y-58
G2 X-14.5 Y-59.588 I-1.587 J0
G1 X-19.52
G2 X-21.107 Y-58 I0 J1.588
G1 Y-54.49
G3 X-21.425 Y-54.173 I-0.318 J0
G1 X-21.742
G18 G3 X-22.06 Z-4.283 I0 K0.318
G0 Z5
Y-54.808
G1 Z-3.4 F133.3
Z-4.483
G2 X-21.742 Z-4.8 I0.318 K0 F400
G1 X-21.425
G17 G3 X-21.107 Y-54.49 I0 J0.318
G1 Y-53.588
X-22.913
Y-58
G2 X-24.5 Y-59.588 I-1.587 J0
G1 X-29.52
G2 X-31.107 Y-58 I0 J1.588
G1 Y-53.588
X-32.912
Y-58
G2 X-34.5 Y-59.588 I-1.588 J0
G1 X-39.52
G2 X-41.107 Y-58 I0 J1.588
G1 Y-53.588
X-42.912
Y-58
G2 X-44.5 Y-59.588 I-1.588 J0
G1 X-49.52
G2 X-51.107 Y-58 I0 J1.588
G1 Y-53.588
X-52.912
Y-58
G2 X-54.5 Y-59.588 I-1.588 J0
G1 X-59.52
G2 X-61.107 Y-58 I0 J1.588
G1 Y-53.588
X-65.5
G2 X-67.088 Y-52 I0 J1.588
G1 Y-37
G2 X-65.5 Y-35.412 I1.588 J0
G1 X-61.088
Y-23.587
X-65.5
G2 X-67.088 Y-22 I0 J1.587
G1 Y-12
G2 X-65.5 Y-10.413 I1.588 J0
G1 X-61.088
Y11.413
X-65.5
G2 X-67.088 Y13 I0 J1.587
G1 Y23
G2 X-65.5 Y24.587 I1.588 J0
G1 X-61.088
Y36.412
X-65.5
G2 X-67.088 Y38 I0 J1.588
G1 Y58
G2 X-65.5 Y59.588 I1.588 J0
G1 X-64.5
G2 X-63.475 Y59.212 I0 J-1.588
G1 X66.525 Y-50.788
G2 X66.62 Y-53.125 I-1.025 J-1.212
G1 X61.601 Y-58.125
G2 X58.893 Y-57 I-1.12 J1.125
G1 Y-53.588
X57.088
Y-58
G2 X55.5 Y-59.588 I-1.588 J0
G1 X50.48
G2 X48.893 Y-58 I0 J1.588
G1 Y-53.588
X47.088
Y-58
G2 X45.5 Y-59.588 I-1.588 J0
G1 X40.48
G2 X38.893 Y-58 I0 J1.588
G1 Y-53.588
X37.088
Y-58
G2 X35.5 Y-59.588 I-1.588 J0
G1 X30.48
G2 X28.893 Y-58 I0 J1.588
G1 Y-53.588
X27.087
Y-58
G2 X25.5 Y-59.588 I-1.587 J0
G1 X20.48
G2 X18.893 Y-58 I0 J1.588
G1 Y-53.588
X17.087
Y-58
G2 X15.5 Y-59.588 I-1.587 J0
G1 X10.48
G2 X8.893 Y-58 I0 J1.588
G1 Y-53.588
X7.088
Y-58
G2 X5.5 Y-59.588 I-1.588 J0
G1 X0.48
G2 X-1.107 Y-58 I0 J1.588
G1 Y-53.588
X-2.912
Y-58
G2 X-4.5 Y-59.588 I-1.588 J0
G1 X-9.52
G2 X-11.107 Y-58 I0 J1.588
G1 Y-53.588
X-12.913
Y-58
G2 X-14.5 Y-59.588 I-1.587 J0
G1 X-19.52
G2 X-21.107 Y-58 I0 J1.588
G1 Y-54.49
G3 X-21.425 Y-54.173 I-0.318 J0
G1 X-21.742
G18 G3 X-22.06 Z-4.483 I0 K0.318
G0 Z5
Y-54.808
G1 Z-3.6 F133.3
Z-4.683
G2 X-21.742 Z-5 I0.318 K0 F400
G1 X-21.425
G17 G3 X-21.107 Y-54.49 I0 J0.318
G1 Y-53.588
X-22.913
Y-58
G2 X-24.5 Y-59.588 I-1.587 J0
G1 X-29.52
G2 X-31.107 Y-58 I0 J1.588
G1 Y-53.588
X-32.912
Y-58
G2 X-34.5 Y-59.588 I-1.588 J0
G1 X-39.52
G2 X-41.107 Y-58 I0 J1.588
G1 Y-53.588
X-42.912
Y-58
G2 X-44.5 Y-59.588 I-1.588 J0
G1 X-49.52
G2 X-51.107 Y-58 I0 J1.588
G1 Y-53.588
X-52.912
Y-58
G2 X-54.5 Y-59.588 I-1.588 J0
G1 X-59.52
G2 X-61.107 Y-58 I0 J1.588
G1 Y-53.588
X-65.5
G2 X-67.088 Y-52 I0 J1.588
G1 Y-37
G2 X-65.5 Y-35.412 I1.588 J0
G1 X-61.088
Y-23.587
X-65.5
G2 X-67.088 Y-22 I0 J1.587
G1 Y-12
G2 X-65.5 Y-10.413 I1.588 J0
G1 X-61.088
Y11.413
X-65.5
G2 X-67.088 Y13 I0 J1.587
G1 Y23
G2 X-65.5 Y24.587 I1.588 J0
G1 X-61.088
Y36.412
X-65.5
G2 X-67.088 Y38 I0 J1.588
G1 Y58
G2 X-65.5 Y59.588 I1.588 J0
G1 X-64.5
G2 X-63.475 Y59.212 I0 J-1.588
G1 X66.525 Y-50.788
G2 X66.62 Y-53.125 I-1.025 J-1.212
G1 X61.601 Y-58.125
G2 X58.893 Y-57 I-1.12 J1.125
G1 Y-53.588
X57.088
Y-58
G2 X55.5 Y-59.588 I-1.588 J0
G1 X50.48
G2 X48.893 Y-58 I0 J1.588
G1 Y-53.588
X47.088
Y-58
G2 X45.5 Y-59.588 I-1.588 J0
G1 X40.48
G2 X38.893 Y-58 I0 J1.588
G1 Y-53.588
X37.088
Y-58
G2 X35.5 Y-59.588 I-1.588 J0
G1 X30.48
G2 X28.893 Y-58 I0 J1.588
G1 Y-53.588
X27.087
Y-58
G2 X25.5 Y-59.588 I-1.587 J0
G1 X20.48
G2 X18.893 Y-58 I0 J1.588
G1 Y-53.588
X17.087
Y-58
G2 X15.5 Y-59.588 I-1.587 J0
G1 X10.48
G2 X8.893 Y-58 I0 J1.588
G1 Y-53.588
X7.088
Y-58
G2 X5.5 Y-59.588 I-1.588 J0
G1 X0.48
G2 X-1.107 Y-58 I0 J1.588
G1 Y-53.588
X-2.912
Y-58
G2 X-4.5 Y-59.588 I-1.588 J0
G1 X-9.52
G2 X-11.107 Y-58 I0 J1.588
G1 Y-53.588
X-12.913
Y-58
G2 X-14.5 Y-59.588 I-1.587 J0
G1 X-19.52
G2 X-21.107 Y-58 I0 J1.588
G1 Y-54.49
G3 X-21.425 Y-54.173 I-0.318 J0
G1 X-21.742
G18 G3 X-22.06 Z-4.683 I0 K0.318
G0 Z5
Y-54.808
G1 Z-3.8 F133.3
Z-4.883
G2 X-21.742 Z-5.2 I0.318 K0 F400
G1 X-21.425
G17 G3 X-21.107 Y-54.49 I0 J0.318
G1 Y-53.588
X-22.913
Y-58
G2 X-24.5 Y-59.588 I-1.587 J0
G1 X-29.52
G2 X-31.107 Y-58 I0 J1.588
G1 Y-53.588
X-32.912
Y-58
G2 X-34.5 Y-59.588 I-1.588 J0
G1 X-39.52
G2 X-41.107 Y-58 I0 J1.588
G1 Y-53.588
X-42.912
Y-58
G2 X-44.5 Y-59.588 I-1.588 J0
G1 X-49.52
G2 X-51.107 Y-58 I0 J1.588
G1 Y-53.588
X-52.912
Y-58
G2 X-54.5 Y-59.588 I-1.588 J0
G1 X-59.52
G2 X-61.107 Y-58 I0 J1.588
G1 Y-53.588
X-65.5
G2 X-67.088 Y-52 I0 J1.588
G1 Y-37
G2 X-65.5 Y-35.412 I1.588 J0
G1 X-61.088
Y-23.587
X-65.5
G2 X-67.088 Y-22 I0 J1.587
G1 Y-12
G2 X-65.5 Y-10.413 I1.588 J0
G1 X-61.088
Y11.413
X-65.5
G2 X-67.088 Y13 I0 J1.587
G1 Y23
G2 X-65.5 Y24.587 I1.588 J0
G1 X-61.088
Y36.412
X-65.5
G2 X-67.088 Y38 I0 J1.588
G1 Y58
G2 X-65.5 Y59.588 I1.588 J0
G1 X-64.5
G2 X-63.475 Y59.212 I0 J-1.588
G1 X66.525 Y-50.788
G2 X66.62 Y-53.125 I-1.025 J-1.212
G1 X61.601 Y-58.125
G2 X58.893 Y-57 I-1.12 J1.125
G1 Y-53.588
X57.088
Y-58
G2 X55.5 Y-59.588 I-1.588 J0
G1 X50.48
G2 X48.893 Y-58 I0 J1.588
G1 Y-53.588
X47.088
Y-58
G2 X45.5 Y-59.588 I-1.588 J0
G1 X40.48
G2 X38.893 Y-58 I0 J1.588
G1 Y-53.588
X37.088
Y-58
G2 X35.5 Y-59.588 I-1.588 J0
G1 X30.48
G2 X28.893 Y-58 I0 J1.588
G1 Y-53.588
X27.087
Y-58
G2 X25.5 Y-59.588 I-1.587 J0
G1 X20.48
G2 X18.893 Y-58 I0 J1.588
G1 Y-53.588
X17.087
Y-58
G2 X15.5 Y-59.588 I-1.587 J0
G1 X10.48
G2 X8.893 Y-58 I0 J1.588
G1 Y-53.588
X7.088
Y-58
G2 X5.5 Y-59.588 I-1.588 J0
G1 X0.48
G2 X-1.107 Y-58 I0 J1.588
G1 Y-53.588
X-2.912
Y-58
G2 X-4.5 Y-59.588 I-1.588 J0
G1 X-9.52
G2 X-11.107 Y-58 I0 J1.588
G1 Y-53.588
X-12.913
Y-58
G2 X-14.5 Y-59.588 I-1.587 J0
G1 X-19.52
G2 X-21.107 Y-58 I0 J1.588
G1 Y-54.49
G3 X-21.425 Y-54.173 I-0.318 J0
G1 X-21.742
G18 G3 X-22.06 Z-4.883 I0 K0.317
G0 Z5
Y-54.808
G1 Z-4 F133.3
Z-5.083
G2 X-21.742 Z-5.4 I0.318 K0 F400
G1 X-21.425
G17 G3 X-21.107 Y-54.49 I0 J0.318
G1 Y-53.588
X-22.913
Y-58
G2 X-24.5 Y-59.588 I-1.587 J0
G1 X-29.52
G2 X-31.107 Y-58 I0 J1.588
G1 Y-53.588
X-32.912
Y-58
G2 X-34.5 Y-59.588 I-1.588 J0
G1 X-39.52
G2 X-41.107 Y-58 I0 J1.588
G1 Y-53.588
X-42.912
Y-58
G2 X-44.5 Y-59.588 I-1.588 J0
G1 X-49.52
G2 X-51.107 Y-58 I0 J1.588
G1 Y-53.588
X-52.912
Y-58
G2 X-54.5 Y-59.588 I-1.588 J0
G1 X-59.52
G2 X-61.107 Y-58 I0 J1.588
G1 Y-53.588
X-65.5
G2 X-67.088 Y-52 I0 J1.588
G1 Y-37
G2 X-65.5 Y-35.412 I1.588 J0
G1 X-61.088
Y-23.587
X-65.5
G2 X-67.088 Y-22 I0 J1.587
G1 Y-12
G2 X-65.5 Y-10.413 I1.588 J0
G1 X-61.088
Y11.413
X-65.5
G2 X-67.088 Y13 I0 J1.587
G1 Y23
G2 X-65.5 Y24.587 I1.588 J0
G1 X-61.088
Y36.412
X-65.5
G2 X-67.088 Y38 I0 J1.588
G1 Y58
G2 X-65.5 Y59.588 I1.588 J0
G1 X-64.5
G2 X-63.475 Y59.212 I0 J-1.588
G1 X66.525 Y-50.788
G2 X66.62 Y-53.125 I-1.025 J-1.212
G1 X61.601 Y-58.125
G2 X58.893 Y-57 I-1.12 J1.125
G1 Y-53.588
X57.088
Y-58
G2 X55.5 Y-59.588 I-1.588 J0
G1 X50.48
G2 X48.893 Y-58 I0 J1.588
G1 Y-53.588
X47.088
Y-58
G2 X45.5 Y-59.588 I-1.588 J0
G1 X40.48
G2 X38.893 Y-58 I0 J1.588
G1 Y-53.588
X37.088
Y-58
G2 X35.5 Y-59.588 I-1.588 J0
G1 X30.48
G2 X28.893 Y-58 I0 J1.588
G1 Y-53.588
X27.087
Y-58
G2 X25.5 Y-59.588 I-1.587 J0
G1 X20.48
G2 X18.893 Y-58 I0 J1.588
G1 Y-53.588
X17.087
Y-58
G2 X15.5 Y-59.588 I-1.587 J0
G1 X10.48
G2 X8.893 Y-58 I0 J1.588
G1 Y-53.588
X7.088
Y-58
G2 X5.5 Y-59.588 I-1.588 J0
G1 X0.48
G2 X-1.107 Y-58 I0 J1.588
G1 Y-53.588
X-2.912
Y-58
G2 X-4.5 Y-59.588 I-1.588 J0
G1 X-9.52
G2 X-11.107 Y-58 I0 J1.588
G1 Y-53.588
X-12.913
Y-58
G2 X-14.5 Y-59.588 I-1.587 J0
G1 X-19.52
G2 X-21.107 Y-58 I0 J1.588
G1 Y-54.49
G3 X-21.425 Y-54.173 I-0.318 J0
G1 X-21.742
G18 G3 X-22.06 Z-5.083 I0 K0.318
G0 Z5
Y-54.808
G1 Z-4.2 F133.3
Z-5.283
G2 X-21.742 Z-5.6 I0.318 K0 F400
G1 X-21.425
G17 G3 X-21.107 Y-54.49 I0 J0.318
G1 Y-53.588
X-22.913
Y-58
G2 X-24.5 Y-59.588 I-1.587 J0
G1 X-29.52
G2 X-31.107 Y-58 I0 J1.588
G1 Y-53.588
X-32.912
Y-58
G2 X-34.5 Y-59.588 I-1.588 J0
G1 X-39.52
G2 X-41.107 Y-58 I0 J1.588
G1 Y-53.588
X-42.912
Y-58
G2 X-44.5 Y-59.588 I-1.588 J0
G1 X-49.52
G2 X-51.107 Y-58 I0 J1.588
G1 Y-53.588
X-52.912
Y-58
G2 X-54.5 Y-59.588 I-1.588 J0
G1 X-59.52
G2 X-61.107 Y-58 I0 J1.588
G1 Y-53.588
X-65.5
G2 X-67.088 Y-52 I0 J1.588
G1 Y-37
G2 X-65.5 Y-35.412 I1.588 J0
G1 X-61.088
Y-23.587
X-65.5
G2 X-67.088 Y-22 I0 J1.587
G1 Y-12
G2 X-65.5 Y-10.413 I1.588 J0
G1 X-61.088
Y11.413
X-65.5
G2 X-67.088 Y13 I0 J1.587
G1 Y23
G2 X-65.5 Y24.587 I1.588 J0
G1 X-61.088
Y36.412
X-65.5
G2 X-67.088 Y38 I0 J1.588
G1 Y58
G2 X-65.5 Y59.588 I1.588 J0
G1 X-64.5
G2 X-63.475 Y59.212 I0 J-1.588
G1 X66.525 Y-50.788
G2 X66.62 Y-53.125 I-1.025 J-1.212
G1 X61.601 Y-58.125
G2 X58.893 Y-57 I-1.12 J1.125
G1 Y-53.588
X57.088
Y-58
G2 X55.5 Y-59.588 I-1.588 J0
G1 X50.48
G2 X48.893 Y-58 I0 J1.588
G1 Y-53.588
X47.088
Y-58
G2 X45.5 Y-59.588 I-1.588 J0
G1 X40.48
G2 X38.893 Y-58 I0 J1.588
G1 Y-53.588
X37.088
Y-58
G2 X35.5 Y-59.588 I-1.588 J0
G1 X30.48
G2 X28.893 Y-58 I0 J1.588
G1 Y-53.588
X27.087
Y-58
G2 X25.5 Y-59.588 I-1.587 J0
G1 X20.48
G2 X18.893 Y-58 I0 J1.588
G1 Y-53.588
X17.087
Y-58
G2 X15.5 Y-59.588 I-1.587 J0
G1 X10.48
G2 X8.893 Y-58 I0 J1.588
G1 Y-53.588
X7.088
Y-58
G2 X5.5 Y-59.588 I-1.588 J0
G1 X0.48
G2 X-1.107 Y-58 I0 J1.588
G1 Y-53.588
X-2.912
Y-58
G2 X-4.5 Y-59.588 I-1.588 J0
G1 X-9.52
G2 X-11.107 Y-58 I0 J1.588
G1 Y-53.588
X-12.913
Y-58
G2 X-14.5 Y-59.588 I-1.587 J0
G1 X-19.52
G2 X-21.107 Y-58 I0 J1.588
G1 Y-54.49
G3 X-21.425 Y-54.173 I-0.318 J0
G1 X-21.742
G18 G3 X-22.06 Z-5.283 I0 K0.318
G0 Z5
Y-54.808
G1 Z-4.4 F133.3
Z-5.483
X-22.054 Z-5.544 F400
X-22.036 Z-5.604
X-22.007 Z-5.658
X-21.967 Z-5.706
X-21.742
X-21.425
G17 G3 X-21.107 Y-54.49 I0 J0.318
G1 Y-53.588
X-22.913
Y-57.553
Z-5.8 F133.3
Y-58 F400
G2 X-24.5 Y-59.588 I-1.587 J0
G1 X-29.52
G2 X-31.107 Y-58 I0 J1.588
G1 Y-53.588
X-32.912
Y-56.412
Z-5.706
Y-58
G2 X-34.5 Y-59.588 I-1.588 J0
G1 X-38.112
Z-5.8 F133.3
X-39.52 F400
G2 X-41.107 Y-58 I0 J1.588
G1 Y-53.588
X-42.912
Y-58
G2 X-44.5 Y-59.588 I-1.588 J0
G1 X-45.821
Z-5.706
X-49.52
G2 X-51.107 Y-58 I0 J1.588
G1 Y-56.412
Z-5.8 F133.3
Y-53.588 F400
X-52.912
Y-58
G2 X-54.5 Y-59.588 I-1.588 J0
G1 X-59.52
G2 X-61.107 Y-58 I0 J1.588
G1 Y-57.639
Z-5.706
Y-53.588
X-63.012
Z-5.8 F133.3
X-65.5 F400
G2 X-67.088 Y-52 I0 J1.588
G1 Y-37
G2 X-66.061 Y-35.515 I1.588 J0
G1 Z-5.706
G2 X-65.5 Y-35.412 I0.561 J-1.485
G1 X-61.088
Y-33.507
Z-5.8 F133.3
Y-23.587 F400
X-65.5
G2 X-66.015 Y-23.502 I0 J1.587
G1 Z-5.706
G2 X-67.088 Y-22 I0.515 J1.502
G1 Y-17.152
Z-5.8 F133.3
Y-12 F400
G2 X-65.5 Y-10.413 I1.588 J0
G1 X-61.088
Y-3.443
Z-5.706
Y2.907
Z-5.8 F133.3
Y11.413 F400
X-65.5
G2 X-67.088 Y13 I0 J1.587
G1 Y16.617
Z-5.706
Y22.966
Z-5.8 F133.3
Y23 F400
G2 X-65.5 Y24.587 I1.588 J0
G1 X-61.088
Y34.507
Z-5.706
Y36.412
X-64.526
Z-5.8 F133.3
X-65.5 F400
G2 X-67.088 Y38 I0 J1.588
G1 Y58
X-67.084 Y58.107
Z-5.706
G2 X-65.5 Y59.588 I1.584 J-0.107
G1 X-64.5
G2 X-63.475 Y59.212 I0 J-1.588
G1 X-60.356 Y56.573
Z-5.8 F133.3
X-45.311 Y43.842 F400
Z-5.706
X-40.463 Y39.741
Z-5.8 F133.3
X-25.418 Y27.01 F400
Z-5.706
X-20.57 Y22.908
Z-5.8 F133.3
X-5.524 Y10.177 F400
Z-5.706
X-0.677 Y6.075
Z-5.8 F133.3
X14.369 Y-6.656 F400
Z-5.706
X19.216 Y-10.757
Z-5.8 F133.3
X34.262 Y-23.488 F400
Z-5.706
X39.109 Y-27.59
Z-5.8 F133.3
X54.155 Y-40.321 F400
Z-5.706
X59.003 Y-44.423
Z-5.8 F133.3
X66.525 Y-50.788 F400
G2 X66.62 Y-53.125 I-1.025 J-1.212
G1 X61.601 Y-58.125
G2 X58.893 Y-57 I-1.12 J1.125
G1 Y-55.493
Z-5.706
Y-53.588
X57.088
Y-55.493
Z-5.8 F133.3
Y-58 F400
G2 X55.5 Y-59.588 I-1.588 J0
G1 X50.48
G2 X48.893 Y-58 I0 J1.588
G1 Y-55.198
Z-5.706
Y-53.588
X47.088
Y-55.198
Z-5.8 F133.3
Y-58 F400
G2 X45.5 Y-59.588 I-1.588 J0
G1 X40.48
G2 X38.993 Y-58.553 I0 J1.588
G1 Z-5.706
G2 X38.893 Y-58 I1.488 J0.553
G1 Y-53.588
X37.088
Y-58
G2 X36.469 Y-59.257 I-1.588 J0
G1 Z-5.8 F133.3
G2 X35.5 Y-59.588 I-0.969 J1.257 F400
G1 X30.48
G2 X28.893 Y-58 I0 J1.588
G1 Y-53.588
X27.087
Y-58
G2 X26.534 Y-59.205 I-1.587 J0
G1 Z-5.706
G2 X25.5 Y-59.588 I-1.034 J1.205
G1 X20.48
G2 X20.184 Y-59.559 I0 J1.588
G1 Z-5.8 F133.3
G2 X18.893 Y-58 I0.297 J1.559 F400
G1 Y-53.588
X17.087
Y-58
G2 X15.5 Y-59.588 I-1.587 J0
G1 X12.068
Z-5.706
X10.48
G2 X8.893 Y-58 I0 J1.588
G1 Y-53.644
Z-5.8 F133.3
Y-53.588 F400
X7.088
Y-53.644
Z-5.706
Y-58
G2 X6.988 Y-58.553 I-1.588 J0
G1 Z-5.8 F133.3
G2 X5.5 Y-59.588 I-1.488 J0.553 F400
G1 X0.48
G2 X-1.107 Y-58 I0 J1.588
G1 Y-55.935
Z-5.706
Y-53.588
X-2.912
Y-55.935
Z-5.8 F133.3
Y-58 F400
G2 X-4.5 Y-59.588 I-1.588 J0
G1 X-9.52
G2 X-11.107 Y-58 I0 J1.588
G1 Y-55.493
Z-5.706
Y-53.588
X-12.913
Y-55.493
Z-5.8 F133.3
Y-58 F400
G2 X-14.5 Y-59.588 I-1.587 J0
G1 X-19.52
G2 X-21.107 Y-58 I0 J1.588
G1 Y-57.553
Z-5.706
Y-54.49
G3 X-21.425 Y-54.173 I-0.318 J0
G1 X-21.742
X-21.967 F133.3
X-22.007 Z-5.658 F400
X-22.036 Z-5.604
X-22.054 Z-5.544
X-22.06 Z-5.483
G0 Z5
Y-54.808
G1 Z-4.6 F133.3
Z-5.683
X-22.059 Z-5.706 F400
X-21.742
X-21.425
G3 X-21.107 Y-54.49 I0 J0.318
G1 Y-53.588
X-22.913
Y-57.553
Z-6 F133.3
Y-58 F400
G2 X-24.5 Y-59.588 I-1.587 J0
G1 X-29.52
G2 X-31.107 Y-58 I0 J1.588
G1 Y-53.588
X-32.912
Y-56.412
Z-5.706
Y-58
G2 X-34.5 Y-59.588 I-1.588 J0
G1 X-38.112
Z-6 F133.3
X-39.52 F400
G2 X-41.107 Y-58 I0 J1.588
G1 Y-53.588
X-42.912
Y-58
G2 X-44.5 Y-59.588 I-1.588 J0
G1 X-45.821
Z-5.706
X-49.52
G2 X-51.107 Y-58 I0 J1.588
G1 Y-56.412
Z-6 F133.3
Y-53.588 F400
X-52.912
Y-58
G2 X-54.5 Y-59.588 I-1.588 J0
G1 X-59.52
G2 X-61.107 Y-58 I0 J1.588
G1 Y-57.639
Z-5.706
Y-53.588
X-63.012
Z-6 F133.3
X-65.5 F400
G2 X-67.088 Y-52 I0 J1.588
G1 Y-37
G2 X-66.061 Y-35.515 I1.588 J0
G1 Z-5.706
G2 X-65.5 Y-35.412 I0.561 J-1.485
G1 X-61.088
Y-33.507
Z-6 F133.3
Y-23.587 F400
X-65.5
G2 X-66.015 Y-23.502 I0 J1.587
G1 Z-5.706
G2 X-67.088 Y-22 I0.515 J1.502
G1 Y-17.152
Z-6 F133.3
Y-12 F400
G2 X-65.5 Y-10.413 I1.588 J0
G1 X-61.088
Y-3.443
Z-5.706
Y2.907
Z-6 F133.3
Y11.413 F400
X-65.5
G2 X-67.088 Y13 I0 J1.587
G1 Y16.617
Z-5.706
Y22.966
Z-6 F133.3
Y23 F400
G2 X-65.5 Y24.587 I1.588 J0
G1 X-61.088
Y34.507
Z-5.706
Y36.412
X-64.526
Z-6 F133.3
X-65.5 F400
G2 X-67.088 Y38 I0 J1.588
G1 Y58
X-67.084 Y58.107
Z-5.706
G2 X-65.5 Y59.588 I1.584 J-0.107
G1 X-64.5
G2 X-63.475 Y59.212 I0 J-1.588
G1 X-60.356 Y56.573
Z-6 F133.3
X-45.311 Y43.842 F400
Z-5.706
X-40.463 Y39.741
Z-6 F133.3
X-25.418 Y27.01 F400
Z-5.706
X-20.57 Y22.908
Z-6 F133.3
X-5.524 Y10.177 F400
Z-5.706
X-0.677 Y6.075
Z-6 F133.3
X14.369 Y-6.656 F400
Z-5.706
X19.216 Y-10.757
Z-6 F133.3
X34.262 Y-23.488 F400
Z-5.706
X39.109 Y-27.59
Z-6 F133.3
X54.155 Y-40.321 F400
Z-5.706
X59.003 Y-44.423
Z-6 F133.3
X66.525 Y-50.788 F400
G2 X66.62 Y-53.125 I-1.025 J-1.212
G1 X61.601 Y-58.125
G2 X58.893 Y-57 I-1.12 J1.125
G1 Y-55.493
Z-5.706
Y-53.588
X57.088
Y-55.493
Z-6 F133.3
Y-58 F400
G2 X55.5 Y-59.588 I-1.588 J0
G1 X50.48
G2 X48.893 Y-58 I0 J1.588
G1 Y-55.198
Z-5.706
Y-53.588
X47.088
Y-55.198
Z-6 F133.3
Y-58 F400
G2 X45.5 Y-59.588 I-1.588 J0
G1 X40.48
G2 X38.993 Y-58.553 I0 J1.588
G1 Z-5.706
G2 X38.893 Y-58 I1.488 J0.553
G1 Y-53.588
X37.088
Y-58
G2 X36.469 Y-59.257 I-1.588 J0
G1 Z-6 F133.3
G2 X35.5 Y-59.588 I-0.969 J1.257 F400
G1 X30.48
G2 X28.893 Y-58 I0 J1.588
G1 Y-53.588
X27.087
Y-58
G2 X26.534 Y-59.205 I-1.587 J0
G1 Z-5.706
G2 X25.5 Y-59.588 I-1.034 J1.205
G1 X20.48
G2 X20.184 Y-59.559 I0 J1.588
G1 Z-6 F133.3
G2 X18.893 Y-58 I0.297 J1.559 F400
G1 Y-53.588
X17.087
Y-58
G2 X15.5 Y-59.588 I-1.587 J0
G1 X12.068
Z-5.706
X10.48
G2 X8.893 Y-58 I0 J1.588
G1 Y-53.644
Z-6 F133.3
Y-53.588 F400
X7.088
Y-53.644
Z-5.706
Y-58
G2 X6.988 Y-58.553 I-1.588 J0
G1 Z-6 F133.3
G2 X5.5 Y-59.588 I-1.488 J0.553 F400
G1 X0.48
G2 X-1.107 Y-58 I0 J1.588
G1 Y-55.935
Z-5.706
Y-53.588
X-2.912
Y-55.935
Z-6 F133.3
Y-58 F400
G2 X-4.5 Y-59.588 I-1.588 J0
G1 X-9.52
G2 X-11.107 Y-58 I0 J1.588
G1 Y-55.493
Z-5.706
Y-53.588
X-12.913
Y-55.493
Z-6 F133.3
Y-58 F400
G2 X-14.5 Y-59.588 I-1.587 J0
G1 X-19.52
G2 X-21.107 Y-58 I0 J1.588
G1 Y-57.553
Z-5.706
Y-54.49
G3 X-21.425 Y-54.173 I-0.318 J0
G1 X-21.742
X-22.059 F133.3
X-22.06 Z-5.683 F400
G0 Z5
Y-54.808
G1 Z-4.8 F133.3
Z-5.706
X-21.742 F400
X-21.425
G3 X-21.107 Y-54.49 I0 J0.318
G1 Y-53.588
X-22.913
Y-57.553
Z-6.2 F133.3
Y-58 F400
G2 X-24.5 Y-59.588 I-1.587 J0
G1 X-29.52
G2 X-31.107 Y-58 I0 J1.588
G1 Y-53.588
X-32.912
Y-56.412
Z-5.706
Y-58
G2 X-34.5 Y-59.588 I-1.588 J0
G1 X-38.112
Z-6.2 F133.3
X-39.52 F400
G2 X-41.107 Y-58 I0 J1.588
G1 Y-53.588
X-42.912
Y-58
G2 X-44.5 Y-59.588 I-1.588 J0
G1 X-45.821
Z-5.706
X-49.52
G2 X-51.107 Y-58 I0 J1.588
G1 Y-56.412
Z-6.2 F133.3
Y-53.588 F400
X-52.912
Y-58
G2 X-54.5 Y-59.588 I-1.588 J0
G1 X-59.52
G2 X-61.107 Y-58 I0 J1.588
G1 Y-57.639
Z-5.706
Y-53.588
X-63.012
Z-6.2 F133.3
X-65.5 F400
G2 X-67.088 Y-52 I0 J1.588
G1 Y-37
G2 X-66.061 Y-35.515 I1.588 J0
G1 Z-5.706
G2 X-65.5 Y-35.412 I0.561 J-1.485
G1 X-61.088
Y-33.507
Z-6.2 F133.3
Y-23.587 F400
X-65.5
G2 X-66.015 Y-23.502 I0 J1.587
G1 Z-5.706
G2 X-67.088 Y-22 I0.515 J1.502
G1 Y-17.152
Z-6.2 F133.3
Y-12 F400
G2 X-65.5 Y-10.413 I1.588 J0
G1 X-61.088
Y-3.443
Z-5.706
Y2.907
Z-6.2 F133.3
Y11.413 F400
X-65.5
G2 X-67.088 Y13 I0 J1.587
G1 Y16.617
Z-5.706
Y22.966
Z-6.2 F133.3
Y23 F400
G2 X-65.5 Y24.587 I1.588 J0
G1 X-61.088
Y34.507
Z-5.706
Y36.412
X-64.526
Z-6.2 F133.3
X-65.5 F400
G2 X-67.088 Y38 I0 J1.588
G1 Y58
X-67.084 Y58.107
Z-5.706
G2 X-65.5 Y59.588 I1.584 J-0.107
G1 X-64.5
G2 X-63.475 Y59.212 I0 J-1.588
G1 X-60.356 Y56.573
Z-6.2 F133.3
X-45.311 Y43.842 F400
Z-5.706
X-40.463 Y39.741
Z-6.2 F133.3
X-25.418 Y27.01 F400
Z-5.706
X-20.57 Y22.908
Z-6.2 F133.3
X-5.524 Y10.177 F400
Z-5.706
X-0.677 Y6.075
Z-6.2 F133.3
X14.369 Y-6.656 F400
Z-5.706
X19.216 Y-10.757
Z-6.2 F133.3
X34.262 Y-23.488 F400
Z-5.706
X39.109 Y-27.59
Z-6.2 F133.3
X54.155 Y-40.321 F400
Z-5.706
X59.003 Y-44.423
Z-6.2 F133.3
X66.525 Y-50.788 F400
G2 X66.62 Y-53.125 I-1.025 J-1.212
G1 X61.601 Y-58.125
G2 X58.893 Y-57 I-1.12 J1.125
G1 Y-55.493
Z-5.706
Y-53.588
X57.088
Y-55.493
Z-6.2 F133.3
Y-58 F400
G2 X55.5 Y-59.588 I-1.588 J0
G1 X50.48
G2 X48.893 Y-58 I0 J1.588
G1 Y-55.198
Z-5.706
Y-53.588
X47.088
Y-55.198
Z-6.2 F133.3
Y-58 F400
G2 X45.5 Y-59.588 I-1.588 J0
G1 X40.48
G2 X38.993 Y-58.553 I0 J1.588
G1 Z-5.706
G2 X38.893 Y-58 I1.488 J0.553
G1 Y-53.588
X37.088
Y-58
G2 X36.469 Y-59.257 I-1.588 J0
G1 Z-6.2 F133.3
G2 X35.5 Y-59.588 I-0.969 J1.257 F400
G1 X30.48
G2 X28.893 Y-58 I0 J1.588
G1 Y-53.588
X27.087
Y-58
G2 X26.534 Y-59.205 I-1.587 J0
G1 Z-5.706
G2 X25.5 Y-59.588 I-1.034 J1.205
G1 X20.48
G2 X20.184 Y-59.559 I0 J1.588
G1 Z-6.2 F133.3
G2 X18.893 Y-58 I0.297 J1.559 F400
G1 Y-53.588
X17.087
Y-58
G2 X15.5 Y-59.588 I-1.587 J0
G1 X12.068
Z-5.706
X10.48
G2 X8.893 Y-58 I0 J1.588
G1 Y-53.644
Z-6.2 F133.3
Y-53.588 F400
X7.088
Y-53.644
Z-5.706
Y-58
G2 X6.988 Y-58.553 I-1.588 J0
G1 Z-6.2 F133.3
G2 X5.5 Y-59.588 I-1.488 J0.553 F400
G1 X0.48
G2 X-1.107 Y-58 I0 J1.588
G1 Y-55.935
Z-5.706
Y-53.588
X-2.912
Y-55.935
Z-6.2 F133.3
Y-58 F400
G2 X-4.5 Y-59.588 I-1.588 J0
G1 X-9.52
G2 X-11.107 Y-58 I0 J1.588
G1 Y-55.493
Z-5.706
Y-53.588
X-12.913
Y-55.493
Z-6.2 F133.3
Y-58 F400
G2 X-14.5 Y-59.588 I-1.587 J0
G1 X-19.52
G2 X-21.107 Y-58 I0 J1.588
G1 Y-57.553
Z-5.706
Y-54.49
G3 X-21.425 Y-54.173 I-0.318 J0
G1 X-22.06
G0 Z5
Y-54.808
G1 Z-5 F133.3
Z-5.706
X-21.742 F400
X-21.425
G3 X-21.107 Y-54.49 I0 J0.318
G1 Y-53.588
X-22.913
Y-57.553
Z-6.4 F133.3
Y-58 F400
G2 X-24.5 Y-59.588 I-1.587 J0
G1 X-29.52
G2 X-31.107 Y-58 I0 J1.588
G1 Y-53.588
X-32.912
Y-56.412
Z-5.706
Y-58
G2 X-34.5 Y-59.588 I-1.588 J0
G1 X-38.112
Z-6.4 F133.3
X-39.52 F400
G2 X-41.107 Y-58 I0 J1.588
G1 Y-53.588
X-42.912
Y-58
G2 X-44.5 Y-59.588 I-1.588 J0
G1 X-45.821
Z-5.706
X-49.52
G2 X-51.107 Y-58 I0 J1.588
G1 Y-56.412
Z-6.4 F133.3
Y-53.588 F400
X-52.912
Y-58
G2 X-54.5 Y-59.588 I-1.588 J0
G1 X-59.52
G2 X-61.107 Y-58 I0 J1.588
G1 Y-57.639
Z-5.706
Y-53.588
X-63.012
Z-6.4 F133.3
X-65.5 F400
G2 X-67.088 Y-52 I0 J1.588
G1 Y-37
G2 X-66.061 Y-35.515 I1.588 J0
G1 Z-5.706
G2 X-65.5 Y-35.412 I0.561 J-1.485
G1 X-61.088
Y-33.507
Z-6.4 F133.3
Y-23.587 F400
X-65.5
G2 X-66.015 Y-23.502 I0 J1.587
G1 Z-5.706
G2 X-67.088 Y-22 I0.515 J1.502
G1 Y-17.152
Z-6.4 F133.3
Y-12 F400
G2 X-65.5 Y-10.413 I1.588 J0
G1 X-61.088
Y-3.443
Z-5.706
Y2.907
Z-6.4 F133.3
Y11.413 F400
X-65.5
G2 X-67.088 Y13 I0 J1.587
G1 Y16.617
Z-5.706
Y22.966
Z-6.4 F133.3
Y23 F400
G2 X-65.5 Y24.587 I1.588 J0
G1 X-61.088
Y34.507
Z-5.706
Y36.412
X-64.526
Z-6.4 F133.3
X-65.5 F400
G2 X-67.088 Y38 I0 J1.588
G1 Y58
X-67.084 Y58.107
Z-5.706
G2 X-65.5 Y59.588 I1.584 J-0.107
G1 X-64.5
G2 X-63.475 Y59.212 I0 J-1.588
G1 X-60.356 Y56.573
Z-6.4 F133.3
X-45.311 Y43.842 F400
Z-5.706
X-40.463 Y39.741
Z-6.4 F133.3
X-25.418 Y27.01 F400
Z-5.706
X-20.57 Y22.908
Z-6.4 F133.3
X-5.524 Y10.177 F400
Z-5.706
X-0.677 Y6.075
Z-6.4 F133.3
X14.369 Y-6.656 F400
Z-5.706
X19.216 Y-10.757
Z-6.4 F133.3
X34.262 Y-23.488 F400
Z-5.706
X39.109 Y-27.59
Z-6.4 F133.3
X54.155 Y-40.321 F400
Z-5.706
X59.003 Y-44.423
Z-6.4 F133.3
X66.525 Y-50.788 F400
G2 X66.62 Y-53.125 I-1.025 J-1.212
G1 X61.601 Y-58.125
G2 X58.893 Y-57 I-1.12 J1.125
G1 Y-55.493
Z-5.706
Y-53.588
X57.088
Y-55.493
Z-6.4 F133.3
Y-58 F400
G2 X55.5 Y-59.588 I-1.588 J0
G1 X50.48
G2 X48.893 Y-58 I0 J1.588
G1 Y-55.198
Z-5.706
Y-53.588
X47.088
Y-55.198
Z-6.4 F133.3
Y-58 F400
G2 X45.5 Y-59.588 I-1.588 J0
G1 X40.48
G2 X38.993 Y-58.553 I0 J1.588
G1 Z-5.706
G2 X38.893 Y-58 I1.488 J0.553
G1 Y-53.588
X37.088
Y-58
G2 X36.469 Y-59.257 I-1.588 J0
G1 Z-6.4 F133.3
G2 X35.5 Y-59.588 I-0.969 J1.257 F400
G1 X30.48
G2 X28.893 Y-58 I0 J1.588
G1 Y-53.588
X27.087
Y-58
G2 X26.534 Y-59.205 I-1.587 J0
G1 Z-5.706
G2 X25.5 Y-59.588 I-1.034 J1.205
G1 X20.48
G2 X20.184 Y-59.559 I0 J1.588
G1 Z-6.4 F133.3
G2 X18.893 Y-58 I0.297 J1.559 F400
G1 Y-53.588
X17.087
Y-58
G2 X15.5 Y-59.588 I-1.587 J0
G1 X12.068
Z-5.706
X10.48
G2 X8.893 Y-58 I0 J1.588
G1 Y-53.644
Z-6.4 F133.3
Y-53.588 F400
X7.088
Y-53.644
Z-5.706
Y-58
G2 X6.988 Y-58.553 I-1.588 J0
G1 Z-6.4 F133.3
G2 X5.5 Y-59.588 I-1.488 J0.553 F400
G1 X0.48
G2 X-1.107 Y-58 I0 J1.588
G1 Y-55.935
Z-5.706
Y-53.588
X-2.912
Y-55.935
Z-6.4 F133.3
Y-58 F400
G2 X-4.5 Y-59.588 I-1.588 J0
G1 X-9.52
G2 X-11.107 Y-58 I0 J1.588
G1 Y-55.493
Z-5.706
Y-53.588
X-12.913
Y-55.493
Z-6.4 F133.3
Y-58 F400
G2 X-14.5 Y-59.588 I-1.587 J0
G1 X-19.52
G2 X-21.107 Y-58 I0 J1.588
G1 Y-57.553
Z-5.706
Y-54.49
G3 X-21.425 Y-54.173 I-0.318 J0
G1 X-22.06
G0 Z5
Y-54.808
G1 Z-5.2 F133.3
Z-5.706
X-21.742 F400
X-21.425
G3 X-21.107 Y-54.49 I0 J0.318
G1 Y-53.588
X-22.913
Y-57.553
Z-6.5 F133.3
Y-58 F400
G2 X-24.5 Y-59.588 I-1.587 J0
G1 X-29.52
G2 X-31.107 Y-58 I0 J1.588
G1 Y-53.588
X-32.912
Y-56.412
Z-5.706
Y-58
G2 X-34.5 Y-59.588 I-1.588 J0
G1 X-38.112
Z-6.5 F133.3
X-39.52 F400
G2 X-41.107 Y-58 I0 J1.588
G1 Y-53.588
X-42.912
Y-58
G2 X-44.5 Y-59.588 I-1.588 J0
G1 X-45.821
Z-5.706
X-49.52
G2 X-51.107 Y-58 I0 J1.588
G1 Y-56.412
Z-6.5 F133.3
Y-53.588 F400
X-52.912
Y-58
G2 X-54.5 Y-59.588 I-1.588 J0
G1 X-59.52
G2 X-61.107 Y-58 I0 J1.588
G1 Y-57.639
Z-5.706
Y-53.588
X-63.012
Z-6.5 F133.3
X-65.5 F400
G2 X-67.088 Y-52 I0 J1.588
G1 Y-37
G2 X-66.061 Y-35.515 I1.588 J0
G1 Z-5.706
G2 X-65.5 Y-35.412 I0.561 J-1.485
G1 X-61.088
Y-33.507
Z-6.5 F133.3
Y-23.587 F400
X-65.5
G2 X-66.015 Y-23.502 I0 J1.587
G1 Z-5.706
G2 X-67.088 Y-22 I0.515 J1.502
G1 Y-17.152
Z-6.5 F133.3
Y-12 F400
G2 X-65.5 Y-10.413 I1.588 J0
G1 X-61.088
Y-3.443
Z-5.706
Y2.907
Z-6.5 F133.3
Y11.413 F400
X-65.5
G2 X-67.088 Y13 I0 J1.587
G1 Y16.617
Z-5.706
Y22.966
Z-6.5 F133.3
Y23 F400
G2 X-65.5 Y24.587 I1.588 J0
G1 X-61.088
Y34.507
Z-5.706
Y36.412
X-64.526
Z-6.5 F133.3
X-65.5 F400
G2 X-67.088 Y38 I0 J1.588
G1 Y58
X-67.084 Y58.107
Z-5.706
G2 X-65.5 Y59.588 I1.584 J-0.107
G1 X-64.5
G2 X-63.475 Y59.212 I0 J-1.588
G1 X-60.356 Y56.573
Z-6.5 F133.3
X-45.311 Y43.842 F400
Z-5.706
X-40.463 Y39.741
Z-6.5 F133.3
X-25.418 Y27.01 F400
Z-5.706
X-20.57 Y22.908
Z-6.5 F133.3
X-5.524 Y10.177 F400
Z-5.706
X-0.677 Y6.075
Z-6.5 F133.3
X14.369 Y-6.656 F400
Z-5.706
X19.216 Y-10.757
Z-6.5 F133.3
X34.262 Y-23.488 F400
Z-5.706
X39.109 Y-27.59
Z-6.5 F133.3
X54.155 Y-40.321 F400
Z-5.706
X59.003 Y-44.423
Z-6.5 F133.3
X66.525 Y-50.788 F400
G2 X66.62 Y-53.125 I-1.025 J-1.212
G1 X61.601 Y-58.125
G2 X58.893 Y-57 I-1.12 J1.125
G1 Y-55.493
Z-5.706
Y-53.588
X57.088
Y-55.493
Z-6.5 F133.3
Y-58 F400
G2 X55.5 Y-59.588 I-1.588 J0
G1 X50.48
G2 X48.893 Y-58 I0 J1.588
G1 Y-55.198
Z-5.706
Y-53.588
X47.088
Y-55.198
Z-6.5 F133.3
Y-58 F400
G2 X45.5 Y-59.588 I-1.588 J0
G1 X40.48
G2 X38.993 Y-58.553 I0 J1.588
G1 Z-5.706
G2 X38.893 Y-58 I1.488 J0.553
G1 Y-53.588
X37.088
Y-58
G2 X36.469 Y-59.257 I-1.588 J0
G1 Z-6.5 F133.3
G2 X35.5 Y-59.588 I-0.969 J1.257 F400
G1 X30.48
G2 X28.893 Y-58 I0 J1.588
G1 Y-53.588
X27.087
Y-58
G2 X26.534 Y-59.205 I-1.587 J0
G1 Z-5.706
G2 X25.5 Y-59.588 I-1.034 J1.205
G1 X20.48
G2 X20.184 Y-59.559 I0 J1.588
G1 Z-6.5 F133.3
G2 X18.893 Y-58 I0.297 J1.559 F400
G1 Y-53.588
X17.087
Y-58
G2 X15.5 Y-59.588 I-1.587 J0
G1 X12.068
Z-5.706
X10.48
G2 X8.893 Y-58 I0 J1.588
G1 Y-53.644
Z-6.5 F133.3
Y-53.588 F400
X7.088
Y-53.644
Z-5.706
Y-58
G2 X6.988 Y-58.553 I-1.588 J0
G1 Z-6.5 F133.3
G2 X5.5 Y-59.588 I-1.488 J0.553 F400
G1 X0.48
G2 X-1.107 Y-58 I0 J1.588
G1 Y-55.935
Z-5.706
Y-53.588
X-2.912
Y-55.935
Z-6.5 F133.3
Y-58 F400
G2 X-4.5 Y-59.588 I-1.588 J0
G1 X-9.52
G2 X-11.107 Y-58 I0 J1.588
G1 Y-55.493
Z-5.706
Y-53.588
X-12.913
Y-55.493
Z-6.5 F133.3
Y-58 F400
G2 X-14.5 Y-59.588 I-1.587 J0
G1 X-19.52
G2 X-21.107 Y-58 I0 J1.588
G1 Y-57.553
Z-5.706
Y-54.49
G3 X-21.425 Y-54.173 I-0.318 J0
G1 X-22.06
G0 Z15
G28 G91 Z0
G90
G28 G91 X0 Y0
G90
M5
M30
